/* XPM */
static char *_642107_resized[] = {
/* columns rows colors chars-per-pixel */
"128 128 256 2 ",
"   c #060C03",
".  c #0A1403",
"X  c #0D1B05",
"o  c #091505",
"O  c #121D08",
"+  c #0E0D1B",
"@  c #0A0818",
"#  c #110E1C",
"$  c #170519",
"%  c #0E1217",
"&  c #12101E",
"*  c #151A1A",
"=  c #141916",
"-  c #1A0C0B",
";  c #2B1015",
":  c #0D2305",
">  c #122306",
",  c #132409",
"<  c #162B09",
"1  c #162C08",
"2  c #1A3608",
"3  c #1A2517",
"4  c #1D3212",
"5  c #213C0B",
"6  c #233418",
"7  c #212E1C",
"8  c #140E21",
"9  c #151421",
"0  c #191625",
"q  c #171925",
"w  c #191925",
"e  c #1D1D29",
"r  c #1A1428",
"t  c #111025",
"y  c #24192B",
"u  c #2D1D32",
"i  c #22222E",
"p  c #222825",
"a  c #252531",
"s  c #2A2A35",
"d  c #2A2935",
"f  c #36283B",
"g  c #33333E",
"h  c #2C3334",
"j  c #1E2723",
"k  c #6B0D2B",
"l  c #1B4405",
"z  c #23440B",
"x  c #274A0A",
"c  c #2C540B",
"v  c #2B5808",
"b  c #325C0B",
"n  c #375715",
"m  c #2F4816",
"M  c #38680A",
"N  c #3D7309",
"B  c #376410",
"V  c #344B21",
"C  c #447A0A",
"Z  c #487014",
"A  c #527024",
"S  c #383943",
"D  c #483147",
"F  c #742E5A",
"G  c #624D5F",
"H  c #3D414A",
"J  c #8D0615",
"K  c #8B012C",
"L  c #850126",
"P  c #97022A",
"I  c #980336",
"U  c #8E0B30",
"Y  c #A4023C",
"T  c #AF1433",
"R  c #B22D1C",
"E  c #C92F22",
"W  c #DA6D14",
"Q  c #E8730D",
"!  c #DD5E24",
"~  c #980E45",
"^  c #A90547",
"/  c #B2034C",
"(  c #B8034C",
")  c #BB0254",
"_  c #B90957",
"`  c #AC1453",
"'  c #B02A55",
"]  c #BB1865",
"[  c #B92F6C",
"{  c #9E2251",
"}  c #C20155",
"|  c #C4025B",
" . c #C9025E",
".. c #C5095D",
"X. c #C91550",
"o. c #CB0563",
"O. c #CC0B65",
"+. c #CD0C69",
"@. c #C60563",
"#. c #D10B68",
"$. c #CA156A",
"%. c #D3136C",
"&. c #D2196E",
"*. c #D51B73",
"=. c #DA1C75",
"-. c #D71774",
";. c #CB1B71",
":. c #CA2876",
">. c #DB247B",
",. c #DD2A7D",
"<. c #D72377",
"1. c #C9357B",
"2. c #C92C6D",
"3. c #D62D6B",
"4. c #AE496B",
"5. c #CA5F5C",
"6. c #BA4222",
"7. c #4A840A",
"8. c #498507",
"9. c #58960A",
"0. c #568B11",
"q. c #679916",
"w. c #629A0F",
"e. c #6AA80C",
"r. c #7CBC0B",
"t. c #76B50B",
"y. c #6CA513",
"u. c #73AA13",
"i. c #77B512",
"p. c #71AF0E",
"a. c #6B9F1C",
"s. c #7EC00A",
"d. c #80BF0C",
"f. c #F09410",
"g. c #F2B12A",
"h. c #F1A51E",
"j. c #82C50C",
"k. c #86C711",
"l. c #FDDE27",
"z. c #DF9E5B",
"x. c #FBF26F",
"c. c #F5D952",
"v. c #9BC051",
"b. c #DE2C81",
"n. c #DB2982",
"m. c #DA3685",
"M. c #CB3A83",
"N. c #E22D83",
"B. c #E23385",
"V. c #E43B8C",
"C. c #E6388B",
"Z. c #E93D90",
"A. c #D61A83",
"S. c #B55F8B",
"D. c #D35191",
"F. c #E6418E",
"G. c #EB4494",
"H. c #EB4A96",
"J. c #ED4C9A",
"K. c #E64895",
"L. c #F14B9B",
"P. c #EC539D",
"I. c #E4579C",
"U. c #F1539E",
"Y. c #CD6698",
"T. c #ED5AA3",
"R. c #F255A2",
"E. c #F25BA4",
"W. c #F55DA9",
"Q. c #F254AA",
"!. c #D768A2",
"~. c #D575A8",
"^. c #EA66A9",
"/. c #F464AB",
"(. c #F569AE",
"). c #F664AB",
"_. c #F56DB2",
"`. c #F86BB2",
"'. c #EA79B5",
"]. c #F573B5",
"[. c #F973B6",
"{. c #F676B9",
"}. c #FA76B9",
"|. c #F67BBB",
" X c #F97CBC",
".X c #F779B5",
"XX c #E872AD",
"oX c #E56B8F",
"OX c #F97FC1",
"+X c #ABABB0",
"@X c #AB98A1",
"#X c #D78CB4",
"$X c #F582BE",
"%X c #F981BF",
"&X c #F08DBF",
"*X c #E78CBB",
"=X c #DD9EA7",
"-X c #F6DEA2",
";X c #F584C1",
":X c #FA84C2",
">X c #F58BC5",
",X c #F98AC5",
"<X c #FA8DC9",
"1X c #F68CC9",
"2X c #F693CA",
"3X c #FA93CC",
"4X c #F49BCD",
"5X c #F999CE",
"6X c #F391C6",
"7X c #FA9CD2",
"8X c #F899D1",
"9X c #EA97C6",
"0X c #D5B0C9",
"qX c #E6A6C9",
"wX c #F6A3D3",
"eX c #FAA3D5",
"rX c #FBACDB",
"tX c #F8A9D7",
"yX c #EAB7D6",
"uX c #FBB3DE",
"iX c #F6B8DC",
"pX c #EEA9CF",
"aX c #FCB5E1",
"sX c #FCBCE3",
"dX c #FABCE4",
"fX c #D8D7DB",
"gX c #D2CAD2",
"hX c #E9C6DB",
"jX c #EEC8D8",
"kX c #FDC3E6",
"lX c #FACAE6",
"zX c #FEC5E9",
"xX c #FCCBEA",
"cX c #F5C8E4",
"vX c #ECD8E6",
"bX c #FAD3EC",
"nX c #FADAEE",
"mX c #F4D8EA",
"MX c #FCDCF2",
"NX c #FDD6F3",
"BX c #F3CDE6",
"VX c #ECECED",
"CX c #E5E4E7",
"ZX c #F5E3ED",
"AX c #FBE4F3",
"SX c #F4ECF3",
"DX c #FBEBF6",
"FX c #FCEDF9",
"GX c #F6E5F2",
"HX c #FCF4FB",
"JX c #FDFEFE",
"KX c #F5F4F6",
"LX c #F0F3EF",
"PX c #E2E0E0",
"IX c #BDBFC2",
"UX c #767B81",
/* pixels */
"q q w w w e w w w w e w w e w e w w w e w w w e w w w e w w w w w w w w w w w w w w e w w w w w w w w w w w w w w w w w w w w w w w w w w q w w 9 w 9 w w 9 w * 9 q 9 q 9 q q 9 9 9 9 9 9 9 9 9 9 9 9 9 # 9 9 9 9 9 9 9 8 & 8 & 9 9 # 9 & 0 & & & & 8 9 # 9 8 & ",
"q q w w w w w w w w w w w w w w w w w w w w w w w w w w w w w w w w w w w w w w w w w w w w q w w w w w w w w 9 w 9 w w w 9 q 0 * 0 w w 9 0 9 w w 9 w 9 9 w 0 9 9 q 9 9 q & 9 9 w * 9 & t 9 9 9 9 9 9 8 9 9 9 t 9 & # 9 9 & 9 # # 9 & 8 & & & & & 9 * & 9 # & & ",
"w w w w w w w w w w w w w w w w w w w w w w w w w w w w w w w w w w w w w w w w w w w w w w w w q q q q w w w w q w w w w 9 w q 9 w w w 0 9 w 9 w 9 0 q 9 q 9 0 9 9 9 9 & 9 9 9 q 9 9 & 9 9 9 9 9 t 9 9 9 9 9 8 & 9 & 9 9 9 # 9 # 9 & & & & 8 & & & & & # 9 & 9 ",
"w w w w w w w w w w w w w w w w w w w w w w w w w w w w w w w w w w w w w w w w w w w w w w w w q q q q w w w 9 0 q w 9 w w w w w 0 w w * q 9 w * 0 9 w w w 9 q 9 9 9 9 q * 9 9 * 9 9 9 9 9 # 9 9 9 9 9 9 # 9 9 8 9 9 8 & & 9 # 9 & & 9 0 & & & & & & & 9 # 9 # ",
"w w w w w e w w w w w w w w w w w w w w w w w w w w w w w w w w w w w w w w w w w w w w w w w w w w w w w w w w w q w w w 9 w w w w w q 9 9 9 w w 9 q w 0 w 9 & 9 9 9 # 9 9 9 9 9 9 9 9 9 9 9 9 9 t 9 9 9 8 9 # 9 9 9 9 # 9 9 & # 9 & & 9 & 9 & 9 9 # 9 # 9 # 8 ",
"q q w w w w w w w w w w w w w w w w w w w w w 0 w w w w w e w w w 0 w w w w w w w w w w w w w w w w w w w q 0 * 9 q w w w w w w w w w w * w w 9 q w 9 9 q 9 9 a 0 9 9 a q 9 q 9 & 9 9 9 9 9 9 9 9 9 9 9 9 9 9 9 9 9 8 9 9 & & & 9 # & 9 8 & & & # # 9 # 9 # & & ",
"q e w w w w w w w w w w w w w w w w w w w w w w w 9 9 e w 9 * 0 e e w e w w w w w w w w w w w w w w w w w 0 0 w e r 0 e w w w w w w w w 0 w 0 q 9 w w w q + S 0Xa + S gXi & 9 9 a a i & # # # t 9 8 # 9 9 t 9 9 9 9 9 + + 9 9 8 & & & & & 9 & & 9 # 8 # 9 9 9 # ",
"q q w w w w w w w w w w w w w w w w w w w w q * 9 d a q y a a r 9 9 9 9 9 w w w w w w w w w w w w w w w w 0 w w 9 e 9 9 w w w 9 w w w w 9 9 9 w q 0 9 9 9 g CXvXr h CXyXw & y g fXKXgXa i i i # # 9 9 9 9 9 9 # # 9 8 e a + + 9 8 & 9 & & & & & 8 9 9 # # + 9 & ",
"e w w w w w w w w w w w w w w w w w w w q q e i g CXCXs +XcXdXG e s s d a t t r e 9 w w 9 e w w w w w w w w w w w e 9 r w w 0 e w w w w q 9 q q 9 9 i q i PXJXhXD CXAXyXy S CXLXHXbXHXVXCXKXgXi 9 9 9 9 9 9 # i i & # IXfXy e 9 & 8 9 # # 9 9 + # 9 # t 9 # 9 # ",
"q q w w w w w w w w w w w w w w w w w w e 9 i fXLXJXJXVXJXAXzXcXyXvXVXLX0XS e t 9 e w 9 r w w w w w w w w w w w 0 0 q q w w w 9 w q w w q 9 9 r 9 S gXe h KXDXiXZXAXkXdXhXVXJXJXHXnXAXxXxXJXJXfXe # 9 9 # # s fXCXa UXJXdXSXgX# + 9 # 9 9 # 9 9 9 # 9 # # 9 # 9 ",
"w e w w w w w w w w w w w w w w w w q w q 9 S CXbXzXzXDXDXkXkXzXzXzXNXJXFXdX0XS i t q w q w w w w w w w w 0 w w 9 e w 9 q w 9 e 9 w q 9 9 e a t e vXLXa IXJXnXcXHXdXcXDXJXJXDXBXJXbXkXsXxXJXJXCX9 + # 9 e S CXJXJXCXBXkXzXFXyXa y & # 9 # 9 9 + # # 9 9 # 9 9 # ",
"w w w w w w w w w w w w w w w w w w w e 9 a PXJXxXsXkXkXkXaXzXzXkXaXsXzXGXxXkXiXqXS 9 9 w w w 9 w w w w w w 9 w q r 9 e w 9 e 9 w w q r + S gXy a KXCX0XJXJXGXzXzXzXHXJXJXMXiXFXHXkXkXkXDXnXbXvXq @ 9 S CXBXaXcXAXkXsXkXkXaXiXpXfXS # & & 8 # 9 9 # # # # # & 9 ",
"w w w w w w w w w w w w w w e w 9 9 9 9 % S hXFXJXbXsXkXkXeX7XdXxX7XeXkXzXzXdXdXzXpXS y 0 8 9 e w q w w w w w w e 9 e 9 w w w w 0 w q q + S GXG #XHXJXJXJXJXFXkXlXJXJXJXxXdXAXAXlXkXkXkXxXdXxXCX9 a gXSXiX<X{.eX7X1XzXuXtXkXsXMXFXyXf @ 9 t 9 # 9 + t # t # 9 # ",
"e w w w w w w w w w w w w 9 9 0 a d d a S vXlXaXbXHXnXkXzXzX7X,XrXaX,X>XaXzXaX1XrXzX9X'.S y 9 r w 0 w w w w w w w r 9 e q w e 9 q 0 9 e y S GXyXkXAXJXHXxXFXlXBXHXJXAX$X{.aXzXaXaXzXkX6XuXdXNXPXS yXxX7X|..XOX_.^.dXuX;XuXBXDXAXsXzXf @ # 9 # 9 # 9 9 # 9 9 9 # ",
"q e q w w w w w w w w 0 w s i S CXZXCXVXVXJXJXxXsXkXcXsXdXdXsX<X,X<X,X;XOX4XdXdX;X1XrXOX|.~.f 9 9 w w w w w w w w w w 9 0 0 e e 9 q 9 a gXhXDXkXlXSXJXDXdXxXHXJXJXAX^.C.E.;X_.T.$XsXsX>XrX,XxXAXyXzX2X].{.|./.K.7XuX|.wXnXJXAXkXsX0Xa + 9 # # & 9 & # 9 # 9 # 9 ",
"q q q w w w w w w w w * s CXLXLXJXNXxXxXbXnXHXHXJXJXJXiXrXrXrXtX:X X:X:X:X{.;XaXrX/.{.OX:XOX!.f w 0 w 0 w w w w w w 9 e 0 q 9 9 e e q a SXJXAXcXJXJXJXkXlXHXJXJXyXV.>./.{.J.m./..X5XrX{.wX:XkXzXzX8X{.{.|.E.b.].rX.X;XnXJXAXkXkX0Xy @ + + + & & & & 9 # 9 # 9 # ",
"w w w w w w w w w q e & s KXJXJXKXlXkXkXkXkXzXwX'.yXmXJXJXJXJXJXBXcXwX{.|.;X|._.|.:X).F.T.;X{.XXf + r e 9 w w w w w w w w w w 9 9 e q a VXJXDXxXJXJXDXxXJXJXBXI.<.#.J.).,.,._.}.).>X5X).P.;XkXsX;X[..X{.).<.R.{.{._.iXJXDXsXNXG $ + + + + + # & & & & & & & 9 & ",
"e w w w w 9 e w w q e 9 s LXJXlXzXzXkXkXkXzXkXzXwXH.,.*XqXZXSXSXJXJXmX>X6XAXJX&X(.].[./.V.F.}.OXD e 9 9 w w w w w 9 w w w w w q q w # i CXJXJXJXJXFXmXHXJXHX*X| o.>.J.#.<.(.E.H.F.H.].).U.|.iXkX;X]._.`.n.K.`.(.).4XJXKXkXbX#X@ @ + + % + + # & & & 9 & 9 & 9 # ",
"w w w w w e w w w w q 9 s KXHXzXkXzXsXkXxXkX7XeXkXkX2XN.-.;.<.:.hXZXJXJXJXZXmXZXSX'.'.{.(.A.n.).}.!.y 9 w 0 9 w w w w w w w e w 0 e a S VXJXHXJXDXBXJXJXmX:.$.O.%.B.O.%.L.G.Z.$.>.U.).G.J.(.tXxXeX/.J.B.<./.(.(.;XdXJXzXsX0Xy @ & + + + # # & & & & & & 8 9 & + ",
"e w w w w w w w w w e & g SXxXzXzXzXuX3XeXrX3X,X,XeXkXsX:XG.n.#.;.$.*XnXSXyX:.;.qXSXHXGX;X_.-.-.E.}.!.u 9 e w 0 w w w w w 9 9 w 9 a fXKXJXHXxXDXBXJXJXBX2.| | O.%.O.O.N.>.%.%...B.G.J.G.J.L.$XzX>XG.Z.$.V.).W.&XKXJXnXzX*X8 + # + + + + # # & & & & & & # + 9 9 ",
"w w w w w w w w w w 9 9 s gXzXkXzXkXzXrX:X:X<X<X<X%X$X7XaX,X`.P.N.-.=.,.b.hXMX<.@.<.D.BXGXJXXXo.+.F.}.Y.y 9 0 0 w 9 9 0 q q r q 9 a VXJXJXFXsXBXJXKXvX;.^ / +. .} | &.%.O.%. .X.Z.V.,.G.K.=.;XdXP.F.&.#.P.(.'.SXJXHXkXaX#X$ $ % + # + # & & & & # 9 & & # 9 # # ",
"w w w w w w w w w * a d a S hXeXrXkXzXzXtX$X$X:X,X<X X].;XeX8X[./.Z.=.#.%.,.I.P.b.o.o.$.1.vXHXD.o.+.J.}.u @ 9 9 w s d 9 9 r q q 9 i VXJXGXiXlXJXHXD._ ~ ^ o.o.:.#XD.o.@. . .Y _ N.>.,.G.C.-.].dXP.<. .%.I.GXKXJXJXlXdX3X#X& + + + + + # & # & & & & & # 9 # # 9 ",
"w w w w w w w w q g PXLXLXvXxXsX5X<XrXsXzXrX|..X}. X|..X].].,X].(.).J.N.%.o.+.*.H.Z.%.o. .2.BXKXM.o.&.E.].D 0 t d gXfXS a r r t 9 S VXJXnXlXJXJXY.) Y K ) o.M.DXpX:. .$.I.$X*XiX1.| N.V.%.o.XXaXV...O.>.^.KXJXJXHXkXeX,X~.+ + + # # + & & # & & 9 # # 9 9 # 9 # ",
"e e w w w w w 9 d CXJXMXFXAXkXkXsX2X|.2XeXuXeX}.}.}.].}.[._._.].W.R.`.E.C.-.+.#.+.,.V.%.O. .2.mXSX<.O.+.T.{.S.# r y @XNX0Xd t t s PXJXnXiXKXLXD._ [ ~ ` +.:.KXqX|  .D.ZXJX#X#XuXm.| N.;.+.o.2X!.} #. .m.HXJXJXJXnXiX,X'.y @ + + + + & & & & & & # 9 9 + 9 9 # 9 ",
"w w w e w w w 9 g KXJXDXdXxXAXzXzXkX8X|.{.:X2X|.}.}.].].`.].]._._.P.F.[.).F.=.+.+.o.n.B.O.@.O.] VXD.o.+.+.W.!.y t @ S.>X9XqXS t s JXJXiXkXSX[ [ vXGXBX$XOXwXKXtX4XpXDXBX[ P ) $._ ..,.$.+.o.8XD.| O.| *XJXJXJXJXbX8X:X'.0 + # + # # # & & & 8 & 9 # & & 9 # 9 # ",
"w w w w w w w 9 s LXJXJXDXrXeXeXeXsXzXrX;X|.[.].&X6X6X$X|.].(._._._.P.,.E.(.G.3.+.#.o.<.<.@.+.@.hXSXM.#.O.&.W.Y.@ @ t #XK.OXqXr s KXJXtXHXY./ GXGX6X4XwXbXkXMXFXxXxXkX1._ / O.} / +.$._ +.@.4XI. .@.M.KXJXJXJXkXkX5X X~.9 + # # # # & & & & # & # 9 & & # 9 9 # ",
"e w w w 0 w e & s SXxXzXxXzXtX,X,X<XeXsXrX].&XcXHXJXJXHXSX9X|.(.).).(.H.<.H.).G.=.O.+.O.>.$.@.+.] 4.mXM.@.@.<.^.D S 0XvX^.;.<X#Xs LXHXdXqX^ ] DXzXrXxXJXJXbXxXAXzXkXxX8X,XD. ._ / %._ / +.@.4XI.} +.cXJXJXJXxXkXuX,X'.u # # # # # # & & & 8 & & 8 & & & & & # # ",
"w w w w w 0 e a S KXnXsXkXkXkXeX,X,X,X;X>XiXJXJXJXJXJXHXJXKXJXpX(././.).G.&.F.E.H.=.O.O.O.<.+.O. .Y 4.mX;.+.@.<.XXI.OXMX7Xn.V.9XD LXxX7X[ ] [ 4XiXlXkXGXJXJXbXkXzXkXzXrX3XK.| / _ O.Y ^ ^ _ 2XD.] <.cXJXJXJXlXsXuX,X~.& @ # # @ # # & & & & & & & & # & & & & 8 ",
"e w w w w q e fXZXDXJXbXkXzXzXkX7X:X:X5XnXKXwX>X2X6X&X.X{.|.wXcXbX$XU./.E.C.-.,.G.G.<.O.o...*.O.O.) ~ oXT.O.@.@.B.m.) T.nXK.;.>XiXJXdXM.#XDXrX,XeXkXkXlXJXJXHXlXkXkXzXuX:X].I.` ( @.I / ^ ) 9X~.BXsXbXJXJXHXlX>X$X:X~.& @ + + # + # # # & & & # & & # & 9 9 # & ",
"w w w w w q y gXJXkXxXAXkXwXuXsXsX4XpXGXcX'.(.`.`.).)./.).Z.C.G.^.T.).U.T.R.b.-.>.G.F.*.O._ ( $.@.o.^ ~ K.1.z.X.@.G.;./ 4XT.o.K.rXJXwXyXJXAXkXeX<XrXzXkXxXJXJXBXzXkXkXkX6X|.,X$XK._ P / ^ | '.!.vXAXJXJXHXxXkX$X|.XX0 @ # # + # # # & & & # & & # & & & # # # & ",
"w w w w w w w g LXJXkXkXkX5X;X,X4XHXDX$X].[.]._.`._.[.G.V.H.B.>.N.B.V.B.B.P.U.>.%.<.F.F.&.O./ / O.O...P X.=Xl.E +.n.T.K #X'.o.K.dXSXnXJXJXJXbXaX<X3XsXkXlXHXJXxXzXzXkXzX7X].|.3X>X] I ^ I _ %.M.nXAXJXJXHXcXaX$X%XXX$ @ # + # # # & & # 9 & # 9 & & & & 9 # 9 # ",
"e w w w w e 9 a VXJXKXkXsXzX4X$XnXDX$X{.<X%X_._.(.W.V.B.,.,.C.>.&.,.B.,.,.N.P.H.=.&.=.C.V.+.@.I / | O./ I 2.3.z.! @.m.~ { 9X#.~.JXtXdXJXJXJXAXkX5X:XeXkXzXJXJXxXkXzXzXzX7X.X{.>X>X$XT.^ I ( <.uXkXAXJXJXxXkX>X|.%XXX0 + # + # # & & & & & # 9 # & & 8 # # # 9 # ",
"w w w w q e & i VXnXkXzXeXrXsX5XGX9X`.].:X<X X(.P.B.N.b.B.B.,.N.<...&.,.,.>.,.H.F.&.&.&.C.,.O.) ~ 5.3.| I Y F.c.f.2.O.<.I 9XM.ZXDXrX8XKXJXJXJXxXrX<X2XsXzXzXAXbXkXkXkXzX8X|.].|.:X,X3X[ K / n.sXzXJXJXJXzXiX%X X%X~.& + + + + # & # & & # 9 # # 8 & & # 9 9 # # ",
"w w w w q e e S vXHXkXkXaX6X1XmXKX;X]..X]. X,X].).J.b.N.,.,.,.,.,.>._ ..<.,.=.*.F.V.&.#.%.B.*.) 5.x.! | Y P ..! x.l.X.A.I Y.JXbXkXkX8XkXJXJXJXbXdX<X:XuXzXkXzXkXzXzXzXzX7X|.{. X:X:X<X2.L / n.sXbXJXJXJXlX7X}.%XXXu @ + # + + # & & & & # 9 9 # & & & & # # # 9 ",
"e w w w r + +XzX1XNXFXsXzXrX|.bXmX]..X]._.). X,X^.E.J.,.B.C.>.,.,.,.,._ ^ $.=.*.&.B.B.#.O.&.m.$.] W z.c.z.c.h.g.! ! ' 3.( 4.JXkXsXxXaXrXJXJXJXJXxX5X:X7XkXkXzXkXkXkXkXkX5X X].[.:X:X<X[ K I M.JXJXJXJXHXxX5X.X XXXy + + + + + + & # # & & # 9 & & & 9 & & & # 9 ",
"w w w w r @ +XAX8X<XmXbXsXzX2X4XSX1X].{./.V./..X XG.U.H.<.V.F.,.,.,.,.<._ ^ ..*.-.#.,.,.#...-Xg.) 5.l.g.Q g.h.f.5.c.c.h.( S.JXZXaXsXzXwXAXJXJXJXxXaX>X>X6XuXzXkXzXuXuXkXeX$X_.].:X%X<X[ K I m.HXJXJXHXlXsX2X.X X'.y @ + + # + # & & & & & # # & & # # # & 8 # # ",
"w w w e e @ +XMXdX3X,XiXxXzXaX|.cXZX_._.[.J.,.L._.[.B.J.B.$.F.C.&.<.<.<.=._ I ( %.$.+.<.<.O.z.! } X.W Q E J g.E z.h.W f.' NXJXFXaXeXzXrXdXJXJXJXHXsX;X:X<X7XkXkXzXuXeXzXdX;X_.{.%X%X<X[ K I 1.HXJXJXJXkXuX|..X|.!.y @ + + + # # # & # # 9 # # & # & & # & & & & ",
"e w w e e @ +XMXkXaX,XwXDX4XzX7X;XeX{.F.E._.F.=.C.).`.n.V.>.$.V.<.} $.<.=.&.( I ^ O.+.O.#.o.| ) z.c.c.x.l.R h.g.c.W ' x.h.ZXkXrXzXrXrXkX4XHXJXJXHXcX3X%X:X2XaXzXzXkXwXkXsX$X[.].%X$X<X[ K I 1.HXJXJXJXxXeX.X XXXy + % + + # + # & & 9 * 9 # & & & & & & & # # & ",
"w w e 9 e @ +XAXiXzX7X7XHXwXrXdX$X,X,XU.b./.(.,.%.>.R.W.<.,.>.O.,.,.} ..&.*.-./ P Y ( +.O.2.2.-Xg.h.f.f.! W l.f.h.-XJXLXmXbXaX3X8XaXwXsXwXGXJXJXHXzX7X X;X,XtXkXkXkXtXsXdX;X].[.$X%X%X[ L I M.HXJXJXHXzX6X_.|.!.& + # + # + # # & & & $ # & & & & & & & & & & & ",
"w w 9 e e @ +XJXkXkXdXwXJXcXOXaXtX]..X{.B.*.E.E.>.%.%.Z.P.=.%.%.O.,.3.( / } #.<.` T I Y D.x.Q g.Q R l.g.qX-X-XoXoXJXJXHXbXDXHXrX,X,X<XrXeXwXHXJXDXdXrX;X:X,X7XsXzXzXrXeXkX$X_.[..X(.^.K K ^ m.HXJXJXBXuXOX{.XXy @ + + # + + # # & # & & # 8 & & & & 8 # & 9 & & ",
"w w w w e + +XJXSXdXuXuXFXSX;X<XsX,X_.{./.%.-.U.T.*.-.+.b.L.>.O.O.} F.~.M.:.2.mXKXrX'.` T z.! T f.c.f.g.JXaX3X8XHXJXJXJXDXuXAXxX8X:XOX1XrX6XcXdXzXdXdXOXOX$X>XaXzXzXaXtXkX$X_._.}.).^.K K / n.xXJXJXlX7X[.}.XXy @ & + + # # # & & & & & & & & & & 9 & & 8 & & & ",
"w w w w w + +XJXJXDX7X5XwXJXwXOX7XaX/./..XV.#.*.J.J.-.%.#.<.Z.B. .Y.VXnX7XrXJXJXdX'.;X3X' z.l.E 5.x.f.c.FX:X,X4XHXJXJXBXbXkXrXdXeX<XOX4XHXJXAX8X<XwXsX1X.X:X>XrXkXzXaX2XaX$X`.].].(.I.K U _ m.cXJXnXsX>X_. X!.r @ + + + # # # & & & & & & & & & & # & & & & & # ",
"w w q w w w e fXJXJXnX,X4XJXSX;X|.eX>Xb./.).>.+.$.C.H.%.+.O.%.,.'.BXqXm.K.JXSX#X;.] _ [ -Xh.! ^ z.g.R h.VX1X3XHXJXJXJXAX3XeX7X,X,X<XwXSXJXHXNXsX<X:X2X,X.X$X,X<XsXzXkX>X;X|._.[.E.).^.L ^ @.b.xXJXkXuX$X(.Y.y + + + + + # # & # & & & & & & 8 & & & & # & & & & ",
"w w w w w e + IXJXBXxXaX8XDXJX9X{.{.8X_.>.E.P.%.#.O.,.C.-.+.#. .*X^.) ) 2.9X:.[ [ cX9X/ 5.E ^ 5.g.Q J W -X8X4XHXGXJXHXkXrX;XrX5X;XcXJXJXbXFXbXkXeX,XOX.X{.OX:X,XsXkXzX5X{.OX_.`.E./.I.L / @.m.bXJXuXeX[.!.y @ # + + + # # # & & & & & & & 8 & & & & & & & & & & ",
"w e w w w w q S KXJXkXzXaX2XZXJXiX_.P.}.E.&.J.Z.+.#.+.#.>.%. .o.@. .:.$.o.) Y.HXD.mXrX3X[ K ' l.f.z.f.Q -XBX4XJXrXuXxXkXaX4XFXJXHXJXJXJXKXkXJXBXsX3X,X|._..X:X:XeXkXzX7X}. X_./.P.P.~ L / @.!.JXSXuX,X[.!.& + + + % + + # # & & & & & & & & & & & & & & & & & & ",
"w w w w w q * i CXJXxXkXkXaX;XjXJX2X/.B.).H.%.C.B.#.$.:.+.$.M.$.} !.MXuXm.!.JXjX` jX!.:.5X' J 6.6.x.f.R U vXJXJXxX,XeXsX8X6XHXHXJXJXJXJXJXAXbXJXxXtX>X:X{._.|.:X,XkXlX5X[. X_.E.P.P.U L / o.XXJXiXeX{._.^.0 + + # # + # # & # & & & & & & & & & & & & & & & & & ",
"w w w w w e q 9 S KXHXkXkXzXsX;XiXZX$XP.>.H.Z.O.=.=.*.GX:._ DXm.#XnX!.F.].iXJXJXbXiXXXY I.$XT z.f.R l.f.R 5.JXJXFX8X:X7XwXpXHXkXDXJXJXJXJXJXBXbXHXuX<X;X X_..X:X,XiXzX5X(. X`.L.Q.I.U L / o.^.JXtX,X^.(.Y.$ % # + # + # & & # & & 8 & & & & & & & 8 & & & & & & ",
"w w w w q q e 9 a PXJXxXaXaXzXzX>X9XcX3XP.&.,.B.%.o.D.mXD.qXHXD.yX:.} ) ( #XJXHXHXkXiX1.Y .X1.z.f.! l.6.g.x.JXHXHXrX,XSXJXJXHXiXzXJXJXJXJXJXHXrXdXkX7XOX:X_.(. X%X>XzX5X(. X(.J.T.T.I L / o.XXnX5X(.L.!.# + # + + + + # & & & & & # # $ & & & & & & & & & & & & ",
"w w w w w w w w q g CXJXxX4X8XrXzX3XXXpX7XT.-.#.-.+.ZXiXcXJXqXhXwXO.Y Y I ~.JXJXmXkXxXsX1.] /.T 6.c.g.h.f.z.JXGXiXsX6XFXJXJXHXkXkXMXJXJXJXHXJXbX5XkXaX:X X{./..X%X$XzX2X(.}.).H.E.P.U L _  .^.rX:XI.W.Y.8 + # + # # # # & & 9 & & & & & & 8 & & & 9 & & & & $ & ",
"w w w w w w w w w & g PXJXkX3X;X1XrX8XT.XX).E.>.o.$.mX6XDXSX) qXFX'.^ K Y ~ jXJXJXJXKXkXkX^.T.T.-Xf.U x.W J KXJXrXwXGXHXJXJXlXlXbXkXJXJXJXHXbXKXeXtXkX>X{. X/./. X,XzX5X(.(.).H.).P.U L / o.J.,X{.C.`.D.# + + + # # # 9 9 # # & & # # & & & & & & & & & & & & & ",
"e w w w w w w w w e 9 g PXHXdX7XOX X:X XL.n.C.L.N.m.ZX1XGXKX2.qXJXrX$X` I K ' JXJXJXJXxXsX7X:X,X$XXXT J J J gXJXzX8XJXJXJXHXkXAXHXsXxXJXJXJXMXkXuX,XaX3X{. X_./.}.;XkX2X(.).C.H.W.K.U L / o.T.3XV.L.!.r # + + + # # # # # # & & # 9 & & & 9 8 & & & & & & # & & ",
"w w w w w w w w q w e & S KXxXdXeX;X X XOX`.B.=.%.qXBX{.HXqXyXY.vXnX5X:XI P { KXJXJXJXHXxXrX:X:X/..X%X[ J k ~ DXbXnXJXJXJXMXsXAXJXlXsXmXJXJXHXkXkX<X,X,X[.{._.T.].%XsX2X(.(.C.L.I.U L L / -. XT.*.).D.# + + + + @ # 9 # # 9 & & # # & & & & & & & & & & # 9 # & ",
"w w w w w w w w w w w 9 i fXJXkXsXaX>X{.}.OX}.R.-.qXxX{.ZXD.yX#XhXJXrXwXvX4.P S.JXJXHXmXDXdX8XOX].E.[.[.oXT U fXbXJXJXHXbXnXiXGXJXxXsXkXAXJXJXnXkX7X;X:X|. X_.T.(..X|.].[.U.V.U.P.K L K / ,.}.<.G.S.r # + + + % = V = # & & & # 9 # & & & & & # 8 # # # 9 & & & ",
"w w w w w w w w w w w w q q @XGXbXsXkX7X]./._.{./.cXxX/.XX!.qXJX[ ZXAXtXJXBXY.Y Y.KXJXJXBXbXaX,X|./.P.}.).`.[ ' xXJXJXJXzXiXzXHXJXDXkXkXkXHXJXHXzX8X;X,X{.{.].E./.[._.].).<.B.U.K.K K K ) U.K.&.).M.@ # + + * z b 3 # # 8 # & & 9 # & & & & & & & # 9 9 8 & & & ",
"w w w w w w w w w w q e q * e fXGXcXzXkXaX>X/.L.^.HXzXK.' mXD.LX1.hXJXmXHXJXJXqX] #XKXSXJXcXcXeX].E.E.F.E.V.U.I.yXJXJXJXAXiXxXJXJXDXsXzXkXxXHXJXxXuX:X,X{.].{.E./.].(././.=.C.J.U K K K &.J.@.C.T.4.@ @ % 5 z v 4 + & & 9 # # # # & & & & & & & & & 9 # 9 & & & ",
"w w w w w w w w w w q q q q e y g vXHXxXdXzXaXOXXXJXiX[ I =XqXyXqX` DXJXJXJXJXJXMXMXiXXXBXJXlX2X,XP.F.C.,.L.>.C.I.HXJXJXbXzXHXJXJXHXkXzXkXsXbXJXzXdX1X:X{.[.{.W.U.].E.B.).>.B.H.U k K I N.%.*.W.F @ # < z 2 z 6 # & & & # # 9 9 # 8 9 & & & & & & & # & # & & # ",
"w w w w w w w w w w w w w w w w & S fXVXBXkXkXkXkXJXuX] P ` vXY.yX1.1.JXJXHXAXJXFXdXxXzX2XI.hXrX%X}.K.>.=.-.-.$.D.HXGXSXzXlXJXJXJXHXxXsXkXkXkXzXzXsX>X:X{.].[.E.E..X).C.,.>.H.P.P k k ] 5.4.P.F @ * 4 z : 1 2 & 8 & # + + # & # & 9 & & 9 # & & # & & # 9 # # 8 ",
"w w w w w w w w w w w w w w w w q 9 e g vXJXzXsXkXJXcX2.I I 4.iXD.uX_ Y.HXJXAXlXJXAXeXaXxX1Xn.-.P._. XV.o.o.M.GXHXxXdXrXsXbXJXJXHXxXzXkXkXkXzXkXkXkX,X:X{.]./.E.U.U.U.C.%.>.E.H.K L / 4.N 5.F @ = 2 z : : z 4 + + + + + + & & & # & & & # 9 & & & & & & # 9 & & ",
"w w w w w w w w w w w w w w w w q e 9 + S fXhXsXkXJXJXXXY Y I 0XyXT.*XY !.xXJXZXdXxXsX8X3XsXaXm.o.-.H.$XI.Y.JXJXJXmXzXdXeXxXJXJXJXkXzXkXzXzXkXtXkXsX<X X.X_./.P.U.C.,.,.-.,.U.U k Y { M B 4.= O 4 2 X X 2 2 + + + + + + # & & & & & & & 9 # # & & & & & & & & & ",
"w w w w w w w w w w w w w w w w q w q 9 # e d 0XiXJXJXXXP { qXn.6XXXXXP.m.aXeXAXNXeXaXkXwX|.5X3XZ.o.1.KXDXdXAXJXJXJXNXzXaXeXNXJXJXlXkXzXkXzXsX2XsXsX,X.X_._.W.R.U.C.,.>.#.C.G.L K U N l B < < 1 1 X X 2 4 + + @ + + + # & & & # & & & & 8 # & & # & & # 9 & & & ",
"w w w w w w w w w w w w w w w w w w w w w & # e g LXJX'.^ 4.FX^.%./.C.B.OXNXeX].wX7X:X3XeX7X].{.`.^.GXJXAXsXaXDXJXJXJXkXzXtXrXxXnXkXkXkXzXkXkX2XeXiX%X[.(._.E.U.U.,.,.%.%.V.I L k A x c z > < : X > 1 1 + @ + + + + 8 9 & & 9 # & & & & & & & & & & # & # # # 9 ",
"w w w w w w w w w w w w w w w w w w w w w q 9 @ e KXJX^.#XJXmXuXI.@.G.=.;.!.NXtX_./.].OX:X,X{.|.tXdXJXbXDXbXsXaXHXJXJXMXkXzXeXuXkXkXkXkXkXkXzX3X6XkX,X[._._./.U.U.,.#.o.>.F.P k Z M 1 M 2 O X   : 1 , % @ + % % % % # # + 8 + & & # & & & & & # # & & & # 9 # # ",
"w w w w w w w w w w w e w w w w w w w w w w w 9 D *XJX'.pXJXFXuXrX1.( ,.%.( D.cXuX_.I.G.R.`.}.6XJXJXbXdXzXxXzXsXkXJXJXJXxXkXsXwXsXzXkXzXkXkXkX5X3XsX,X[.(.[./.G.>.,.O...B.,.L 5 B 2 x M X   . O < % $ 3 < z x x x x m & * * 9 9 9 9 & & # 8 # 9 & & & & & & 9 # ",
"w w w w w w w w w w w * w w w w w w w w w w 9 a hX1.ZXmXXXHXJXdX7X1X2./ $.&.} _ 9XdX:X_.H.m.-.F.JXJXbXkXkXkXzXxXuXcXJXJXbXdXzXuXrXzXkXkXkXkXzX5X$X,X%X(.,.E.E.F.=.,. .%.,.k ; N x X M 5   X X X X O < < < 1 5 z l x M b C y.0.* + $ # & # 9 # # & & # & & & 8 # ",
"w w w w w w w w w w w w w w w w w w w w q e q e VXK.~.AX].HXJXcX3XrXXX/ / ( } / Y 1.|.|..X_.XX#XJXJXJXBXsXkXzXzXzXrXcXJXNXsXkXzXeXrXkXkXtXuXzX5X|.OXOX).,.L.R.G.=.>. .=.2.; c b , 2 B 4   . . . O > , , , 1 5 5 2 v M M C 8.9.7.3 7 * + & & # & & & & & # & & # ",
"w w w w w w w w w w w w w w w w w w w w q q q # IXXX*.yX|.BXmXHXeX3XeXI...] ` ' ` I Y ^ / 1.JXJXJXJXJXJXzXsXkXzXxXzX8XzXxXsXsXzXaX2XsXzX7XwXxXeX X_.{.).,.>.L.L.=.*. .{ $ z M , : c 5   . . O O X > , , , 2 5 5 5 v M M 8.C 8.s.p.i.m * # 8 & & # & & & & & # 9 ",
"w w w w w w w w w w w w w w w w w w w w w w w 9 S CXb.I.wXm.rXFXAX5X3X<X&XSXDXHXvX1.[ D.pXcXJXJXJXJXAXAXHXkXkXkXzXzXsX3XaXsX2XeXxX8X7XzXuX>XdXsX|.H._.).=.-.J.Z.#...` $ 2 M < O > n X . . O . . . . X X X X O X : 2 2 l M M 8.p.j.s.i.y.6 * # 8 & & & # & & # 9 ",
"w w w w w w w w w w w w w w w w w w w w w w w 9 i fXiXn.1Xm.^.dXHXxX:XiXGXJXHXiXkXMXNXaXeXaXnXJXJXJXJXnXNXnXsXsXkXzXzXaX3XsXeX|.rXdX:XuXzX|.eXdX|.J.).U.=.=.G.+.+.) y c b 2 > > z z   . . . .   . . X X X X > 2 2 2 2 2 2 2 2 v 7.9.s.r.r.q.3 # & & & & & 8 # # ",
"q q q w w w w w w 0 w w w w w w w w q w w w w e t s fX^.Z._.-.9XaXFXdXZXJXKXHXnX5X3XuXuX<X7XaXbXJXJXJXJXxXsXkXkXaXsXkXzXeX2XrXOX$XaX8X,XuX{.;XaX.XH.).L.>.-.-.o.@.~ B l : X , O v 1   . .   . . . O < 1 < > > z b c b C N N M M v x v 8.e.j.u.3 8 # & & & & & # ",
"e q w w w w w w w * w w w w w w w w w w w w w w q t s fX`.C.+.n.eXeXmXJXJXbXiXxXsX<X>XrXeXiXAXaXbXJXJXJXHXkXkXkXuX3XaXzXkX3X,X,X X:XaX]._..X].$X XH.).U.=.-. .O._ k : o X O X z 4     . . . .     . , 1 2 2 1 2 v v v C C t.d.r.r.9.9.M M 7.e.i.7 # # & & & & & ",
"q e w w w w w w w w w w w w w w w w w w q w q q q q t H fX`.A._ T.7XeXJXnXFXnXiXsXrXkXKXAXFXMXzXuXxXJXJXJXHXkXsXkXeX3XsXzXdX<X,X:X{.3X2X/.|.[./. XF.G.L.<.-...o._ - X O O O 1 z :   o . . . X < < 1 < 3 < 5 v c v v v N C e.t.t.r.r.s.r.r.9.9.9.t.V * 8 # 8 & & ",
"w w w w w w w w w w w w w w w w w w w w w w w q r q q 9 a ~.`.@.$.|.tXnXDXsXxXkXkXFXJXFXzXkXzXzXzXaXcXJXJXJXAXrXtXsX3X,XaXzXrX:X:X|..X2XT.J. XH.).L.&.L.=.%. . .~ O X , X : 2 .   < < , < < , = = = # @ @ + 3 , 4 N 8.8.8.9.r.r.r.r.r.r.t.r.t.u.i.t.u.6 * * & # ",
"e q w w w w w w w w w w w w w w w w w w w w w w q q q r t a >X`.| ] HXbXdXkX8XeXFXJXJXJXAXkXkXzXzXzXsXcXHXJXDXkX7X3X<X:X,XrXzX7X X|.}..XW.%.R.E.V.U.<.G.%.} o.k O > : O O % @ @ @ % % % % % % # @ @ # + + + + $ @ @ n u.y.y.u.u.u.u.u.q.3 = 3 = % n d.q.a.q.# 8 ",
"w w w w w w w w w w w w w w w w w w w w w w w w q q q q e A v.=XT.$.mXJXdXiXkX3XcXJXJXJXJXnXsXkXzXzXzXsXrXuXkXkXsX3X:X,X:X;X3XrX>X.X}.].[.,.*.).,.H.&.,.%.} O.k o X .   o = = O % @ $ # $ + @ @ + + + + + + + # % + & = = = = = = = * = # @ @ + @ # = = * w # 8 ",
"w w w w w w w w w w w w w w w w w w w w w w w w q q q q q 7 z a.*XW.D.bXsXtXrXsXuXJXJXJXJXJXMXuXzXkXkXzXkXwXtXkXkXaX6X:X,X%X X;X3X.X}._.].R.O.B.L.>.>.+.@.| ` -     X > : > , < 1 = % % @ + + + + # + + + + # # + + # + + + + + + + @ + # + # + # @ # @ @ + # # ",
"w w w w w w w w w w w w w w w w w w w w w w w w q q q q 9 t r & D *X:XnXAXkXeX8XeXbXJXJXJXAXHXmXrXsXzXzXkXkX5X3XaXzXaX:X$X:X%X X}.}.U.(._.`.,. .C.%. .}  .| ;     o X X O : O X > < 1 4 = @ + + # % + + + # @ # + # + + + # + # + # % + + + + # # # + + + + + + ",
"w w w w w w w w w w w w w w w w w w w w w w w w q t j p 7 j 4 p v +XJXHXbXsXzXaX3X3XMXJXJXJXbXAXMX8XaXkXzXzXzX8X:X7XaXrX$X%X%X X.X{.).B.E.}.E.O.O.$.| ..| ^ -   X .   . . X > : , < < < 2 % # # % + # + + + # # & # # # # # # + # @ # # # # # # # # # # # # + + ",
"w w w w w w w w w w w w w w w w w w w w w w w w q i a.i.i.p.w.0.N A JXJXFXAXHXJXSXdX7XnXJXJXJXBXxXbX3X3XrXsXzXzX8X X;X8X3X X{.{..X_. XE.=.Z./.,.| | @.@.` -     . O O X X o . X < 1 < < z 5 % + + $ # # # # # # & & & & & # # + + # # @ # # # # # & & & # # # # ",
"w w w w w w w w w w w w w w w w w w w w w w w 9 p 0.7 7 p m B B v Z VXJXJXJXJXJXJXJXHXBXAXJXJXJXNXrXaX8X:X,XeXaXkXeX%X X%X%X{.[.].J.J.{.R.O.O.%.| | @.^ ;   o o   . X , > : X   X > > 5 z x 5 % % # # 9 # & & 9 & # & # & # & & # & & # # 9 & & & & # & # & 9 # ",
"w w w w w w w w w w w w w w w w w w w w w w w w q e q t t @ # y p e G JXJXJXJXHXDXHXJXJXJXJXSXHXJXbX8XeX<X:X,X,X4XrXeX%X].P./.[.}.[.K.n.P.H.O. .o.o.^ . X X o X   . . X > > > O . . . > 1 z x z z % % # # # & # & & & & & & & & & & & & # 9 # & # & & & & & & 8 ",
"w w w w w w w w w w w w * w w w w w w w w w w w w e 0 & # y y @XKXhXyXzXAXJXJXJXcXkXlXAXJXJXGXrXrXkXaX:X,X,XOX{.OX;X1X;X}.P.b.n.K.P.).G.&.&.%..._ ~ ; o : X   : . . .   O , > < < 1 > X o : > z x v z * # 9 & 8 # & & & # & & # & # & & & & & # & & & & & $ 9 # ",
"w w w w w w w w w w w w w w w w w w w w w w 0 w w 9 9 e d 0X4X4XJXJXJXMXdXcXDXJXJXzXsXeXeXxXZXzXtX2X1X:X,X,X XK.H.T.`.[. X X_.P.b.*.O.=.<. . . .k .   : , X o O X   . . o : > < x x 2 1 1 1 > > : 2 v v c & + + & & & & & & & & & & # & & & & & & & & & & & 9 # ",
"w w w w w w w w w w w w w w w w w w w w w w w * 0 a S fXjX;X X$XHXJXJXJXJXbXrXuXxXzXkXsXeX,X<XrXzXsXeX3XOXOX:X X(.C.b.b.U.E.).).(.U.H.,.o.o...~ X   . , , o o , , . . . . o > z x x z c l 2 5 2 2 2 2 2 v B 4 * + # # 8 & & & & & & & & & & & & & & & & & 8 # # ",
"e w w w w w w w w w w w w w w w w w w w w w w i g fXhX>X:X X}.$XHXZXAXJXJXJXDXrX5XtXsXkXzXsXeX2X<X7XaXsXtX8X:X XOXOX/.K.,.=.=.-.*.+.#.O.o.#.k X . . O > , X o , > .   X > X X 2 c x x b C 5 1 2 l M M b v 0.t.q.Z j # & & & & # & # & & # & & & & & # & & # # 9 ",
"w w w w w w w w w w w w w w w w w w w e 9 9 g fXvX6X%X%X(.P.>.<.KXJXnXkXbXMXbXkXeX3X<X3XtXaXsXsXuXeX3X,X5X7X,X X{.}./.T.P.G.N.#.#.o.O.o.o.~ O o   O 1 O > O o , , X . O < < : X l x v M C C = % = c z * O = 3 3 3 9 8 # & # & & & # & & & & & # & & 8 # & # & & ",
"e q w w w w w w w w w w w w w w w w w 9 i g PXFX>X{./.L.N.B.G.P.JXJXJXHXmXuXuXkXzXkXrX8X<X1X<X7XrXuXuXrX8X,X X X}.{.V.>.,.<.>.,.L.C.%.@.~ - X   . 1 > , > >   : < < . O > 1 z : : v M N 7.8.0.= @ + + + + + # @ $ + & + # # & & & & & & # 9 8 # & & & # & & # & ",
"q q w w e w w w w w w w w w w w w 9 & S fXLXwX$X|. X(.`.[.[.U.J.mXLXJXJXJXJXbXuXrXsXsXzXaXaX7X,X%X:X,X3X3X3X,X:XOX{.`._.[.`.).H.>.o. .^ - X o   . 5 1 , > , o , < < X X , 1 v x 1 1 M 8.C 8.9.9.3 + + + % + + # # + + + # # 8 # & & & # & 9 & & # & # 9 # 9 & & ",
"q q q w q w w w w w w w w w w w q i S VXJXJX6X|.,X X[.)./.B.&.-.@.qXJXJXJXJXJXHXAXrXeXtX7XaXaXaXrX<X,X|.[.].].[.{._._._.U.G.<.%.%.o.` = : X   X X 2 1 < 5 > X < , < m X > 2 c c z : 2 M e.p.p.s.0.+ # + + + + + + + + + # & & & & # & & & & & & & & # 9 # # & & ",
"w q w w w w w w w w w w w w 9 * h fXKXJXFXtX{./.J.n.-.#.#.O.O.@. ._ 1.vXDXJXJXJXJXJXnXrXeX,X,X,X,X,X%X%X X}.].[.[.[.[.`.R.L.B.<.#.` 3 X O   . X O 5 5 z z : o < < 1 x . , z c x M c : l p.t.t.t.q.+ + + # # # & # # # & # & # & & & & & & & & & & # # 9 # & & & ",
"q w w w w w w w w w w w w w a S CXJXHX4X{._.E.P.J.E.U.G.F.>.#.} $.;.] ] qXAXbXnXnXMXbXzXkXsXaX<X X%X%X$X X.X X[.`./.B.>.>.>.| o._ ; : > . . X   m c 5 z z : : 5 2 2 c   4 0.x c 7.C l 2 v p.s.s.w.& + + # 8 & & & & & & & & 9 # & & & & & & & & & & # 9 # 8 & & ",
"e q w w w w w w w w w w 9 s CXKXAXrX6X4X1X}. X%X XE.R.<.%. .:.:.hXJXDXDXHXFXiXuXeXeXuXuXaXsX5X:X:X%X|..X].E.K.B.%.%.#.-.+. .$.` ; : > X . o X   z v 2 x B z : z z z b O . 0.7.C 8.8.7.x 2 e.r.t.j.0.@ $ # & & # # & 9 # # # & & & & & & & & & & & & & # # & & # ",
"w w w w w w w w w w w e + i KXxXuXbXGXHXcX]._.G.,.#.O.O.%.2.hXJXJXJXJXJXJXJXHXHXkXuXrX7X8X3X,X,X>X X}.V.N.b.,.n.N.C.G.,...-.] & : > :   O X o o b v v C 7.x 2 M c z n O   , q.8.C 8.7.C l x t.r.j.A @ # + # & & & 8 # 9 9 # & & & & & & & 8 & & & # & & & & & & ",
"e q w w w w w w w w w q s H LXDXJXJXcX|.R.N.=.=.N.N.=.} yXJXKXHXHXKXAXxXzXzXlXzXzXxXdXaX7X:X{.}.[.}.[.[.`.).).J.>.=.O. .,.[ r % 2 < . : > X X , 7.C C C 8.x < M M M Z X X   m e.C 8.8.8.M 2 C s.e.3 + # + + & & # 9 # # 9 # & & & & & & & 8 & & # & & # & & & & ",
"q q w w w w w w w q e s PXJXJXJXBX{.J.b.n.L.U.G.=.%.%.#XKXJXbXkXzXzXzXzXkXkXkXaXaXeX2X1X<X<X3X X}.[.[.E.U.<.O.O.| } o.C.[ $ @ = z : X , > X , , 7.C C C C x c N M N 0.X     6 y.9.8.8.8.9.v l e.j.0.+ $ # + & & # 9 9 # # $ & & & & & & & & & & & & & & & # # & ",
"q e w w w w w w w 9 a PXJXJXGX6XG.H.T. X XJ.=.*.,.>.jXJXHXHXFXzXkXzXzXkXkXkXrXrXrXrXrXrX3X,X(./.Z.,.,.&.%.| ) |  .#.H.1.& + % 5 2 X < < > 1 O = 0.8.C C N 2 N 7.N 8.7.= . .   O w.t.8.8.8.e.M N r.j.m @ # + # & & & & & # 8 & & & & & & & & 9 # & & & & & & 9 # ",
"w w w w w w w w e 9 S KXJXpX^./. X<X:X).V.>.Z.H.Z.+.cXAXkXlXbXbXxXzXzXzXzXzXxXzXkXeX,XOX_.J.V.C.Z.C.Z.>..... .| -.L.S.9 @ # % 5 > : 5 1 1 < # & C 8.C 7.N 2 N 7.8.9.,   . . .   m w.t.8.9.t.e.v w.k.n @ + + + & & & # & & & & & & & & & & & & & & & & 8 # # 9 # ",
"q e w w w w w w 9 i CXJXiX4XaX6X,X].T.E./.E.B.-.=.=.:.:.*XxXAXAXDXbXkXkXkXsXaX5X1X:X:X X X(.(.m.3.&.) ) o.o.o.-.E.D.# @ + % z z O < 2 5 2 = @ @ B 8.C 8.N l 8.C 7.p.O   . X . . o O w.p.r.t.r.e.v s.B @ + + + # & # 9 & & # & & & & & & & & & & # & & & & & $ & ",
"q q w w w w w w q S KXJXNXcX>X;X X].:X].V.,.B.G.N.-.<.M.mXNXzXzXlXzXkXzXzX7X3X8XeX7X,X]./.:._ / ( ) o.#.o.o.*.W.D.$ @ + + % x 1 X 2 5 2 % $ # @ Z 9.N 8.N v r.e.9.q.= . . . . . O ,   n t.t.r.r.7.0.i.* + + + # & & # & & & & # & & # & 8 & 0 & & & & & & & & & ",
"e e q w w w w * s CXFXzXaX1X:X,X8X6XJ.F.E.E.Z.n.Z.K.BXJXJXJXJXJXHXbXsXaX7X3X8X7X6X$X$._ ( ) |  .o.+.%.+.-.-.W.Y.y @ # # + * c < < 5 2 4 + + # @ n 9.C 8.v v r.s.t.4   . . X X   O , X > 1 q.p.r.s.0.p.q.@ + + # & # & # & & & & & & & & & & & & & & & & & & & & ",
"q w w q w w w 9 h nXzXuX1X;X5X8X|.T.].|.T.G.T.).L.dXJXJXJXJXJXbXkXrX5X2X7XeXtX1._ _ ) ) ..o.O.o.+.n.%.Z.V.P.T.y @ + + # % M x > z 2 2 % # + + + * y.8.8.v v r.r.d.* X . X O , . X 4 < : < 4 3 q.i.t.e.9.@ + + # & & & & & & & & & & & & 8 & & & & & & # # & & # ",
"e q w w w w e 9 d iXrX1X3XrXrX;X|.<X{.T._. X_.b.o.1.JXJXJXHXkXuX,X<X8XtXyX:._ ( ( }  .o.#... .O.C.>.E.L.J.`.S.8 # + + @ % C z 1 5 2 % + + + + # # q.7.0.v M r.r.u.* , , O > , X X z 2 2 5 4 @ % 3 y.y.r.m @ # + # 8 & & & & & & & & & & 9 & & & & & & & & & # 9 ",
"q w w w w w r 9 S 9X3XrXkXnXAX4X<X,X|.,X:XJ.%.-.C.qXJXJXbXsX5X>XrXaX4X] _ ) } o.O.O.#.%.O.O.O.Z.B.E.).J. XY.r $ + # # + % N 2 2 z % + + + $ + % + 3 p.e.v e.s.r.7 @ = < , O > X X 2 5 z x b # @ & @ 6 j.Z @ # + # & & & & & # & & & & & & & & & & # & & & & # # ",
"e q w w w w 9 a 0XdXFXJXJXHXxX<X,X,X,X[.Z.b.E.R.'.JXJXbXrX<XeXiXBXD.| | o.O.o.#. .%.=.+.o.#.Z.G./.<X`.`.Y.u @ # + + # + % Z 2 x 4 % + + + + # # & = i.t.v t.d.u.* @ % 5 < , 1 2 X 1 z 5 x b + + # + @ V i.* + + # # & # # 9 & & 8 & 8 & & & & & & # & # 8 # 9 # ",
"w w w w w e 9 d LXJXHXHXxXwX5X7X7X,X[.K.].rX_.J.SXHXzX7X<XaX4X:...)  .*.*.+.#. .=.>.o.#.#.N.`./.7X7X`.!.y @ # # # + + + % N z 6 # + + + + # # # 8 * t.e.M t.k.V @ # + c 1 2 2 1 : 1 x 5 x b + + + + + + q.6 @ + # # & 9 # # & & & & & & & & & & & & & & & # 9 # ",
"e w w w w w & i VXFXdXuXeXrXrXsXrX X{.7XzXI.n.mXJXlX5X3XdX9X@. .O.,.Z.-.o.O.o.N.B.o.-.N.=.$XdX8XaXOX_.f @ & t + & & + + * C b * & # + + + + & & 8 * r.0.9.j.q.& # + % b 5 2 1 2 X 2 C M M M = + + + & + 3 h @ + + # & & 9 # # & & & & & & & & & & & & & # & & # ",
"q w w w w 9 i g VXJXKXlXAXFXzXeXOX3XsXaXJ.b.9XJXbXwXtXdXM.| O.,.E.C.O.O.#.o.H.F. .-.L.=.].FXbXsX3XOX!.r % % % @ @ + + & * C c & & + + # + # # * 9 * i.7.p.i.* + # + % b x 1 5 v 1 2 N C C 8.0.+ + + + & # # % + + % & & # # 8 & & & & & 9 & 8 & 9 # & & & & & & ",
"w w w w e % +XJXJXJXJXJXHXkX7X:X7XzXuXI.T.OX4XAXrX8X4X;.#.>.E.(.B.o.+.o.-.U.R.O.%.R.G.^.FXDXaXrX$X!.u + & & + + + & # t 9 Z 3 # = + + + # & 9 # & 3 y.N j.q.* # @ + # 4 b x c b l 2 C C N 8.w.+ + + + 9 & & & # + # # & # 9 & # & 8 & & & & & & # # # & & & & # ",
"w w w w w @ +XJXJXJXHXlXrX<X,X7XkXaX(._.3X:X,XeX<XK.+.n./. X_.>.o.O.#.>.[.).%.#.L.W.^.HXJXkXaX3XY.8 + + & % & + & # # & 3 N 9 # & # # + & & & 8 & y.e.8.u.3 8 # + + + = Z c c b z 2 e.t.9.9.9.+ + + + # & & & & + # & & # 9 # # & & & & & 0 & & # 9 8 & & & & & ",
"w w w w w * d gXJXHXkX7X,X,XeXkXsX4X,X,X:X:X<X_.N.B.(.[.%X.X*.o.%.=.R.,X_.%.%.R.`.(.MXJXNXdX7X~.d @ 9 & % # + & & # t & Z 7 # 9 & + + # & & 9 # * u.w.t.Z @ & + + # # * C v v v v 2 t.r.r.r.w.+ + + + # & & & # # # 9 # # 9 # 9 & & & & & & 9 & & & & & # & & # ",
"e w w w w w & a gXyX3X,X1X7XsXkXkXrX<X,X:X:X].H.].<X%X,X%X<.#.<.J.`.dX2X%.>./.]..XcXJXnXxXaX#Xu @ 9 % & + 9 & & 9 t # 9 3 9 9 # # + # # 9 9 9 8 * q.9.k.n @ & + + # + = 9.b v C C 2 9.r.t.s.q.@ + + + # & & & & & & # # # # 9 # & 0 & & & 9 & & & # & & 9 # & & ",
"w w w w w w w w y S #XtXAXzXkXkXeX,X:X:X,X7X|.3X3X}.,X,X>.=.H.). XxX4X=.C._.{.>XFXHXJXbXdX~.a % & & & & 9 9 + % # # 9 9 t # 9 9 % + + 9 8 9 9 # * u.d.q.& # & + $ % + = 0.C C 8.C 2 8.d.t.r.0.+ # + # & & & & # & & & 9 9 & & 9 & & & & & & 8 # & & & & & & & & ",
"w w w w w w w 0 q # S VXMXiXxXrX:X,X2X7XeXeXeX5X X:X2XB.V.[. X<XAXiXN.J. X X|.MXJXJXFXdXS.# # & & & % & % # 9 9 9 9 9 # 9 9 # 9 # # 9 9 & 8 0 + Z k.u.* 8 & # + + # & # 3 p.8.C 0.v 7.d.r.e.= + + + + & & # & & $ * & # # 8 & & & & 8 & 9 & & & & & # 8 # & & & ",
"w w w w w w w w q a CXJXkXAXxX<X2XeXaXsXaX7X5X{.,X7XT./.OX>XrXAXyXG.`.:XOX7XbXJXJXCXyXG & % & & & % % & & % 9 9 9 9 9 9 t # # 9 # # 9 9 8 9 9 @ Z k.q.* & & + + # # 9 + w q.9.7.7.v C d.d.u.# + + + # # & & & & & & & & & & & & 0 & & & & 0 & & & & # & & # & & ",
"w w w w w w w w * a CXJXJXAX5X8XaXkXxXFXxX7X3XuXMX,X|.%X7XdXAXyX*X7X:X3XbXJXJXJXCXd r 9 + 9 & & & & 9 + 9 9 9 % # # 9 t 9 9 9 9 9 9 9 9 9 9 9 @ Z i.* & 9 # + + + # 9 9 # 4 e.8.9.C v t.d.q.% $ + # # # & & & & & & & & & & & & & & & & & & & & $ & & & & & & & ",
"w w w w w w w w w 9 g fXHXtXaXkXbXDXJXcXeXiXAXJXiX X,XrXkXAXcXiXbXeXcXJXJXJXJXfXd + # & 9 % & & & & * 9 t 9 & 9 9 # 9 # 9 9 9 # # 9 9 9 # 9 9 @ A u.& t 9 + + + # 9 9 # t * y.e.r.w.c r.d.6 @ + + + # # & & & & & & & & 9 & 8 & & & & 0 & 8 & & & & & & 9 # # & ",
"w w w w w w w q q 0 9 d 0XxXbXFXJXHXsXuXAXJXJXtXOX8XsXxXKXmXDXBXbXHXJXJXJXLXgXi + * & & + 9 % # % 9 9 9 9 9 9 9 9 9 9 # 9 # 9 9 9 9 # 9 9 9 9 # 7 V + 9 9 9 + # 9 # 9 9 9 t j u.r.p.M t.i.* @ + + + # # 8 $ & & & & & & 9 & & & & & & & & & & & & & & & # & & & ",
"w w w w w w w w w w e & g LXJXJXHXcXbXHXJXJXiX,XrXsXnXJXJXJXJXJXJXVXCXVXgXa q & & & & & & & & * t 9 9 9 9 9 9 * 9 t 9 9 9 9 # 9 9 9 9 9 9 9 & 9 & 9 # 9 9 # + # 9 9 # t 9 9 # 3 p.r.N r.n @ # # + + + # & & & & 8 & & & & & & & 0 & & & & & & & & & & & & & # 8 ",
"w w w w w w w w w 9 0 9 s KXJXJXHXDXJXJXkX7XwXxXbXDXJXLXVXVXVXVXLXG % e q # % & & % % & 9 * & 9 9 9 9 q 9 9 9 9 9 # # 9 # 9 t 9 9 9 # 9 9 # 9 9 * & 9 9 8 + # 9 # 9 9 9 # 9 & 3 i.r.N i.V @ # + + # # # & & & & & & & & & & & 8 & & 8 & & & & & & & # & & & & & ",
"e w w w w w w w w w w 9 a fXVXCXVXJXAXrXrXsXHXJXJXVXfXs e i i e i 9 + + % 9 & # & & & & 9 9 9 q * q 9 q q 9 9 9 9 & 9 9 9 9 # 9 9 9 9 9 9 9 9 & 9 9 9 9 # # # 9 # 9 9 9 9 9 # q a.k.w.u.V @ # + # # # & & & & & & & & & & & & & & & & & 0 & & & & & & & & & & & ",
"w w w w w w w w w w w w e y i e d 0XxXxXHXJXVXLXfXs q & + % + # % & & 9 * & & # # & 9 9 9 9 9 9 9 9 9 9 9 9 & 9 * 9 9 & 9 9 t 9 9 # 9 9 9 t 9 9 9 9 9 9 9 9 9 9 9 9 # # 9 # t # w u.e.y.7 + + + + # # & & & & & & & & & & & & & & & & & & & & & & & & # & & # & ",
"w w w w w w w w w w w 0 w 9 * 9 @ g KXLXLXfXg e i & + 9 & & 9 & & & & 9 & & 9 9 9 9 q 9 9 q w 9 q 9 9 q 9 9 * 9 # 9 9 9 9 9 * 9 9 9 9 9 9 9 & 9 9 9 9 # t 9 9 9 9 # 9 9 # 9 9 9 $ 7 i.i.3 + & + % $ # & & & & & & & & & & & # & & & # & 9 # 9 # & # & & & & & $ ",
"w w w w w w w w w w w * w w w w % a gXs e e # + # * 9 & & & # * 9 & & * 9 9 9 * q 9 9 9 9 9 9 9 9 9 9 * q 9 9 9 9 9 9 9 & 9 9 & 9 # 9 9 9 & 9 9 9 # 9 & 9 9 t # t 9 # 9 9 t # 9 9 * y.d.A * # + + + # & & # # & & & & 8 & & & & # & & & # 9 # & & & & # & & # 9 ",
"w w w w w w w w w w w w w q 0 0 9 q i & % # 9 9 9 * 9 # & & q 9 9 0 q 9 9 9 q 9 9 9 9 * 9 9 9 w q 9 q q 9 9 9 9 9 9 9 t 9 9 9 9 9 9 9 9 9 # 9 & 9 9 9 9 9 9 9 9 9 9 9 # # # 9 9 9 + 6 d.j.7 + + + + & & & & & & & & # & & & & & & & & & # 9 & & & & & & 8 # 9 # ",
"w w w w w w q w w w w q 0 w w q q q 9 q 9 9 & 8 & & 9 9 9 9 q 9 * q 9 9 9 q 9 9 9 9 9 q 9 9 9 0 9 q q & 9 9 & 9 9 9 9 # 9 9 & 9 9 # & 9 9 9 9 9 9 9 9 9 # 9 9 9 # 9 9 9 9 9 9 # 9 # * u.i.3 + # + + & & & # & & & & & & & & & & & & & 8 # # & # & & & & & # 9 # ",
"w w w w w w w w w w w w w w w w q q w w & & & * 9 9 0 9 q * 9 9 q 9 9 q 9 q * q * 9 q 9 q 9 9 9 w 9 9 9 w 9 9 * 9 # 9 9 9 # 9 9 t 9 9 9 9 # 9 9 t 9 9 9 9 9 9 # 9 9 # 9 9 8 9 9 t 9 @ 6 i.3 8 # # # # & & & & # & & & & & & & # # # 9 # # & & # # & # # & & # & ",
"w w w w w w w w w w w 0 w q 0 w q q 0 q 9 * q 9 w w 9 9 9 q 9 q 9 * q 9 9 9 9 9 9 9 9 9 9 q w * 9 9 0 * 9 9 9 9 9 9 9 9 9 9 9 9 9 9 9 9 t 9 9 9 9 9 9 9 9 9 9 9 # 9 9 # & 9 # & 9 9 t * q.6 # & + # # & # & & & & & & & # & & & 9 # 8 # & & & # # & 8 9 & & & & ",
"q q w w w w w w w w w w w w w w w 0 q w w w w w w 0 q * w 9 9 q 9 q 9 9 q q 9 9 9 9 q q 0 9 9 * q 9 9 w q 9 9 9 9 9 9 9 9 9 & 9 9 9 9 9 9 9 9 # 9 9 # 9 9 9 9 9 # 9 9 9 9 & 9 9 9 # 9 # 7 A # # + + # & & & & & & & & # 9 # & & # & & & & & & & & # # # 9 # # & ",
"q q w w w w w w w w w w w w w w 0 * w q w 9 w 9 w q w 9 9 9 q 9 q 9 q 9 q q q 9 9 q 9 9 9 9 0 q 9 0 9 q 9 9 & 9 & 9 9 9 9 9 9 9 9 * 9 9 9 # 9 9 9 8 9 9 9 9 9 t 9 # 8 9 # 9 & 8 9 9 8 # # * # # @ + # & & & & & 8 & & & & & & & & & & & & # & # # & 9 # # & & & "
};
