/* XPM */
static char *_642104_resized[] = {
/* columns rows colors chars-per-pixel */
"128 128 256 2 ",
"   c #010F0B",
".  c #040E0A",
"X  c #01130B",
"o  c #011A0B",
"O  c #19041C",
"+  c #071613",
"@  c #0E0C13",
"#  c #270007",
"$  c #2D0115",
"%  c #260115",
"&  c #320116",
"*  c #340219",
"=  c #3C021B",
"-  c #3B0215",
";  c #370408",
":  c #02260D",
">  c #022A12",
",  c #043615",
"<  c #162E18",
"1  c #1D0623",
"2  c #230525",
"3  c #240926",
"4  c #270A29",
"5  c #280B2A",
"6  c #270528",
"7  c #350A2D",
"8  c #351735",
"9  c #2E132E",
"0  c #342331",
"q  c #1E2E24",
"w  c #490304",
"e  c #43021C",
"r  c #490119",
"t  c #570118",
"y  c #560306",
"u  c #770206",
"i  c #660119",
"p  c #7D0115",
"a  c #76031B",
"s  c #690508",
"d  c #480423",
"f  c #580224",
"g  c #4A1336",
"h  c #6C012C",
"j  c #640228",
"k  c #770227",
"l  c #740132",
"z  c #7B0134",
"x  c #7A0539",
"c  c #6C0D32",
"v  c #5F2732",
"b  c #07451A",
"n  c #0B561C",
"m  c #0E5723",
"M  c #156926",
"N  c #1B7627",
"B  c #0D6221",
"V  c #277627",
"C  c #235228",
"Z  c #466731",
"A  c #3E2743",
"S  c #4B2D49",
"D  c #69214A",
"F  c #6E5268",
"G  c #860307",
"H  c #820116",
"J  c #840119",
"K  c #8C011B",
"L  c #8B0416",
"P  c #970119",
"I  c #940A07",
"U  c #A5011C",
"Y  c #AF1209",
"T  c #870326",
"R  c #990326",
"E  c #87033A",
"W  c #970535",
"Q  c #92172E",
"!  c #AC0025",
"~  c #A70229",
"^  c #B4012C",
"/  c #AA0635",
"(  c #B50132",
")  c #BA0133",
"_  c #B9063A",
"`  c #AD1637",
"'  c #A3272C",
"]  c #C7013A",
"[  c #D2013C",
"{  c #CC0933",
"}  c #D52912",
"|  c #970747",
" . c #910F4B",
".. c #B80958",
"X. c #AF0F4E",
"o. c #902F53",
"O. c #B32E4D",
"+. c #B11D64",
"@. c #B52B6E",
"#. c #963166",
"$. c #C80546",
"%. c #D60348",
"&. c #D90855",
"*. c #D91859",
"=. c #C81052",
"-. c #E4004D",
";. c #E40154",
":. c #EA0156",
">. c #E5035B",
",. c #EB015C",
"<. c #E50A5B",
"1. c #F20055",
"2. c #F2005D",
"3. c #FF005E",
"4. c #E5135D",
"5. c #CC2658",
"6. c #D61164",
"7. c #ED0362",
"8. c #ED0A64",
"9. c #E80A65",
"0. c #F20264",
"q. c #F30C6A",
"w. c #F60569",
"e. c #E91769",
"r. c #F3136D",
"t. c #F21A6D",
"y. c #ED1A73",
"u. c #F41B73",
"i. c #F81875",
"p. c #FB0873",
"a. c #C62D78",
"s. c #CA327D",
"d. c #C6377B",
"f. c #D32D69",
"g. c #E5266A",
"h. c #EA2777",
"j. c #F4247A",
"k. c #FA247A",
"l. c #F52B7D",
"z. c #FA2B7D",
"x. c #F52475",
"c. c #EA347A",
"v. c #F5337D",
"b. c #F8226F",
"n. c #E52758",
"m. c #A94558",
"M. c #B14A6E",
"N. c #9D5C69",
"B. c #CE4A76",
"V. c #CD5670",
"C. c #ED5C1D",
"Z. c #288529",
"A. c #38952C",
"S. c #49A832",
"D. c #59B835",
"F. c #4EAA31",
"G. c #62BB38",
"H. c #4C9831",
"J. c #65C437",
"K. c #6AD33C",
"L. c #5BC335",
"P. c #CC3882",
"I. c #D33B87",
"U. c #FC2C81",
"Y. c #F82B82",
"T. c #EB3783",
"R. c #F53483",
"E. c #FB3484",
"W. c #FB3A86",
"Q. c #FC3D8A",
"!. c #F63A88",
"~. c #F5378B",
"^. c #FF1583",
"/. c #A5718D",
"(. c #D74588",
"). c #D34C8C",
"_. c #EA478A",
"`. c #FC438C",
"'. c #FC4A8E",
"]. c #F5458C",
"[. c #FD4C92",
"{. c #F84893",
"}. c #EA5897",
"|. c #FC5295",
" X c #FC549A",
".X c #FB5B9C",
"XX c #F55799",
"oX c #EA4F90",
"OX c #D66D94",
"+X c #F6639D",
"@X c #E8669A",
"#X c #F95EA1",
"$X c #ED69A4",
"%X c #FB64A3",
"&X c #F769A6",
"*X c #EB77A9",
"=X c #F574AC",
"-X c #FB73AC",
";X c #F978AA",
":X c #FB7CB2",
">X c #F779B3",
",X c #F377B1",
"<X c #DB6CA5",
"1X c #DE55A2",
"2X c #B48CA6",
"3X c #AB9AA5",
"4X c #D292AE",
"5X c #EC88B6",
"6X c #FB82B5",
"7X c #FA8BBC",
"8X c #F786B8",
"9X c #F793BD",
"0X c #F08DB3",
"qX c #D59EAC",
"wX c #FC8DC3",
"eX c #FB94C3",
"rX c #F49CC4",
"tX c #FB9BC5",
"yX c #F89AC7",
"uX c #EC9BC2",
"iX c #D6B4C7",
"pX c #EBA8C8",
"aX c #FBA3CC",
"sX c #F6A7CB",
"dX c #E8B6CC",
"fX c #FBACD2",
"gX c #F9AAD3",
"hX c #FCB3D5",
"jX c #FCB5D9",
"kX c #FCBCDB",
"lX c #F6B9D6",
"zX c #EDB8D3",
"xX c #F8B9DB",
"cX c #D3CDD4",
"vX c #FCC3DD",
"bX c #F5C6DC",
"nX c #E9CBD9",
"mX c #FCC4E2",
"MX c #FDCBE4",
"NX c #F8CCE5",
"BX c #FAD3E6",
"VX c #FDD4EA",
"CX c #FBDBEC",
"ZX c #F5D6E6",
"AX c #FDDCF2",
"SX c #ECD8E3",
"DX c #F7E3ED",
"FX c #FBEBF4",
"GX c #F9E8F3",
"HX c #FBF4FA",
"JX c #FDFEFE",
"KX c #F8F4F7",
"LX c #EBECEE",
"PX c #DFDDE1",
"IX c #BDBCC4",
"UX c #977A7A",
/* pixels */
"4 4 5 5 5 5 5 5 3 5 5 5 5 5 5 5 5 5 5 5 5 5 5 5 5 5 3 5 5 5 5 5 5 5 5 5 5 5 5 5 5 5 5 5 5 5 5 5 5 5 5 5 5 5 3 5 5 5 5 5 5 5 5 5 5 5 5 $ 5 5 5 5 5 5 3 5 5 5 5 3 5 5 5 4 4 4 5 5 5 5 5 5 5 5 5 5 5 5 5 3 5 3 5 5 5 4 4 4 5 4 9 3 5 5 5 5 5 5 5 5 5 5 3 5 5 5 5 3 ",
"4 4 5 4 4 5 3 5 5 3 5 3 5 5 5 5 5 3 5 3 3 5 5 3 3 9 5 5 5 5 5 5 5 5 5 5 5 5 5 5 5 3 5 5 5 5 5 5 5 5 5 5 5 5 5 5 5 5 4 5 5 5 5 5 5 5 4 9 5 5 5 5 5 5 3 9 5 5 5 5 5 5 5 4 5 4 5 5 5 5 5 5 5 5 5 5 5 3 5 5 5 5 5 5 5 9 4 4 5 5 3 5 5 5 3 5 5 5 5 3 5 3 5 5 5 5 5 5 ",
"5 5 5 5 5 5 5 5 3 9 5 5 5 5 3 5 5 3 5 5 5 5 5 5 3 5 5 5 3 9 5 5 5 5 5 5 5 5 5 5 5 5 5 5 5 5 5 5 5 5 5 4 3 5 3 5 5 6 5 5 5 5 3 5 5 5 4 4 5 5 5 5 3 5 3 5 5 5 5 5 5 5 5 5 5 5 5 5 5 5 5 5 5 5 5 5 5 5 5 5 5 5 5 5 4 4 4 5 5 4 5 5 5 5 5 5 3 5 5 5 5 5 5 5 5 5 5 3 ",
"5 5 5 5 5 5 5 5 5 5 5 5 5 5 9 3 5 3 9 5 5 5 5 5 5 5 5 5 5 5 5 5 5 5 4 5 5 5 5 5 5 3 5 5 5 5 5 5 5 5 $ 9 5 5 5 5 5 5 5 5 5 5 5 5 5 5 4 5 3 5 5 5 5 5 5 5 5 3 5 5 5 5 5 5 5 4 4 5 5 5 5 5 5 9 1 5 5 5 5 5 5 5 5 5 4 4 4 4 5 5 5 5 5 5 5 5 9 3 5 5 9 3 5 3 5 5 5 5 ",
"5 5 5 5 5 5 5 5 5 5 5 5 5 5 5 5 3 5 5 5 5 5 5 5 5 5 5 5 5 5 5 5 5 5 5 5 5 5 5 5 5 5 5 5 5 5 5 5 5 5 5 5 5 5 5 5 5 5 5 5 5 5 5 5 5 4 5 5 5 5 5 5 5 5 5 5 5 5 5 5 5 5 5 5 5 5 5 5 5 5 5 5 5 5 5 5 5 5 5 5 5 5 5 5 5 5 5 5 5 5 5 5 5 5 5 5 5 5 5 5 5 5 5 5 5 5 5 3 ",
"5 3 5 5 5 5 3 5 5 5 5 5 5 5 5 3 5 5 5 5 5 5 5 5 5 5 5 5 5 5 5 5 5 5 4 5 5 5 5 5 5 5 5 5 5 3 5 5 5 5 5 5 5 5 5 5 6 7 5 5 5 5 5 5 5 5 5 5 4 4 5 5 3 5 5 5 5 5 5 5 5 5 5 5 5 5 5 5 5 5 9 1 5 5 5 5 5 5 5 5 5 5 5 5 5 5 5 5 5 5 5 5 5 5 5 5 5 3 5 5 5 5 5 5 5 5 5 5 ",
"5 5 5 5 5 5 5 5 5 5 5 5 5 5 3 9 5 5 5 5 5 9 3 5 5 5 5 5 5 5 5 5 5 4 5 5 5 5 5 5 5 5 5 5 5 3 5 5 5 5 5 5 5 5 5 5 5 5 5 5 5 5 5 5 5 5 5 5 5 5 3 5 8 5 % 5 5 5 5 5 5 5 5 5 5 5 5 5 5 5 5 5 5 5 5 5 5 5 3 5 5 5 5 5 5 5 5 5 5 5 5 5 5 5 3 5 5 5 5 5 5 5 5 5 5 5 5 5 ",
"3 5 5 5 5 5 5 5 5 5 5 5 5 5 5 5 5 5 5 5 5 5 5 5 5 5 5 3 5 5 5 5 5 5 5 5 5 5 5 5 3 5 3 6 5 5 5 5 5 5 5 5 3 5 5 5 5 5 5 4 7 5 5 4 5 5 5 4 3 3 9 g (.8 0 5 3 5 5 5 5 5 5 5 5 5 5 5 5 5 5 5 5 5 5 5 5 5 5 5 5 5 5 5 5 5 5 5 5 5 5 5 5 5 9 3 5 5 5 5 5 5 5 5 5 5 5 5 ",
"5 5 5 5 5 5 5 5 5 5 5 5 5 5 5 5 5 5 6 5 5 5 5 5 3 9 5 5 5 5 5 5 6 5 5 5 5 7 5 6 5 5 5 9 5 1 6 3 % 5 4 4 9 6 6 5 5 5 5 5 5 7 6 4 5 5 3 4 7 7 IX6Xc.S cXA 2 4 5 5 5 5 5 5 5 5 5 5 5 5 5 5 5 5 5 5 5 5 5 5 5 5 5 5 5 5 5 5 5 5 5 5 5 5 5 5 5 5 5 4 5 5 5 5 5 5 5 5 ",
"5 5 5 5 5 5 5 5 5 5 5 5 5 5 5 5 5 5 7 5 5 5 5 5 5 3 5 5 5 5 5 5 7 5 5 5 5 6 5 6 5 1 g T.A 8 8 8 0 8 9 S cX0 8 3 6 6 7 5 5 6 4 4 5 4 5 g _.c.nX6X].pX+XnX8 2 5 5 5 5 5 5 5 5 5 5 5 5 5 5 5 5 5 5 5 5 5 5 5 4 5 5 5 5 5 5 5 4 5 5 5 4 5 5 5 5 5 4 5 5 5 5 5 5 5 3 ",
"5 5 5 5 5 5 3 9 5 5 5 5 5 5 5 5 5 5 5 5 5 5 5 5 5 5 5 5 5 5 5 5 5 5 5 5 6 4 5 6 5 7 D {.pXzXqXsXzXdXdXzXZXSXPXS 8 8 2 6 7 6 4 6 6 8 d.].'.W.].'.{.hXE.R.S 8 6 2 5 5 5 5 5 5 5 5 5 5 5 5 5 5 5 5 5 5 5 5 5 5 5 5 5 5 5 5 4 4 5 5 5 4 4 5 4 5 9 4 5 5 5 5 5 5 5 5 ",
"5 5 5 5 3 3 9 5 5 5 5 5 5 5 5 5 5 5 5 5 5 5 5 5 5 5 5 5 5 5 5 5 5 5 5 5 4 4 5 7 g I.T.Q.[. XE.v.`.'.|. X{.9XFXLXHXcX8 9 5 5 4 6 8 s.[.`.'.R.E.'.{.aX~.y.lXcX8 8 5 5 5 5 6 5 5 5 5 5 5 5 5 5 5 5 5 5 5 5 5 5 4 5 5 5 5 5 5 5 5 5 9 5 5 5 5 5 5 5 5 5 5 5 5 5 5 5 ",
"5 3 5 3 5 5 5 5 5 5 5 5 5 5 5 5 5 5 5 5 5 5 5 5 5 5 5 5 5 5 5 5 5 4 4 5 5 5 6 o.{.[.U.Q.`.Q.`.`.Q.Q.[.|.'.|.sXZXJXJXKXcX9 6 3 8 _.[.`.`.'.!.E.'.[.`.k.t.!.&XLXcX8 3 4 4 5 5 5 5 5 5 5 4 5 5 5 5 5 5 5 5 5 5 5 5 5 5 5 5 5 5 5 5 5 4 4 4 5 5 5 5 5 5 5 5 5 5 5 5 ",
"5 5 5 5 5 5 5 5 5 5 5 5 5 5 5 5 5 5 5 5 5 5 5 5 5 5 5 5 5 5 9 5 5 5 5 5 5 9 @.Q.`.`.k.W.`.`.`.Q.`.Q.`.|.[. XyX|.BXJXJXJX3X5 4 B.`.`.`.`.'.v.z.'.`.`.k.i.R.`.'.zXA 1 5 5 5 5 5 5 5 5 5 5 4 4 5 5 5 5 5 5 5 5 5 5 5 5 5 5 5 5 5 5 5 5 4 4 5 5 4 5 5 5 5 5 5 5 5 5 ",
"5 5 5 5 5 5 5 5 3 5 5 5 5 5 5 5 5 5 5 5 5 5 5 5 5 5 6 5 4 4 1 3 3 2 7 5 7 P.[.!.Q.`.k.!.`.Q.`.`.Q.Q.`.'.'.[.yX`.6XZXbXJXJXPXg T.`.`.`.`.`.E.z.`.[.Q.k.r.v.`.E.9XIXO 5 5 5 5 5 5 4 4 5 4 4 5 5 4 3 5 5 1 3 5 5 5 5 5 5 5 5 5 5 5 5 5 5 4 5 4 4 5 4 5 5 5 5 5 5 5 ",
"5 5 5 5 5 5 5 5 5 5 5 5 5 5 5 5 5 5 5 5 5 5 5 5 5 5 6 4 4 8 8 0 8 8 7 2 #.[.`.E.!.`.R.k.`.Q.`.`.`.Q.W.Q.[.`.6X%X!.'.XXDXJXLXS |.`.R.E.`.`.!.r.`.[.i.k.r.z.`.`.l.pX2X8 5 5 5 4 4 5 5 4 5 5 4 1 8 0 1 1 A 5 5 5 5 5 5 5 5 5 5 5 5 5 5 5 9 4 3 9 5 5 5 5 5 5 5 5 5 ",
"5 5 5 5 5 5 5 5 5 5 5 5 5 5 5 5 5 5 5 5 5 5 4 5 6 6 6 5 g iXxXxXzXBX/.1 M. X{.`.l.'.Q.x.`.Q.`.R.l.`.W.].`.Q.%X-XW..X[.XXFXKXLXGX+Xz.Y.`.W.W.8.z.`.i.k.r.Y.Q.Q.z.`.-XPX7 2 5 4 5 5 5 5 6 6 7 6 /.2XO A PXS % 7 6 5 5 5 5 5 5 5 5 5 5 5 5 5 5 5 5 5 5 5 5 5 5 4 4 ",
"5 5 4 5 5 5 5 5 5 5 5 5 5 5 5 5 5 5 5 5 5 6 4 5 8 g 9 D  X$XmXVXMXBXbXdXlXmX-XW.x.W.[.l.v.`.'.b.4.W.&XbX|.|.+X+XE..X%X!.:XtXHXJXGX{.b.W.u.Q.7.8.i.i.u.r.0.0.z.R.W..XLXS 9 4 5 5 5 6 2 5 1 /.xXMX/.S LXJXF O 2 2 5 5 5 5 5 5 5 5 5 5 4 4 5 5 5 5 5 5 5 5 5 5 4 4 ",
"5 5 4 5 5 5 5 5 5 5 5 5 5 5 5 5 5 5 5 5 6 5 1 . N.NXiX@.[.].wXNXvXvXMXBXMXVX7XXX].l.[.E.v.`.`.;Xg.{.HXJXKXHXHXHX8X+XJX+X|.7X9XpXJXZX9.u.r.k.8.8.i.i.i.r.7.2.k.l.Q..XlXNXIX2 7 5 2 5 9 F bXuX*XVXlXLXZXJXA 5 A 8 6 2 5 6 5 5 5 5 5 5 5 5 5 5 5 4 5 4 4 5 5 5 4 4 ",
"5 5 4 5 5 5 5 5 5 5 5 5 5 5 5 5 4 4 4 4 6 2 6 3XOX=.oX{.Y.[.XXmXMXMXMXvXmXmXmXmXmX~.U.Q.v.`.|.HXOX5XJXJXJXHXJXJXJXlXKXsX'.9XaX}.JXKX5X,.,.r.8.7.i.i.i.r.7.7.j.z.W.|.sXMXiXO 7 6 6 F vXlXVXoX5XNXCXVXDXKX3XcXJXIX7 8 5 5 5 5 5 5 5 5 5 5 5 5 5 5 4 4 9 5 5 9 4 4 ",
"5 5 5 5 5 5 5 5 5 5 5 5 5 5 5 5 5 4 6 6 9 8 O /.vX] { ].!.Q.[.7XVXkXNXmXmXvXMXvXNXfXR.Q.W.XXZXfXnXdXJXKXDX9XaXHXKXkXMXDX}.HXJXHXJXJXLXg.7.,.7.,.i.i.i.r.7.,.j.x.W.|.hXmXiX1 1 8 iXjXvXMXuXe.kXvXFXbXJXJXJXJXJXHXKXcX8 5 5 5 5 5 5 5 5 5 5 5 5 5 4 4 4 4 5 5 5 4 ",
"5 5 5 5 5 5 5 5 5 5 5 5 5 5 5 5 5 5 5 1 A IX6 F GX*X^ $.[.[.[.XXmX}.lXVXyXaXBXkXwXNXlX{..XsXaXtXBXGXhXtX9X6X6X7X8XeXNXJXKXJXHXHXKXJXKXJX*X>.>.7.r.r.q.7.7.7.8.7.v.'.=XgXCX3X8 dXmXmXkXMX_.h.mXBXCXNXJXJXZXlXJXJXHXzX9 1 5 5 5 5 5 5 5 5 5 5 5 5 4 4 9 5 5 5 4 4 ",
"5 5 5 5 5 5 5 5 5 5 5 5 5 5 5 5 4 4 5 6 A KX<XoXfXVXB.{ g.|.[.`.tX}.8XAX9X-XBXvX>XlXBXkXyXgXgXaXtXaX0X].:X6X6X;X:XtXMXHXJXJXDXhXkXKXJXJXJX*X>.7.7.,.7.7.7.7.7.,.q.W.'.gXCXGXdXmXvXkXNXgX&.=XMXCXbXFXJXmX@XGXJXGXxXzXA 8 7 5 5 5 5 5 5 5 5 5 5 5 4 4 5 4 9 4 5 4 ",
"5 5 5 5 5 5 5 5 5 5 5 5 5 5 5 5 5 4 5 1 7 bXmX{.+XMXlX$.] v.[.`.&X}.T.GXeX&XmXMX,XaXkX=X|.&X+X7XfX9X'.,.r.;X6X:X:XaXkXhXDXJXDXkXkXkXmXKXJXJX*X>.7.7.,.7.,.7.7.,.8.E.|.gXBXHXmXkXkX:XvXoX6.jXBXZXbXJXlXe.uXJXKXgXmXNXxXpX8 6 6 5 5 5 5 5 5 5 5 5 4 4 5 4 4 4 4 4 ",
"5 5 5 5 4 4 4 4 5 5 5 5 5 5 5 5 5 5 5 9 S $XkX7XQ.9XAX*X] =.'.'.+X|.e.bXmX{.hXVXyXyXrXW.E.j.i.XX7X9X'.0.8.:X6X6X-XaXkXhXDXJXCXhXkXkXkXmXmXDXJX}.;.7.7.7.7.7.7.7.8.j.'.gXBXJXDXmXaX-XmXc._.MXmXgXCXAXc.g.HXJX9XvXkXhXVXbX9 O 8 9 5 5 5 5 5 5 5 5 9 4 4 4 5 5 5 4 ",
"5 5 5 5 9 3 4 4 5 5 5 5 5 5 5 5 6 5 2 /.NXgX>XNX&X].kXNXf.) g.|.'.'.;.9XNXXXjXMXfXXX.X`.7.,.r.R.`.7X{.w.q.&X-X-X;XaXkXhXGXCXkXkXkXmXkXjXkXZXJXGXc.,.7.7.,.7.9.,.2.2.|.gXMXJXDXkX>XeX5X>.sXMXyXgXJX=X-.*XJXfXrXvX=XjXMXpXF F cX8 4 5 5 5 5 5 5 5 4 4 4 4 5 5 5 4 ",
"5 5 5 5 4 4 4 9 5 5 5 5 5 5 5 5 5 7 O 2XkXaXyXyXNX&.$XCXhX=.[ ].'.|.9.}.AX$X7XBXgX.X].j.7.7.7.9.,.e.`.8.7.8.8.l.;XtXkXfXDXBXhXvXkXkXmXFXCXlXZXJXAX6.7.,.T.rXnXe.,.c.FXZXDXJXHXkX+XaXoXT.MXlX=XVXsXe.4.;XgXwXmX}.yXAXaXhXAXMXIX0 4 5 5 5 5 5 5 5 4 4 4 9 5 5 5 5 ",
"5 5 5 4 4 4 5 5 5 5 5 5 5 5 5 5 4 5 O 2XVX=XlX8XmX9X9.gXBX7X*.] %.].e.*.NX+X=XCXhX|.l.,.7.7.7.,.:.8.Q.0.7.0.,.j.&X|.hXkXkXkXkXhXkXHXKX>XR.x.h.lXKXLXc.oXjXCXJXGX*XZXJXJXJXJXJXHXGXaX&.T.aX:X7XMX{.%._.-X&XmX$XXXGX9X8XkXyXNX<XiX8 4 5 5 5 5 5 5 4 9 4 4 5 5 5 4 ",
"4 4 4 4 4 4 5 5 5 5 5 5 5 5 5 5 5 5 4 2XAX>X;XjXuXVXh.T.CXaX'.$.] %.g.[ !._.oXVXgX[.l.2.7.7.7.7.:.8.Q.8.7.0.,.j.%X!.eXhXhXhXjXvXHXNX&X}.6XaX[.0.y.}.SXGXfXmXJXJXJXJXJXJXJXJXJXHXmXGXpXc.`.`.sX6X<.*.+X+XeXrXoXNXrXl.#X-XbX6XwXSXA 1 4 4 5 5 5 5 5 5 5 5 5 5 5 5 ",
"4 4 4 4 9 5 5 5 5 5 5 5 5 5 5 5 5 2 2XMXMXjX+XjXgXmXgX6.sXvX&Xv.$.] ] $.b.r.h.NXsX[.R.7.7.,.7.,.,.9.Q.8.7.7.7.,.!.l.R.8XvXhXkXHXCX7XgXjXtXyX7Xu.h.,XoXpXCXmXJXJXJXJXJXJXHXNXJXBXjXrXCXGX&X|.|.x.[ v.;X%XlXT.$X7Xb.'.+X-X;X-XeXHXcX4 4 4 5 5 5 5 5 5 5 5 5 5 5 5 ",
"9 4 4 9 5 4 4 4 5 5 5 5 5 5 5 5 5 6 4XAXvXVX5X}.AXkXVX$Xc.BX6X'.*.] ] ] e.b.g.kXfX'.].0.7.7.,.7.,.>.!.8.7.7.7.,.v.h.E.7XvXkXvXHXkXmXmXaXyX7X[.E.Y.NXJXpXJXNXDXJXJXJXJXJXHXkXvXvXhX6X7XKXCXXXW.&.-._.&X-X}.r.'.k.E.%X+X+X-X6XKXJXcX5 4 4 4 4 5 5 5 5 5 5 5 5 5 5 ",
"4 4 4 4 4 4 4 9 5 5 5 5 5 5 5 5 5 1 4XVXvXVXyXh.fXMXMXmXg.0XvX'.'.&.[ ] %.x.-.=XgX`.].r.,.7.7.7.,.;.,.0.7.7.7.7.7.,.x.;X6X{.aXlXVXlXmXaXtX-XQ.[.y.7.5XJXJXJXNXHXJXJXJXDXCXvXkXvXtX6X:XaXFX&Xe.%.g.`.`.Q.8.`.R.x.+X.Xz.+X+X6XKXLXA 4 5 4 4 4 5 5 5 5 5 5 5 5 5 5 ",
"4 4 4 4 5 5 5 5 5 5 5 5 5 5 5 5 5 6 S NXMXvXVX}.oXNXvXVXuXoXNX=X`.W.$.] ] -.>.e.|.`.'.v.,.7.7.,.7.:.>.8.7.7.7.7.,.7.0.R.].q..X.XfXkXtX9XeXwX{.[.Q.q.:.}.JXJXDXGXJXJXJXmXkXkXkXkXtX:X6XeXJXbX-.<.E.Q.`.u.x.t.9.|.{.<.l.&X[.9XJXLX9 4 5 4 5 5 5 5 5 5 5 5 5 5 5 5 ",
"9 4 9 5 4 4 5 5 5 5 5 5 5 5 5 5 5 2 g bXMXvXNXmXh.aXMXvXVX@X*XyX`. X=X0X5Xg.9.<.v.`.`.!.7.,.7.7.7.,.;.,.8.7.7.7.7.,.0.w.0.r. X|.:XvX7X7XeX:X`.`.[.i.$XT.$XJXKXAXKXvXHXvXkXvXaX:X:X7X6XyXJXbX%.h.`.Q.E.8.8.:.'.].,.e.&X'.:XsXJXLX8 6 5 5 5 5 5 5 5 5 5 5 5 5 5 5 ",
"5 5 4 4 4 4 5 4 5 5 5 5 5 4 5 5 5 6 A vXVX:XgXVXT.c.MXmXNXkXgXmXlXvXMXMXvXhXkX}.e.`.`.`.t.,.7.7.:.:.-.-.2.,.2.7.8.,.w.0.8.w.t.|.XXaXeX7XeX%XQ.`.`.E.kXJX}.pXJXnXBXlXJXmXhXvXtXyXkX7X:X XzXJX9XW.`.Q.t.,.>.x.!.>.9.%X[.%XaXlXJXcX9 3 5 5 5 5 5 5 5 5 5 5 5 5 5 5 ",
"5 5 4 4 5 5 5 5 5 5 5 5 5 5 5 5 5 6 8 jXVX-X[.vXlX9.,XVXmXkXbXJXJXJXHXbXCXkXvXvXhX|.W.'.j.,.,.>._.@XoXoXoX}.h.7.,.-.,.7.%.,.:.t.|.c.6XeX7X[.`.`.`.{.5XGXJX}.DXbX$XvXFXCXhXvXyXyXgXjX-XU.0XJXsXi.E.z.,.,.7.j.,.,.|.6X8XCXhXHXLX8 2 5 4 5 5 5 5 5 5 5 5 5 5 5 5 3 ",
"5 5 5 5 5 5 5 5 5 5 5 5 5 4 4 1 1 3 @ F CXaX].&XVX$Xe.NXvXGXoXaXJXHXJXGXGXBXkXkXkXkX#XR.Q.y.e.c.KXJXJXJXJXJXFXrX6.%.-.%.[ -.,.:.x.t.$XaX-XQ.`.`.Q.#X>Xj.KXNX}.JX=XgXBXFXjXkX>X:XeX>XZX]..XJXsX:.0.,.,.,.7.,.7.!.7X9XFXJXJXLXS 6 4 4 5 5 5 5 5 5 5 5 5 5 5 5 5 5 ",
"5 5 5 5 5 5 5 5 5 6 5 6 4 4 8 #.@.X.7 F VXkXXXW.7XNXe.}.NXJXGXT.eXCXJXHXBXHXkXkXkXmXkX=XeXlXSXDXO.` SXJXJXJXJXJXDX%.{ [ [ [ %.;.-.9.l.aX-XE.[.Q.{.Q.fX}.y.KX5XNX=X>XvXDXkX8XR.;XKX~.bX8Xv.lXdX,.0.,.7.7.7.,.l.+XeXFXJXJXJXKX8 2 7 5 5 5 4 5 4 4 5 5 5 5 5 5 5 5 ",
"5 5 5 5 5 5 5 5 5 4 6 6 1 D I.~.|.k.>.oXVXmX8X`.{.gX8X;.gXbXJXsXi.gXGXJXCXDXCXhXkXkXhXhXNXCXZXO.U ] e.*XGXKXJXJXKXdXV.{ [ [ { [ { *.r.]. XQ.`.[.{.E.=XAX{.T.CXoX,X8XkXfXkX:XE.{.KXzX0XGXR.>XLX9.,.>.7.7.0.t.|.%XCXJXJXJXJXPX8 1 2 3 3 5 4 4 5 4 5 5 5 5 5 5 5 5 ",
"5 5 5 5 5 5 5 5 6 9 4XI.a.T.~.Y.W.y.:.T.vXMXhX{.].'.sX,XT.{.CXJXXX{.vXJXHXBXBXkXkXaXvXHXJXJXV.P _ ,.:.;.e.h.*XsXFXJXqX! ^ ! ` _ ! _ u.2.E.Q.E.Q.Q.Q.{.xXAXoX$X*Xh.7XkXfXjX.XR.k.8XJXKXJX6X+XKXe.;.,.7.7.7.`.{.lXJXJXJXJXLXS 5 o.@.@.8 7 7 4 4 4 5 5 5 5 5 5 9 1 ",
"5 5 5 5 5 5 5 5 1 5 $X.XQ.z.W.E.b.r.,.;.*XVXkX>XQ.Q.+XhXXXaXDXJXhXi.6XDXJXkXxXxX>XmXJXLXJX4XI ! %.,.,.,.,.l.%XrXvXnX/ U ~ ! oXSXV.U %.8.b.Q.W.E.{.XX{.8XmXVX@XT.,.6XkXjX>XW.Q.z.$XJXKXJXaXXXDX4.:.7.,.,.x.'.5XJXJXJXJXJXFXoX_.|. X|._.[.#.1 8 9 1 3 6 5 5 5 5 5 ",
"5 5 5 5 5 3 3 6 g D T.`.[.`.z.E.Q.&.%.,.6.gXyXtX|.`.yXGXlXmXCXJXZX~.R.hXrXxXgX~.$XCXDX` ` / U ) ,.>.:.,..XgXbXJXKXO.P ~ U ^ <.sXGX! ! >.,.v.`.Q.lXJXZXNXjX}.JXoX1.>XjXaX#XE.b.8.c.JXZXJXaX$X}.-.,.7.,.7.E.|.DXJXJXJXJXHX=X'.|.'.[.[.'..XuXiXnX2X5 8 9 5 5 5 5 3 ",
"5 5 5 5 3 5 9 g oX[.`.[.`.[.`.z.Q.e.) $.,.sXmX$X;X'.lXZXaXkXKXJXAX6Xi.|.&X&XT.NXJXMXdX~ U ! U ) ,.;.,.=XhXNXSXFXdXP U ` ` ~ e.q.gXV.! X.;.,.{.ZXsX_.oXT.eX,XDXJXh.>XmXXXE.W.<.-.g.JXvXHXsXtXg.[ ,.2.,.8.W.6XHXJXJXJXJXHX.X`.[.[.'.'.:XwX&X#X+X.X{.).7 1 5 5 5 5 ",
"5 5 3 3 6 8 iXlXlXhX#X`.`.`.[.`.z.r.%.^ ] f.mXyX].[.hXbXyXaXvXJXFXaXl.k.{.y.GXGXrXhXnXU ! ! U ) :.;.&XkXhXbX5.` ~ U f.NXJXV.{ w.n.C.} Y ) %.9.sX=X%X5X_.7.lXJXJXNX_.&X].E.t.-.-.g.JXvXHXsXrX5.[ ,.;.,.r.|.hXkXDXJXJXJXHX.X'.[.'.[.-X=X[.`.`.'.'.[.{.g 9 6 5 5 3 ",
"4 5 4 5 5 2 2XmXjXmXmX=X`.`.!.v.'.e.,.] U ) B.VX;X`.aXVXsX].eXDXHXgXXXr.q.zXgXoXhXkXBX' U ! P ) :.].gXXXr.sXB.I } b.>X<XV.N.Y { I Y Y C.} } { _.-Xk.+XJXuX7.zXJXGX4.,.E.8.-.-.%.g.JXbXJXvX*.] [ &.-.7.k.eXkXfXGXJXJXKX+X[.[.[.|..X[.Q.[.|.[.[.'.{..XyX/.3 6 5 5 ",
"5 5 5 3 8 8 ).8X=X>XeXkX6X`.`.g.x.Q.:.;.~ ~ ^ 4XVX&XyXmXKX;X.XmXNX:X`.0.}.sX~.gXhXvXJX4XU ~ ! U <.>Xh.,.vXqXU I { T.Q I Y } I s u a u I G } Y U ).Y.x.KXJXgXT.KXHXoX%.x.%.[ [ [ f.ZXBXJXKX=.^ $.[ ;.q.#XhXkXGXJXJXJXFX|.[.[.[.`.Q.`.[.[.[.[.[.'.%XeXfXHXIX1 5 5 ",
"5 5 9 1 /.VXvXmXvXgX8X-X7X=X'.`.*.g.8.^ ( T P W pXaXgX%XbX9XW.8XBX-Xz.r.>X~.8XaXkXGXdXM.U ~ ! P g.j.2.vX4XG } Y } I w I I Q m.m.v cXHX0X' I u L U 5.lXJXKXJXaX9XJX,X[ [ [ ] { { n.lXFXJXDX` { ] %.,.j.tXfXCXJXJXJXJXHX+X].v.Q.Q.[.[.[.[.[.[.`.+XeX#XpXJXIX2 6 5 ",
"5 3 5 1 /.VXkXmXmXVXMXjX7X=X'.Q.`._ $.%.P K K J Q uXwX#XZX.X'.`.rXeXk.R.{.y.XX9XvXm.I P ! ~ P ^ q.2.6XiX' qXqXqXo.u s ; Q @XrXHXLX4XtXtX7X' I } L I 4XJXJXzXBX*XFX9X[ ] { { ] { *.hXHXJX4X! _ ^ -.8.>XhXbXJXJXJXJXJXBX'.b.W.`.[.[.[.[.`.E.z.&XeX+Xz.R.nX8 6 6 7 ",
"3 5 5 1 /.wX>X>X;XfXkXmXtX.X`.v.z.x.! ] _ L K T H O.%X,XlX{.[.'.'.yXj.q.r.&X7X XsXQ U U ~ U U ) 0.XXAXJXDXrXyXgXVXN.y M.VX:X.XkXtX`.oX{.k.*.u I Y C.OXJXJXJXbX5XzXaX] OXLXf.{ { *.vXJXHX5.I U [ 2.'.fXkXJXHXJXJXJXHX|.b.W.'.[.].[.[.Q.k.k.XX8X|.z.q.|.cX7 6 5 5 ",
"5 5 5 5 2XNXjXjX9X-X=X:XW.`.`.`.l.8.&.R ( R K K K P l.6XJXKX&X`.`.,X5X,.{.-XR.{.MXSXO.P U ~ P =.:XCXGX8XT.rXgX1X0Xv O.jXJXvXeXoX:.}.pXXXg.~ s u I UXkXsXJXJXJX8X%X0X@XJXZXDX=.{ oXbXJXSX_ qXV.%.b.9XkXHXDXkXHXJXJX&Xt.W.[.[.c.g.[.E.x.k.%X6XR.r.q.v..X}.8 5 6 7 ",
"5 6 8 cXKXJXNXmXvXvXfX6X X].`.`.`.x.%.~ K K K R L R l.:XFXJXrX!.7XkXAX_.u.W.z.{.-XGXm.P ~ U ` 6XaX&Xq.T.jXVXm.; w L =XBXGXMXIX( 3.c.nX8X5.u I u u v zX`.lXJXJXNXY.&X<.nXbXCXnX{ +XMXJX4X! sXDXSXtXgXBXCXfXvXJXJXLXc.v.|.`.*.*.{.k.i.!.%X%Xy.0.r.z.|.`.aXIX1 5 6 ",
"3 5 5 8 S LXHXNXkXkXmXmXjX&XE.Q.`.`.h.] ~ L J H H T v.-XlXKXNX&XmXgXR.*X=Xu.u.E.#XqX~ U P / :X%Xr.,.#XlXDXN.y Y u 5.:XZXlXtXQ ; f.{.*XFXgXm.I u u # F tXv.GXJXGX`.XX%.%.nXDXJXf.oXCXHX` U <XVXvXJXvXfXhXhXDXJXJXwXW.|.g.( *.Q.i.u.[.%XR.8.0.i.z.[.|.$XJXcX% 7 5 ",
"5 5 5 2 5 0 bXMXvXvXkXkXmXMX8X].`.W.b.-.) X.=.` _ / l.:XkXNXJXhXfXT.6XGX}.0.E.Q.=XGXOXI P 5.#X0.2.$XvXhXJX3X' m.u _.9XyX6Xb.@Xv O.JXlX&.M.V.G O.m.w t bXQ.&XJXhXR.r.g.0X5XJXJX).+XJXnX^ oX9XJXBXCXJXlXgXbXJXHXfXR.g._ ~ *.k.w.x. X{.r.,.q.j.E.'.'..XFXJXcX1 9 5 ",
"5 5 5 5 5 8 NXMXvXvXkXhX&X0XkXgX`.v.&.d.+X[.[.b.%.%.4.+XaXvXBXlX#X&XMXZXg.w.Q.`.yX{.qXO.U 4.w.2.].mXhXCXJXhXDXKXv oX:X|.XXt.c.}.c.pXJX_.t 0 G m.wX' Y N.wXi.bXlXx.;.c.JXJXJXJXKX9XJXB.c.9X;XaXJXCXJXVXtXGXJXkX0X~ P P %.8.,.z.Q.r.,.7.r.U.R.[.'..X9XJXKXF 5 5 5 ",
"5 5 5 5 4 4 cXFXMXBXvXkX{.*.5.B.c.t.|.wX[.Q.Q.E.e.! _ E.6XlXgX,XY.lXkXKXuXr.Q.%XQ.r.CXLX` >.w.q.gXfXaXhX-X;XDXJXcXoXU.|.hX6X5.B.=X_.VX@XOXnXp s =.p.I Q yXk.XX6Xu._.JXHXJXJXJXHXaX=Xg.6X6X-X%XFXJXJXDXNXHXkXeXO.L ~ &.0.7.r.t.,.,.,.k.z.z.[.`.&XhXZXJXLX2 6 5 6 ",
"5 5 5 5 5 O S DXHXJXCXMX8X'.c._ P R rXaX7XY.z.v.g.e.] v.:XkXaX9.=XNXgXlXJXrXE.`.0.>XFXGX' >.0.+XfXXX&X[.'.BXJXDXJXM.t.hX9XZXPXd.9Xt.-X;XB.aXV.s G 6.P T 7XQ.i.Q.j.DXJXJXJXJXJXJX;Xg.-X8X:X|.Q.5XJXJXFXBXfXaXB.P ! $.7.7.%.%.;.2.8.k.Y.W.[.[.=XaXhXJXJXPX8 6 7 6 ",
"5 5 5 5 5 3 4 M.).iXJX$X{.{. X[.c.5.aX8X7X{.*.) P ~ R =.'.sXaXr.gXwXoXxXJXJX#X0.`.eXvXLXR ,.u.8XY.Q.[.Q.fXJXDXkXzX=.=X7X5XJXJXDXGX@XY. X` *X-X' s U L Q 9X{.l.uXY.pXJXKXJXHXKXJX_.[.7X:X#X`.!.&XJXJXKXyXaX@XL ! ] %.%.%.] &.,.q.k.z.Q.[.[.[..X6XKXJXLXS 1 5 5 3 ",
"5 5 5 5 5 5 4 7 P.P.4X8X`.{.[.[.9XeXyX Xz.Q.E.g._ L L R v.7XaXu.yXoXaXmXZXJX0Xw.-XgXHXV.R -.z.R.t.`.~.&XFXJXvXrXe.U.8X$XFXJXHXJX9XfXrXi.P f.-Xa ; u u Q ;X{.bXJX,X}.JX5XSXCX5XJX&X:X:X.X`.Q.{.mXJXJXJXhX@XL P ] %.[ ] ] %.-.8.v.!.`.[.[.[.`.=XCXNXJX3X2 6 5 5 5 ",
"5 5 5 3 5 5 9 1 D I.P.5XgX,XQ.=XfX6X7X:XE.n.*.x.z.$.P L X.'.hXT.w.&XmXjXhXJXGXR.>XmX$X@XnX%.q.w.E.Q.Q.eXHXJXwX*.%. X~.yXCXJXJXDX~.tXJXVXm.` :Xi 2Xv y ' 7X8XJXJXSXY.JX,XNXDX,XJX6X:X%XQ.`.`.&X_.&XJXJX@X~ R ] $.$.] ] [ %.,.z.`.[.[.'.`.Q.;XDXhXhXKX0 1 5 6 3 5 ",
"5 5 5 5 5 5 5 5 6 D ).P.I.uX#XY.6X{.W.`.v.v._ U _ ] K L J g.eX%X2.=XNXwX&XDXFX].wX$X7XCXSX=.7.q.Q.E. XaXJXlXi.k ..i.&XNXJXJXJXsXz.7XJXHX' y V.Q @XQ # o.VXDXJXJXJXT.DX0XNXZX*XJX6X|.`.`.`.Q.nXAXx.uXJXg.<.h.v..X+X*.] %.:.x.'.'.E.l.Q.].>XhXtXfXJXdX8 5 5 5 5 5 ",
"5 5 5 5 5 5 5 5 4 5 #.I.I.I.oXT.XX=Xi.W.E.Q.E.X.L K K K J /  XeXw.=XjXT.yXjXBX.X-Xy.xXjXCXSXy.q.U.E.%XaXJX6XR w <.q.yXHXAXbXsX6XE.8XJXfXI s Q O.Q.U y U oXkXGXJXJX}.bX*XCXnX0XbX`.`.`.Q.T.c.$XJX0X=XJXh.2.t.|.+X+XsX=.[ x.[.v.t.t.z.E.%XfXaXgXFXbX&X).1 1 5 6 5 ",
"5 5 5 5 5 5 5 5 5 5 7 D I.).1XI.}.yX~.i.E.e.l.Q.=.K J K K H _ -X{.h.&X&XjXfXyX.X~.Y.fX$XkXAXJX5X2.z.&XaXKXO.# s 2.p.rXmX6X].NX9XU.:XCX7XQ I s `.e.w y v gXhXFXJXJX+XlXT.AX}.gX+Xz.'.`.x.$XJXHXFXnX9XHXt.8.[.+X.X|.vX9X;.E.8.>.r.U.`.=XaXtXhXJXbX|.[.6X3X9 4 5 5 ",
"5 5 5 5 5 5 5 3 5 5 5 1 D I.1X1X).,X-XT.i.u.$.e.U.$.J K J H Q f.{.9.r.aXgXyXaX{.0.].>X#XmXkXJXJX9Xr.-XeX5Xy G w &.i.yX%XY.sXJX8XE.[.{.[.Q w g.e.a s u a hXhXFXJXJX}.*X{.pXy.8X{.].u.h.DXJXJXJX9XgXzX*X2.Q.h.|..X`.vXsX;.;.,.i.E.E.%XfXaXhXLXpXy.0.v.GXPX9 6 5 5 ",
"5 5 5 3 5 5 5 5 5 5 5 5 5 D s.1X).).wX8Xk.i.e.! _ ,.] K H O.qX).yXY.,.8X&X&XfX'.0.l.].,XmXhXBXJXNX$X&XwX$Xy s s &.i.#Xk.,XJXKX=XE.Q..X6XV.qXMXiXIXo.# ' jXkXFXJXJX}.:.XX}.u.[.z.0.j.NXHXGXJXJXuXsXpXXXq.e.R.[.-XrXCXpX:.q.q.k.!.`.-XtXhXKXoX:.8.5XGXKXA 6 5 6 6 ",
"5 5 5 5 5 5 7 5 5 5 5 5 5 3 8 @.}.(.1XwXQ.k.q.<.P ~ ] P p _.%X-XSX` r.:.i.eXrX.Xr.0.2.rXkXsXhXKX-XtXaX9XOXy w w %.p.Y.Q.vXkX].l.W.&XlXCXJXJXDXCXHXSXcXvXyXyXFXJXJXXX2.c.j.u.8.7.w.XXJXGXsXJXJX*XNXOX%.%.c.|.;XZXJXJX9X,.r.j.Q. X:XtXaXHX$X,.,.T.JXJXPX9 6 4 4 4 ",
"5 5 5 5 5 5 6 5 5 5 5 5 5 5 6 5 #.}.).<X=XQ.i.w.<.R J H W Q.E.8Xm.L X.4.<.R.XXlXl.0.0.T.XX+XkXCX!.eXhX7XQ # I y X.p.i.>X,Xw.R.gXyXwX{.yXNXvXhXkXkXmXMXVX&X.XHXJXJX}.2.w.9.,.,.,.z.|.JXlXyXJXbX}.JX=.! &.v.'.lXJXJXlX9.7.l.Y.{.eXtXaXJX$X,.7.T.GXJXLX0 2 4 4 4 4 ",
"5 5 5 5 5 5 5 5 5 5 5 6 5 5 5 3 8 #.}.(.5X XR.q.w.&.K H O.Q.`.c.z.BXo.! ;.:.{.vXlXe.tXuX,.].9XtXr.7XaX9X5.; ; ; T w.i.%Xp.!.hXfXtXj.Q.6XvXhXmXgXhXkXrXMX&X%XJXFXXXt.0.7.^ $.$.$.v.$XJX_.uXJXoXyXnX_ [ b.+XaXkXKXJXpX,.0.8.~.:X]._.KX*X,.7.r.DXJXLXS 5 4 5 5 4 4 ",
"5 5 5 5 5 5 5 5 5 5 5 6 5 6 6 6 6 6 D }.).>X{.x.%.0.%.G X.`.z.i.;XnXQ u L $. XlXNXNXlXNXyXT.8XlX=XNXDXeX@XI s s w 9.i.*.=.0XtX7XtXT.q.|.fXkXmX=X7XlXXXNX&X,XJX&X1.0.w.^ K P ' dXvXJXJX_.zX,X~.GXB.] t.XXsXJXlXHXKXh.,.0.q.j.0.j.pXT.,.7.7.h.HXJXFX8 3 5 4 5 4 4 ",
"5 5 5 5 5 5 5 5 4 4 6 5 5 6 5 5 g d 6 o.(.1X8XU.*.) &.~ ` [.E.E.6XnXm.T a W .XkXkXkXeXgXVXsXpX&XXXjXCXlXmXm.u y # i *.G B.eX7XwXeX-X7.i..XlXMX,XwXjX.XkX~.yXlXq.8.t.=.' dXzXNXHXGXBXJX}.R.y.jXkXg.8.].7XJXJXvXJX*X:.0.7.2.7.*XuXh.7.w.7.y.DXJXJXcX8 4 5 5 5 5 4 ",
"5 5 5 5 5 5 5 5 4 4 5 5 6 5 7 x h d * 7 D (.=X=XU.*.~ R P c.`.E.6XFXJX' u ` |.aXkXhX].fXjX8XR.W.!.gX8X%XlXiX3XN.N.F a ` `.&X:XXXeX7Xu.0.W.&XjX=XeXjX#XwXY.NX~.r.zXKXDXLXJXGXGXGXaXNXJX_.:.eXNX{.w.'.>XCXJXHXZX5X,.7.,.0.R.l._.7.0.8.0.9.NXJXJXLX8 4 4 4 5 5 4 4 ",
"5 5 4 5 5 5 5 5 5 5 5 6 7 x l j f d f = $ g @.wX&Xi.e.~ p =.Q.W.XXXXZXm.u W Q.XXvXfX{.fXvX-Xk.`.Q.%X!.R.aXFXHXJXJXVXLXSX[.{.;X~..XyXR.,.u.k.`.&X$X{.Y.y.,X,X].NXvXJXJXJXFXCXGXkX9XJXdX,.,XVX&Xk.-X9XhXHXJXJX*X,.0.0.Y.R._.q.2.0.7.7.0.T.KXJXKXF 5 5 5 5 5 5 5 5 ",
"5 5 5 5 5 5 6 5 6 5 5 d x z h h l l f = = $ 7 M.tX.Xq.q.( ~ v.E.z.|.=XSX' T c.{.fXjX{.fXmX=Xi.Q.Q.E.Q.].aXMXmXBXVXrXJXJXGXGXbX%Xj. XW.0.q.k.k.E.7.7.q.i.>X}.kXgXkXJXJXHXlXDXAX=XJXbX,.#XNX,X{.&XaXkXDXCXGX6X0.q.e.9.*.9.7.,.&.&.7.0.y.NXKXJXiX1 4 5 5 5 5 5 4 4 ",
"5 5 5 5 5 5 5 3 6 5 x  .x x E z j r d d d d = $ o.,X%XY.,.$.*.E.`.+X#XkXZXQ =.`.'.>X!.gXvX&Xi.`.W.Q.Q.`.fXMXBXCXyXwXJXJXNXJXJXsX|.2.i.8.0.k.r.q.7.8.0.{.tXsXeXtXCXJXJXkXVXKX=XlXgX7.XXkXXX`.=X:XhXkXrXlX4X%.%./ P K L R R / $.,.7.T.xXxXmX3X6 5 5 5 5 5 5 3 5 5 ",
"5 5 5 5 5 5 5 5 6 8 +.@.| E l j f j h h h r - = $  .).>XU.0.;.8.`..X!.>XmXoXf.W.`.z.R.hXlXwXj.Q.W.W.Q.`.gXVXMXDX,X>XJXFXbXJXDXNXBX*X,.,.0.i.<.,.;.,.T.gXrX`.E.gXJXDXaX8XvX,X$X$X:.oXjXR.{.:X-XkX7XY.$XM.H J J J R R R ( $.7.0.0.9.yXNXxXN.2 6 5 5 5 5 5 5 5 5 3 ",
"5 5 5 5 5 5 5 3 5 @.I.P.@.| z E E l h h f d d = = & & #.@.].U.2.j.#Xv.`.aX-Xk.v.Q.Q.r.XXhXhXj.l.E.x.Q.`.tXrXMXCX>X7.rXkXvXFXkXyXaXkX5X8.,.0.%.%.[ ;.XX'.Q.`.XXgXhX8XXX=XXXq.j.,.$XyXy.0.{.R.i.E.,.=._ 5.' L R $.7.7.7.7.,.,.7.9.yXVXmXS O 4 5 5 5 4 5 5 5 5 5 5 ",
"5 5 5 5 5 5 5 8 @.P.P.P.+.E E l h l l h h f e & * - - % % c o.6.2.Q.`.U.%XtXE.k.E.`.r.u.XXaXY.x.E.i.Q.Q.{.{.VXHX8X0.yXkXhXhXaXXX9Xl.gX.X,.2.-.[ *..XQ.0.r.z.l.l.#X].y.Y.0.0.q.=X$X7.7.0.0.w.,.$.P L f.VXo.H R ~ ~ ~ ~ / X.7.y.,XAXpXS 3 4 4 5 5 5 5 5 5 5 5 3 5 ",
"5 5 5 5 5 5 7 @.P.s.s.X.E E l  .E l h j r e d f f f f = * % # f c j f.U.].>X&Xk.u.W.k.0.U.].j.r.E.q.W.Q.E.{.7XtX#X7.yXlXhXkX&X&X~.t.yXaXc.$.R i _.U.3.,.;.2.0.0.r.w.w.0.,.y.#Xl.0.0.8.7.>._ R K P Q DXJXO.~ ( / / ( &.7.8.y.fXMXmXN.O 5 5 5 5 5 5 5 5 5 5 5 5 5 ",
"5 5 5 5 5 5 #.P.s.s.X. .+.+.@.s.+.h j f j h h h h j f * * = = % % % d g.W.j.&X{.t.4.z.0.r.k.r.,.k.r.8.r.E.Q.Y.E.k.0.{.wX#XaX~.{.7.q.{.fXo.; - Q <.%._ / / $.$.$.] ] %._ %.,.>.>.7.$.R R P L L P P R GXJXO.%.p.w.w.p.7.w.*XmXmXdXA 7 5 5 5 5 5 5 5 5 5 5 5 5 5 5 ",
"5 5 5 5 6 7 a.P.s.a.a.a.s.P.P.+.z j h h l l l l j f = * * = * * * * % = +.i.i.%XQ.8.&.0.0.0.0.0.0.7.,.0.z.E.E.Q.k.q.E.`.Q.Q.j.0.0.0.R.#Xo.y p K L G =.W.v.x.v.c.c.M.J p K K K J K K R ! =.*.*.$.` O.LXJXO.) 7.8.7.7.y.sXMXMXpXS 6 5 5 5 5 5 5 6 5 6 5 7 5 5 5 3 ",
"5 5 5 5 5 7 @.P.a.s.s.a.a.a.X.z l E  . .l x l f f r e = = e e * $ $ & $ - d / 9.%X[.t.$.;.w.0.,.0.7.,.2.w.8.w.w.0.8.z.z.i.0.7.q.r.T.uXsXuXdXo.u Q OX[.E.'.XX9XKXlX;XT p H H R ~ ( ) ( ) 4.E.`.XXzXKXJXZX9.%.>.0.7.T.jXmXgX<X8 6 6 5 5 5 5 5 5 7 5 5 5 5 5 5 5 5 ",
"5 5 5 5 5 5 +.+.a.P.P.P.+.|  . .+.@. . .h l l h j f d d t d = * * * * * & % % t | @.oXz.&.%.>.w.0.2.,.,.0.0.0.7.0.7.2.8._.~._.aXmXjXhX7XE.#XpXm.OX XzXoXVXKXJX,X&XW.K p J H R ] :.8.w.q.v.i.XXJXCXVXJXCXw.0.,.,.%XmXMXjX).2 6 5 5 5 5 5 5 5 5 5 5 5 5 5 5 5 5 5 ",
"5 5 5 5 5 7 +.P.P.a.P.@.| +.P.P.+.| x z z l l h f f f j f - & & * $ $ * & * & $ $ $ = c O.$.[ ..<.w.0.0.0.0.w.q.w.T.,X8XmXNXVXMXmXkXtXyX[.U.=XVX~.y.CXZXNX$XeXQ.].` J p p H p K ~ _ %.;.x.#XNXJXJXNXJXrX9.q.$X9XmXsXs.8XpX/.8 4 4 4 5 5 5 5 5 5 5 5 5 5 5 5 5 6 ",
"5 5 5 5 5 5 a.P.a.P.s.@.@.a.+.| z x z z z z l h l l l f 7 7 d d d r d = & * & & - * % O O f T = = h &.&.$.&.>.>.#XfXkXmX&XwXkX,XmXMX7X7X:XE.`.:Xi.{.BXhX&XE.`.v.Q u H p p p p J R P U ^ ! OXJXHXJXGXAXmXjXmXzXpXf.&.$.g.>XjXuX9 6 5 5 5 5 5 5 5 5 5 5 5 5 5 5 5 ",
"5 5 5 5 5 5 P.).P.s.s.P.P.+.| | X. . .l l z z z x l h f j h h h h h f = & & = & - $ $ * - % % % % $ J J p p L H g.XXwXjX8XT.mX#X8XVXeX#XgX[.E.-Xj.-XkX7XW.W.c.T H H J J J p p p ~ ) V.5.V.iXJXJXJXbXmXqX5XqX@.p R _ %.&._.gXhX2X8 1 5 5 5 5 5 5 5 5 5 5 5 6 5 5 ",
"5 5 4 5 4 5 M.I.P.P.P.P.P.@.P.P.a.+.X. .E z x x l l l l l l h h h f = - e f f h d * $ $ $ & $ $ * a J p K J p p J R g.$XgX`.`.yXT.rXVX=X:XwXE.!.l.fX6XE.v.` J p H H H J ~ ~ K K P U OXDXJXJXJXJXKXfXOXk p a k a T W _ &.7XgXgXlXA 7 5 5 5 5 5 5 5 5 5 5 5 5 5 6 ",
"5 5 5 5 5 5 6 g P.I.P.P.P.P.P...+.+.+.| z z z h x x z l l l l h j r d j h h E x - $ $ * $ $ * % t P K ( ~ K K p p J H K 5.!.t.z.i.p.&X>X~.wX:XU.|.}.g.f.T H p J H p J p R ( ^ ^ O.4X4XvXJXJXJXJXbXtXo.p T k T T T T ~ ) 4.].|.9XgX4X7 6 5 5 5 5 5 5 5 5 5 5 5 5 ",
"5 5 5 5 5 5 5 5 8 I.~.I.P.P.+.a.+.| E E | l x  . . .l x l h h x j h l h z  . .7 $ * $ $ $ $ % = R ) &.%.( &.~ L R R H p p K J X.<.&.e.y.t.h.oXf.` P K J p H H H H p H p p ~ ! U $.zXJXfXHXJXJXJX0Xx i k T T J k T k T R ( &.E.W.#XsX8 6 5 5 5 5 5 5 5 5 5 5 5 5 ",
"5 5 5 5 5 5 5 6 7 8 D I.P.P.P.P.+.@.a.s. .E X.+.| | z x x | x x E E E | X.x % % * $ $ $ $ $ % W %.>.q.>.q.$.R ~ ! R p p p p p a K a K L J P P P H K _ ~ L H H H J J J H H G O.B.c.e.DXlXFXJXDX8X+Xi t t t i T T / ( ^ ~ ~ / $.h.{.gX4X8 5 5 5 5 5 5 5 5 5 5 5 5 ",
"5 5 5 5 5 5 5 5 5 6 6 g ).(.I.I.(.P.@.+...@.@.+.@.@.a.@.a.@.|  .+. .| @.D $ & = * * & & * % f &.1.r.3.q.%._ &.^ ! T J J p p p J R J p J J ~ $.$.] P ) ] ~ p H H p u p p H u qXJXJXe.*XzXDXJX7X`.o.t i t j i h a ~ ) ( ^ $.u.4.%.T.jXzX8 4 5 5 5 5 5 5 5 5 5 5 5 ",
"5 5 4 5 5 5 5 5 6 5 5 6 8 5 #.).(.P.@.a.I.P.@.a.s.a.a.a.P.a.@.a.a.+.a.c $ e f = * & & & $ = =.w.q.t.t.:.[ 8.<.U ~ R ~ p H p p J ~ R p P P ~ i.i.q.$.) $.] R p p Q Q Q Q qXiX(.bXJX9X$XsXKXgX`.f.s i t t t T R T T ~ ( ( ( &.i.i.~.wXxX4X8 4 5 5 5 5 5 5 5 5 5 5 ",
"5 5 5 5 5 5 5 5 5 6 5 5 6 6 g g D d.I.I.I.P.I.P.P.s.a.a.a.a.s.a.P.o.d $ r h d * e * e e $ Q k.`.V.6Xv.1.t.r.{ ^ ^ ) ~ p p J K R ~ P p / %.U V.7XR.;.&.;.] ) P T dXBXnXSXVXJXCX}.JXGXe.oXlX Xf.T T T W T i t k / ( / ( ( ( $.=.b.Y.y.8XgX8 6 5 5 5 5 5 5 5 5 5 5 ",
"5 5 5 5 5 5 5 6 5 5 5 5 4 5 4 6 * j d.B.I.I.(.).oXT.s.P.P.P.).@.7 $ % e x j = j e = f = r c..X;X0X0X0X6X6X;X|.].4.) R p p K ~ ~ ! ( L =. X5.n.6X&X0.0.q.%.) *XgXfXhXhXhXwXsXJXsX*XJXe.n.+Xc.W p T T ^ ) ( T t i ~ ( ^ ^ _ t.u.t.Y.{.~.5X8 1 5 5 5 5 5 5 5 5 5 4 ",
"5 5 5 5 5 5 5 5 5 5 5 4 4 5 5 6 j y i i t d d c o.#.P.d.).D = e & & $ x E d x j e j f e B.:X7X9X0X6X6X0X6X6X7X+Xe.) J p p R ] ^ $.9.! B.AXyX=.;X6Xv.W.+X+X+XfXkXhXhXhXjX$XXXkXFX}.lXe.x.c.` W k k R ( _ ) ) ~ T a R ( ( ( ( 4.Q.=XeX7XzXA 1 4 4 5 5 5 4 5 5 5 5 ",
"5 5 4 4 5 5 5 5 5 6 5 4 5 5 1  .$.T h r r - * ; % % 7 = = & % $ & % j | f x | f h j r e (.#XZXKXFXtX;X+X6X6X;X|.e.~ p J L ~ 8._ $.u.*.g.MXAX$XXX:X;X-X;X;X-XeXjXfXhXhXjXjXXX%X-X!.h.*.v.&.X.( W T W _ ( ( ( _ ( R T R ( ( ( ! g.6XmXJXLX8 1 5 5 5 5 5 5 5 5 5 5 ",
"7 5 5 5 5 5 5 5 5 5 5 5 5 5 3  .X.k t t t t r e - & & & $ & * * * d | E z X.z j h f d - j ,.r.u.b.nXrX9X0X6X|.'.*.J p p R _ 8.) %.t.`.h.jXfX:X-X;X&X;X-X-X&X XhX:X-XvX9XfXfXR.U.z.[ g.|.~.y...( ( W ~ ( ) ( ( ) ) ( ~ ^ ( ( ^ B.'.zXJXLX8 4 5 5 5 5 5 5 5 5 4 5 ",
"6 5 5 5 5 5 5 5 5 4 6 5 5 5 6 f a W T t i r r r - & - - * * $ * % h | z ..| h | x f = e * f 2.0.3.n.KXKXsXv.`.Q.` p J J ~ ] 9.&.:.r.+X&X,X%X-X-X-X-X;X;X;X&Xz.&X X{.8X!.6X7X`.W.4.f.|.|.|.[.j.=._ ( ~ ^ ( ) ) ( ( ( ( ( ( ( ^ f.yX,XDXLX8 4 5 5 5 5 5 4 5 5 5 4 ",
"5 5 5 5 5 5 5 5 6 5 6 5 5 5 ..w.&.W i i i i t e - - e & & - & & & E W | ..| | X.h d f h r = f 6.w.8.9XNXsX&X:X*XL J T G U ] ,.q.9.7.=XW.z.'.%X|.-X-X-X-X-X-X[.k.E.z.z.z.v.E.b.z.v.`.'.[.'.[.|.Q.6.$.$.( ~ ( ( ( ) ) ( ) ( ^ ( ! nXGXBXcX9 3 5 5 5 5 5 5 5 5 5 5 ",
"5 5 5 5 5 5 5 5 7 5 5 6 5 7 6.$.k a X.$.i r - r t r - - e - & $ 7 ..| X.| | ..E f d l h e e - e &.w.,.y.%XXX&XLXV.G u o.O.5.].>X8Xx.=X.Xz.z.E.z.Q.XXE.%X-X:X%XY.E.E.E.z.v.t.h.'..X'.W.[.[.'.[.[.{.Y.6.$.( ^ ( ( ) ( ) ^ ( ( ( ! O.JXKX9 3 5 5 5 5 5 5 5 5 5 5 5 ",
"5 5 5 4 5 5 5 5 5 5 5 5 5 5 l T ..w.,.T j E a t t e e r e - r - = ......X.X.| z j h x f e e = - d ..q.w.0.i.q.}.JX/.N.pX7X.X-X:X%X&X%X-XE.r.b.v.U.U.U.~.[.#X XE.E.v.c.v.v.h.|.|.[.|.].v.[.'.'.[.{.[.l.&.$.) ( ^ ( ( ) ) ) ( ) ( ~ qX3X1 5 5 5 5 5 5 5 5 5 5 5 5 ",
"5 5 4 4 5 5 5 5 5 5 5 5 5 6 | w.w.$.a T >.&.k t r r y r - r r - 7 ..........| x f z z f r e = e = = l =.w.i.k.;.0XDX;X`.r.i.v..X%X-X Xz.z.k.r.&.f.a.5.a.5.f.5.a.f.v . 0 .X X'.|.|.|.[.`.W.|.[.[.'.[.v.9.&.] ) ( ( ^ ( ( ) ) ( ( ! 2X9 O 5 3 5 5 5 5 5 5 5 5 5 5 ",
"5 5 5 5 5 5 5 5 5 5 7 5 5 5 9.0.W a $.w.&.a t t t t r e w t e - r X.=.T.=...X.l h E h r f e 7 r r e & = W ..i.r.-.b.z.z.r.k.E.%X|.Q. Xi.k.z.k.o.X o                   X D +X|.|.[.|.|.|.Q.Q.[.'.[.'.|.v.y.9.$.) _ ) ( ^ ( ( ( ( ! 4XA 2 5 5 5 5 5 5 5 5 5 5 5 5 ",
"5 5 5 5 5 5 5 5 5 5 6 5 5 5 X.k W ,.w.7.7.E t i a t r t t r e r e f 6.{.6...| h E E h j l r f f e e e * * = x e.4.*.v.z.r.k.R.R.k.k.k.z.j.f.9 + o o                   X o q o.+X|.'.[.[.|.!.Q.[.[.[.[.|.R.y.e.%.] ) ) ( ^ ( ( ! 4XF 4 5 5 5 5 5 5 4 5 5 5 5 5 3 ",
"5 5 5 5 5 5 5 5 5 5 5 5 5 5 6 | w.w.7.0...i i a i t t i t y t r - t *X#XT...| x | W | E h f l j f f e t f = - d  ._ %.x.i.z.U.U.h.x.l. .g @ o o X     o o X   X   X X X X o < o.oX X|.[.[.|.W.W.[.'.'.'.|.[.~.!.e.%.$.) _ ( +.O.iXS 1 5 5 5 5 5 5 5 4 5 5 5 5 5 ",
"5 5 5 5 5 5 5 5 5 5 5 5 5 6 3 | w.0.p.X.s T W i i i i t t t t r & f NX,XT.6.| | | W E | f j z l l j r h h j j e - c a k X.6.+.@.* @ q + 3 + o o X . : : X   X X X   > : X X : : 0 B.(.|. X|.[.!.`.[.'.'.[.[.[.[.`.l.9.%.] ! <XUX% 7 5 5 5 5 5 5 9 4 5 5 5 5 5 5 ",
"5 5 5 5 5 5 5 5 5 5 5 5 5 5 1 | w.7.$.E =.w.8.W i i i t i i t r r f 2XlX`.g.| ......W E j | z h z j f l h j j j j f e t h 7 1   o o > + 5 + o o   o : X : > X   X   X > > o X > : + 8 B.I. X X[.!.W.'.'.Q.{.Q.`.#X#X{.`.~.f.M.S 1 9 5 5 5 5 5 5 4 4 5 5 4 4 4 4 ",
"5 5 5 5 5 5 5 5 5 5 5 5 5 5 1 #.i.p.=.>.p.7.w.$.i s a t t i r t t r - zXwXg.=...6.....z E ..W | z f h k l | h j j t f x c 5 3 + X X : + 4 + o X o : o : b b :   X   o X : , > : > X 2 2 7 (.(.oX.X`.v.z.#X&X%X#XyXFXAXNXcXUX1 1 4 4 5 5 5 4 5 5 4 4 5 5 9 4 5 4 ",
"5 5 5 5 5 5 5 5 5 5 5 5 5 4 4 9 +.| | w.7.w.&.a a T i T T y t i t w t /.mX XT.6.6.@...E ........E j z E | ..h h E f l | 7 5 3 + X X > + 5 + o X , , o n B b > X X o > , + > , b n V V 5 3 4 2 o.d.).tX[.wXIX4X2X2XqX2X8 8 1 5 5 4 4 5 5 5 4 4 5 4 5 5 5 5 5 5 5 ",
"5 5 5 5 5 5 5 5 5 5 5 5 5 5 5 4 1 4 ..w.7.7.T k &.W i &.| t k i r t t r /.iXrX=.<XsX..| =.......| | ....g.X.h ..| h ..g 1 6 3 +   X : + 5 + o > n : b M M ,   X X X , b m , : b m F.G.q 4 4 4 4 1 9 2X4X2X9 1 1 4 O 1 2 4 5 5 5 4 4 5 5 5 5 5 5 5 5 5 4 5 5 4 5 ",
"5 5 5 5 5 5 5 5 5 5 4 5 5 5 5 5 1  .w.0.8.T T 7.X.s =.>.a ..$.t t i t r w f dX).jXVXI.1X>X#XT.~.=.R.'.W.[.=.+.#X..+.g 7 4 5 4     X > + 5 + : n b , M B m o , ,   X : m m m , > m B F.J.Z 2 5 4 5 3 1 1 1 6 5 9 9 5 5 5 9 5 5 5 4 5 5 5 5 5 5 5 5 5 5 5 9 5 4 4 ",
"5 5 5 5 5 5 5 5 5 5 5 5 5 5 5 5 3 D y.7.T T 0.9.p ..w.T ~ p.W y k i t i t d e N.VXmXpXNXGXeX`.'.g.'.XX6XoX_.gXVXOXD 3 4 4 5 4 +   o > + 5 4 , n B N D.S.b , B , X   X m n n B , , B V K.Z 2 5 4 5 5 5 5 9 5 5 5 5 5 5 5 5 5 5 5 4 4 5 5 5 5 5 5 5 5 5 5 5 5 4 4 ",
"5 5 5 3 5 5 5 5 5 5 5 5 4 5 5 5 6 3 8 7 z 9.p.R ( p.( E p.,.i / $.i W i t j t t #.zXS S bXuX{.].Q.|.yXCXfXmXzXS A 2 4 4 5 5 4     o > + 6 9 b Z.A.F.J.F.b Z.N , X X   > m B M N b m m H.G.Z 2 4 5 5 5 5 6 5 5 5 5 5 5 5 5 5 5 5 5 5 5 5 5 5 5 5 9 4 5 5 5 5 4 5 ",
"5 5 5 5 5 5 5 5 5 5 5 5 5 5 4 5 5 5 6 2 ..^.$.X.p.&.T ,.p.W T w.T ..$.y i a t i 7 8 2 2 S NXmX%X].XXmXzXdXF 4 4 % 5 5 4 5 5 4     X > + 6 3 V F.S.G.J.N M D.N , X o > o > m Z.D.M M M V J.V 2 5 5 5 5 5 5 5 5 5 5 5 5 5 5 5 5 5 5 5 5 5 5 5 5 5 5 5 5 5 5 5 5 5 ",
"4 4 4 4 4 4 5 5 5 5 5 5 5 5 5 5 5 5 5 4 8 +...p.q./ 9.p.=.T 7...| p.../ W a k 7 5 2 6 6 8 dXZX2X7 g A 8 1 4 4 5 5 4 4 5 5 5 1 +   o > + 4 6 H.S.D.G.D.B S.L.N b o : b , : n Z.J.A.N Z.M S.L.Z 3 5 5 5 5 5 5 5 5 5 5 5 5 5 5 5 5 5 5 5 5 4 4 4 4 4 4 5 5 5 5 5 5 ",
"5 4 4 4 4 9 5 5 5 5 5 5 5 5 5 5 5 5 5 5 3 1 g 6.y.i.^.y./ &.0.$.9.w.2.0.6.d 5 5 5 7 4 4 5 9 8 9 4 1 6 3 4 5 5 5 4 4 5 5 5 5 6 +   + , + 6 6 A.D.J.J.Z.Z.J.D.M n > o b n : , Z.G.J.Z.N Z.Z.L.Z % 5 5 5 5 5 5 5 5 5 5 5 5 5 5 5 5 5 5 5 5 4 4 9 4 4 9 5 5 5 5 5 5 ",
"5 5 5 9 4 9 4 5 5 5 5 5 5 5 5 5 5 5 5 5 5 5 9 9 x ^.a.j 6.7.>.6.9.6.6.g 7 5 6 4 5 4 4 5 5 4 4 4 5 5 5 5 5 5 5 5 5 5 5 5 5 5 4   X o > + 6 6 H.J.G.D.A.D.J.D.B m b o N B b : n F.J.L.Z.Z.V S.Z 2 9 4 5 5 5 5 5 5 5 5 5 5 5 5 5 5 5 5 5 5 4 9 4 4 4 5 5 5 5 5 5 5 ",
"5 5 4 4 4 4 5 5 5 5 5 5 5 5 5 5 5 5 5 5 5 5 6 1 7 7 7 2 7 7 7 7 7 7 7 4 6 6 5 5 5 5 5 5 5 5 5 5 5 5 5 5 5 5 5 5 5 5 5 5 5 5 4     o > O 7 7 H.J.J.F.F.J.J.D.M m n : Z.N n > , F.J.L.A.N Z.Z.V q 4 5 5 5 5 5 5 5 5 5 5 5 5 5 5 5 5 5 5 5 4 4 4 4 4 5 5 5 5 5 5 4 ",
"9 4 4 5 5 5 5 5 5 5 5 5 5 5 5 5 5 5 5 5 5 5 5 5 4 4 4 5 6 5 3 3 5 5 4 5 5 5 5 5 5 5 5 5 5 5 5 5 5 5 5 5 5 5 5 5 5 5 5 5 5 5 +     o > O 9 3 Z F.D.S.G.J.J.D.n M m < D.V N b , Z.D.J.D.A.F.N Z.C 1 5 5 5 5 5 5 5 5 5 5 5 5 5 5 5 5 5 5 4 5 5 9 4 5 5 5 5 5 5 5 5 ",
"4 4 5 5 5 5 4 5 5 5 5 5 5 5 5 5 5 5 5 5 5 5 5 5 5 5 5 5 6 5 5 5 5 5 5 5 5 5 5 5 5 5 5 5 5 5 5 5 5 5 5 5 5 5 5 5 5 5 5 5 5 3     X > > O 5 5 6 H.L.D.J.J.L.Z.n M M b D.Z.V B , m H.J.L.S.D.F.Z.q 4 5 5 5 5 4 5 5 5 5 5 5 5 5 5 5 5 5 5 5 5 5 4 4 5 5 5 5 5 5 5 5 ",
"5 5 5 5 5 4 5 4 5 5 5 5 5 5 5 5 5 5 5 5 5 5 5 5 5 5 5 5 5 5 5 5 5 5 5 5 5 5 5 5 5 5 5 5 5 5 5 5 5 5 5 5 5 5 5 5 5 5 5 5 5 6 +   X , > O 5 5 2 Z K.L.G.J.S.M B N M b J.S.N N b B N F.J.L.A.L.F.C 4 5 5 5 5 4 5 5 5 5 5 5 5 5 5 5 5 5 5 5 4 4 4 4 5 5 4 5 4 4 5 5 ",
"5 5 5 5 5 5 5 5 4 5 5 5 5 5 5 5 5 5 5 5 5 5 5 5 5 5 5 5 5 5 5 5 5 5 5 5 5 5 5 5 5 5 5 5 5 5 5 5 5 5 5 5 5 5 5 5 5 5 5 5 5 1 @   X , : 1 9 5 5 5 H.J.D.J.S.B M M M N G.F.N N m B B A.J.J.F.S.K.C 4 5 5 5 5 5 5 5 5 5 5 5 5 5 5 5 5 5 5 5 4 9 4 5 5 5 4 4 4 5 5 5 ",
"5 5 5 5 5 5 4 4 4 5 5 4 5 5 5 5 5 5 5 5 5 5 5 5 5 5 5 5 5 5 5 5 5 5 5 5 5 5 5 5 5 5 5 5 5 5 5 5 5 5 4 5 5 5 4 5 5 5 5 5 5 1 +   X > : O 5 5 4 1 H.K.J.J.A.n N N M N J.J.Z.N M M N M S.G.L.S.L.Z 1 5 5 5 5 5 5 5 5 5 5 5 5 5 5 5 4 4 5 5 5 5 5 5 5 5 5 5 4 5 5 5 ",
"5 5 5 5 5 5 9 4 5 5 5 5 5 5 5 5 5 5 5 5 5 5 5 5 5 5 5 5 5 5 5 5 5 5 5 5 5 5 5 5 5 5 5 5 5 5 5 5 5 5 5 5 5 5 5 5 5 5 5 5 5 3 +   + , X 3 5 5 4 4 0 Z Z G.Z.B M C M N L.J.D.N N N N N Z.L.G.L.D.C 4 5 5 5 5 5 5 5 5 5 5 5 5 5 5 5 4 5 5 5 5 5 5 5 5 5 5 5 5 5 5 4 ",
"5 5 5 5 5 5 5 5 5 5 5 5 5 5 5 4 5 5 5 5 5 5 5 5 5 5 5 5 5 5 5 5 5 5 5 5 5 5 5 5 5 5 5 5 5 5 5 5 5 5 5 5 5 5 5 4 5 5 9 1 5 @     , , @ 9 5 5 5 5 7 2 3 G.N M C 3 C N G.J.D.N N Z.G.G.N S.G.J.D.8 4 5 5 5 5 5 5 5 5 5 5 5 5 5 5 5 4 9 5 5 5 5 5 5 5 4 4 4 4 4 4 4 ",
"5 5 5 5 5 5 5 5 5 4 5 5 4 5 5 5 5 5 5 5 5 5 5 5 5 5 5 5 5 5 5 5 6 6 7 5 5 5 5 5 5 5 5 5 5 5 5 5 5 5 5 5 5 5 5 5 5 5 5 5 9 +     > > O 4 5 5 5 5 5 3 0 A.M C 3 4 q Z.D.J.F.S.A.N L.J.S.Z.J.J.S.9 4 4 5 5 5 5 5 5 5 5 5 5 5 5 5 5 5 4 5 5 5 5 5 5 9 4 5 5 4 9 5 4 ",
"4 4 4 4 5 5 5 5 5 5 5 5 5 5 5 5 5 5 5 5 5 5 5 5 5 5 5 5 5 5 5 5 7 5 5 5 5 5 5 5 5 5 5 5 5 7 5 5 5 5 5 5 5 5 5 5 5 5 5 5 9 @ X   > > O 5 4 9 4 5 5 5 9 A.q 5 4 4 q C J.J.D.S.D.N G.J.G.Z.S.K.D.8 4 5 5 5 5 5 5 5 5 5 5 5 5 5 5 5 5 5 5 5 9 4 4 5 5 4 5 5 4 9 4 4 ",
"9 4 4 4 5 4 5 5 5 5 5 4 5 5 5 5 5 5 7 5 5 5 5 5 5 5 5 5 5 5 5 5 5 5 5 5 5 5 5 5 5 5 5 5 5 5 5 5 5 5 5 5 5 5 5 5 5 5 5 5 5 @ X   , : @ 5 5 5 4 4 5 5 5 q 2 6 4 5 4 9 D.G.D.S.D.N S.J.K.A.A.K.S.8 5 5 5 5 4 5 5 4 5 5 5 5 5 5 5 5 5 5 5 5 4 4 4 4 5 5 5 5 5 4 4 4 ",
"4 4 4 9 4 4 4 5 5 5 5 5 5 5 5 5 5 5 5 5 5 5 5 5 5 5 5 5 5 5 5 5 5 5 5 5 5 5 5 5 5 5 5 5 5 5 5 5 5 5 5 5 5 5 5 5 5 5 5 5 1 + X o , + 3 5 4 5 5 5 5 5 4 4 5 5 4 5 4 5 5 Z G.F.J.S.S.J.G.D.Z.S.8 5 5 5 5 5 5 5 5 5 5 5 5 5 5 5 5 5 5 5 5 5 4 4 5 5 5 5 5 4 4 4 4 4 ",
"4 4 4 4 4 4 4 4 5 5 5 5 5 5 5 5 5 5 5 5 5 5 5 5 5 5 5 5 5 5 5 5 5 5 5 5 5 5 5 5 5 5 5 5 5 5 5 5 5 5 5 5 5 5 5 5 5 5 5 9 1   X + , @ 5 5 5 5 5 5 5 5 5 5 5 5 4 4 4 5 4 5 5 8 G.J.J.G.G.J.S.S.4 4 5 5 5 5 5 4 5 5 5 5 5 5 5 5 5 5 5 5 5 5 9 4 5 5 5 4 5 5 4 4 4 9 "
};
