/* XPM */
static char *_642106_resized[] = {
/* columns rows colors chars-per-pixel */
"128 128 256 2 ",
"   c #010201",
".  c #060B05",
"X  c #021502",
"o  c #011A02",
"O  c #091A0A",
"+  c #181312",
"@  c #251418",
"#  c #012202",
"$  c #0A2709",
"%  c #0E2F0E",
"&  c #292E2E",
"*  c #20271F",
"=  c #4C0105",
"-  c #550105",
";  c #580417",
":  c #4A0B16",
">  c #6C0001",
",  c #670205",
"<  c #730101",
"1  c #7A0208",
"2  c #7B0715",
"3  c #6E0C1A",
"4  c #6E0E31",
"5  c #531B31",
"6  c #084F07",
"7  c #0A7007",
"8  c #2C5F21",
"9  c #393946",
"0  c #6F154A",
"q  c #47394F",
"w  c #73295A",
"e  c #793069",
"r  c #5F3B65",
"t  c #4A455A",
"y  c #584C68",
"u  c #6A5277",
"i  c #68546E",
"p  c #475D41",
"a  c #850209",
"s  c #870418",
"d  c #910619",
"f  c #970228",
"g  c #9A0435",
"h  c #8C1428",
"j  c #A40238",
"k  c #A50C30",
"l  c #8E2631",
"z  c #A91D20",
"x  c #DB191A",
"c  c #F96D07",
"v  c #E75416",
"b  c #930C53",
"n  c #AB0446",
"m  c #B40349",
"M  c #A60558",
"N  c #B80657",
"B  c #AF1752",
"V  c #B3106A",
"C  c #893678",
"Z  c #892E70",
"A  c #AE3576",
"S  c #9C2659",
"D  c #C40358",
"F  c #C01859",
"G  c #C80567",
"H  c #D80578",
"J  c #CA1176",
"K  c #E2017D",
"L  c #C72977",
"P  c #D1324C",
"I  c #86477A",
"U  c #B14F75",
"Y  c #B16A6D",
"T  c #AA4350",
"R  c #D54F6F",
"E  c #078903",
"W  c #0A9702",
"Q  c #139608",
"!  c #16A804",
"~  c #19B501",
"^  c #0DA903",
"/  c #2AAF0E",
"(  c #329C1C",
")  c #54952A",
"_  c #0EC70D",
"`  c #32CA09",
"'  c #4AD90B",
"]  c #59F502",
"[  c #50E906",
"{  c #76FB06",
"}  c #6AF00C",
"|  c #6ED61C",
" . c #509942",
".. c #84E517",
"X. c #A49D41",
"o. c #726A87",
"O. c #7A5582",
"+. c #BA3B88",
"@. c #B43187",
"#. c #923B82",
"$. c #D8188B",
"%. c #D4168A",
"&. c #E50689",
"*. c #E61897",
"=. c #E70E90",
"-. c #C72789",
";. c #CA368D",
":. c #CA3A8F",
">. c #C53A8B",
",. c #D92896",
"<. c #CB3B90",
"1. c #CB3794",
"2. c #D53898",
"3. c #D02990",
"4. c #E5269B",
"5. c #E1319C",
"6. c #DA3BA6",
"7. c #D339A6",
"8. c #EA2BA4",
"9. c #E72AA3",
"0. c #E738AA",
"q. c #EE3AB2",
"w. c #EC1FA2",
"e. c #8E4F8C",
"r. c #BA4683",
"t. c #AD4C94",
"y. c #91699B",
"u. c #9974A8",
"i. c #AD71B2",
"p. c #B76397",
"a. c #C34388",
"s. c #CA4495",
"d. c #C94897",
"f. c #C7549B",
"g. c #D4499B",
"h. c #CB48A6",
"j. c #D748AA",
"k. c #D455AA",
"l. c #DA58B6",
"z. c #D053AC",
"x. c #E444AC",
"c. c #E44CB4",
"v. c #E947B5",
"b. c #E35BBC",
"n. c #E655B9",
"m. c #EE4CB9",
"M. c #DA65BB",
"N. c #CD6FB3",
"B. c #E464BD",
"V. c #E371B9",
"C. c #DE6997",
"Z. c #EA5BC2",
"A. c #F254C2",
"S. c #DD6BC2",
"D. c #DB73C5",
"F. c #DB7CCB",
"G. c #D879C7",
"H. c #CE79C3",
"J. c #E26BC4",
"K. c #E765C4",
"L. c #E576CA",
"P. c #EC77D2",
"I. c #FE3DC0",
"U. c #9C85B2",
"Y. c #A789BA",
"T. c #AE909F",
"R. c #D389B6",
"E. c #B495C8",
"W. c #B8B8DC",
"Q. c #B4A8D2",
"!. c #BCBDE2",
"~. c #B7BDE1",
"^. c #D583CC",
"/. c #DB83CD",
"(. c #D78ACD",
"). c #DC8BD2",
"_. c #D889D2",
"`. c #CD9CD6",
"'. c #D394D4",
"]. c #D29BD6",
"[. c #D898D7",
"{. c #CC8FCB",
"}. c #E989D7",
"|. c #E696DA",
" X c #E88BD1",
".X c #CEA4DB",
"XX c #CCACDD",
"oX c #C6A9D9",
"OX c #D3A3DB",
"+X c #D8A7DD",
"@X c #C7B3DD",
"#X c #D4B1D3",
"$X c #E5A3DC",
"%X c #E5B8DA",
"&X c #F399E3",
"*X c #EF99E3",
"=X c #CDADE1",
"-X c #D8AAE2",
";X c #CAB4E2",
":X c #C4BBE3",
">X c #C9B9E4",
",X c #D5B6E5",
"<X c #D1BEF0",
"1X c #E9A7E4",
"2X c #F3A7E9",
"3X c #E9B8E7",
"4X c #FABAF7",
"5X c #F4B3EE",
"6X c #BBC3E4",
"7X c #BDCBEA",
"8X c #BBC6E6",
"9X c #BCD6EC",
"0X c #BEDBF2",
"qX c #BECFF0",
"wX c #BEEDFA",
"eX c #BEE5F6",
"rX c #BEF4FE",
"tX c #BEFAFF",
"yX c #BDF8F1",
"uX c #B2F2E3",
"iX c #B6D7D7",
"pX c #CDCBD9",
"aX c #C4C5E9",
"sX c #C3CCEB",
"dX c #C7C5E8",
"fX c #D6C6EB",
"gX c #C6D6EC",
"hX c #C3DCF4",
"jX c #C8D9F3",
"kX c #D5DAF4",
"lX c #D2D0EF",
"zX c #E8D9EB",
"xX c #FDC3FC",
"cX c #FACAFB",
"vX c #F7D6FC",
"bX c #E8CDEF",
"nX c #C3E3F5",
"mX c #C4E5F9",
"MX c #C3ECFB",
"NX c #CAE7F8",
"BX c #D5E7F7",
"VX c #C2F3FE",
"CX c #C2FBFF",
"ZX c #CBF4FD",
"AX c #D8F8FC",
"SX c #CBE3EC",
"DX c #EAE7F5",
"FX c #F5E7F8",
"GX c #E5FDFD",
"HX c #EBFEFD",
"JX c #E9F4FA",
"KX c #F2FDFD",
"LX c #F2F4FB",
"PX c #EBE3EE",
"IX c #E5C7DC",
"UX c #DACFB8",
/* pixels */
":.:.:.:.:.:.:.:.:.:.>.>.>.<.:.:.>.<.1.>.:.:.:.:.:.:.:.;.:.:.:.>.:.:.:.:.:.:.:.:.:.:.:.:.:.:.:.;.:.:.:.:.:.<.<.:.:.:.:.:.:.:.<.:.:.<.:.:.:.:.:.:.<.:.:.:.:.:.:.:.<.:.:.:.:.;.:.:.:.:.:.:.<.:.:.:.:.:.:.:.:.:.:.:.:.:.:.:.:.:.:.;.:.<.<.>.:.:.<.:.:.:.:.>.:.:.:.:.",
":.:.:.:.>.:.:.:.:.:.1.:.:.<.:.>.<.>.<.>.:.:.:.>.:.:.:.:.>.:.>.1.:.:.:.:.:.:.:.:.:.:.:.:.:.:.:.:.:.:.:.:.>.;.:.:.>.:.:.:.:.:.:.:.:.:.:.;.:.:.:.:.:.:.:.:.:.:.:.:.:.:.:.<.:.:.:.:.:.:.:.:.:.:.<.:.:.:.>.:.:.:.:.:.:.;.:.:.;.>.:.:.:.>.<.<.:.:.:.:.:.:.:.:.:.:.:.:.",
":.:.:.:.>.>.:.>.:.;.:.>.:.:.:.:.:.:.<.:.:.:.:.:.:.:.>.:.:.:.<.:.:.:.:.<.:.:.:.:.:.:.:.:.:.:.:.:.:.:.:.;.:.>.:.>.:.;.:.;.:.<.:.:.:.:.:.:.:.:.:.:.:.;.:.:.:.:.:.:.:.:.:.:.:.:.:.:.:.:.:.:.:.:.:.:.;.:.;.:.;.:.:.:.:.:.:.:.:.>.:.:.:.:.>.<.:.;.:.:.:.;.:.:.:.:.:.>.",
":.:.:.:.:.:.:.:.:.:.:.:.:.:.:.;.:.:.:.:.;.>.:.:.:.:.;.:.:.:.:.:.:.:.:.:.:.:.:.:.:.:.:.:.:.:.;.:.;.:.:.>.:.<.;.:.:.:.:.:.:.:.:.:.:.:.:.:.:.<.:.:.<.:.:.:.:.:.:.:.:.:.:.:.:.:.:.:.:.;.:.:.:.:.:.:.:.:.:.:.:.:.:.:.:.:.:.:.:.:.;.<.:.:.<.<.:.:.:.:.:.;.:.:.:.:.<.;.",
">.:.:.:.:.;.<.;.:.:.:.:.>.:.:.:.:.>.:.:.;.:.:.:.:.:.:.<.:.:.:.:.:.:.:.:.:.:.:.:.;.:.:.:.:.:.:.:.:.:.:.:.:.:.:.:.:.:.:.:.:.<.:.:.:.:.:.:.<.:.<.:.<.:.:.:.<.:.:.<.:.<.:.:.:.:.:.:.:.:.:.:.:.:.:.:.:.:.:.:.:.:.:.:.:.:.:.;.:.:.:.:.:.:.:.<.:.:.:.:.:.:.:.:.:.:.:.:.",
">.:.:.:.:.:.:.:.:.:.:.;.:.:.:.:.:.:.:.:.:.>.:.:.:.:.:.<.:.:.:.:.:.:.<.:.:.:.:.:.:.:.:.:.:.:.:.:.:.:.:.:.:.:.:.:.:.:.:.<.:.:.:.<.:.:.<.:.<.:.:.<.:.<.:.:.:.:.:.:.:.:.:.:.<.:.:.<.:.:.:.:.:.:.:.:.:.:.:.:.:.:.:.:.:.:.:.:.:.;.:.:.:.:.:.:.:.:.:.:.>.:.:.<.<.:.:.:.",
"<.<.:.;.:.:.:.:.>.:.:.:.:.:.:.>.:.>.<.:.:.:.:.:.:.:.>.>.:.:.:.:.<.:.:.:.<.:.:.:.:.:.:.:.:.:.:.:.:.:.<.:.:.<.:.:.:.:.:.<.:.<.:.:.:.:.<.:.:.<.<.:.:.<.:.<.<.:.:.:.:.<.:.:.:.:.:.:.:.:.:.:.:.:.:.:.:.:.:.:.:.:.:.>.:.:.:.:.:.:.:.:.:.>.<.:.:.:.:.:.<.:.:.:.:.:.:.;.",
">.<.:.:.:.>.:.:.:.:.:.:.:.:.:.:.:.>.:.:.:.1.:.:.:.:.1.>.:.>.:.:.<.<.:.:.<.:.:.:.>.:.:.:.:.<.:.<.<.:.<.:.:.:.:.:.<.:.:.:.:.:.:.:.:.:.<.<.:.:.<.:.:.:.:.:.<.:.:.<.:.:.:.:.:.;.:.:.:.:.:.:.:.:.:.:.:.:.:.;.>.:.:.:.:.:.:.:.:.:.;.:.:.:.>.:.:.:.:.:.:.:.:.:.<.:.:.:.",
"<.>.<.<.:.;.:.:.:.:.:.:.:.:.:.:.:.:.:.:.<.:.:.:.:.:.:.:.:.:.:.:.<.:.:.:.:.:.:.<.:.:.<.:.:.:.:.:.<.<.<.:.<.;.:.:.:.<.<.:.<.:.<.<.<.<.<.<.<.:.<.:.:.<.<.:.<.:.:.:.:.<.:.<.:.:.:.:.<.<.;.<.;.<.<.<.:.:.:.:.:.:.:.:.:.:.:.:.:.:.:.:.:.:.:.:.:.;.:.:.<.;.:.:.<.:.:.:.",
"<.<.<.<.:.:.:.:.:.:.:.>.:.:.:.:.:.:.<.:.:.:.:.:.:.:.:.;.:.:.:.:.:.:.:.:.<.:.:.:.<.:.<.:.<.:.:.:.:.:.<.:.:.<.<.<.:.>.;.<.<.<.:.:.<.<.<.<.<.:.<.:.<.:.:.:.:.<.:.<.;.s.:.:.<.:.<.:.<.<.<.<.<.<.;.;.:.<.:.:.:.:.:.:.>.:.:.:.:.:.:.:.:.:.;.:.:.<.:.:.<.<.:.:.:.:.>.:.",
"<.<.:.:.:.:.:.:.:.:.:.:.:.:.:.:.<.<.:.<.:.:.:.:.:.:.:.:.:.:.:.:.:.:.:.:.<.:.:.:.<.:.:.<.<.:.:.:.:.:.<.<.:.;.;.;.<.d.d.:.;.;.2.;.<.<.<.;.<.<.:.:.:.:.:.:.<.:.:.:.:.:.:.:.<.:.:.<.;.<.<.<.<.;.<.<.:.:.:.:.:.:.:.:.:.:.:.:.:.:.:.<.:.:.:.:.:.:.:.<.<.:.:.<.:.<.<.;.",
"<.>.:.:.:.:.:.:.:.:.:.:.:.:.:.:.:.:.:.:.:.<.:.:.:.:.:.:.:.:.:.:.:.:.:.:.:.:.:.<.:.:.<.:.:.:.:.:.<.:.:.:.d.d.d.d.f.zXzXf.s.d.s.s.;.;.<.<.<.<.:.:.<.<.<.<.<.<.:.:.:.:.:.:.<.:.<.:.<.<.<.<.;.a.;.<.:.:.<.:.:.:.:.;.:.;.:.:.:.:.:.:.:.:.:.:.:.:.:.:.:.<.:.:.:.:.<.:.",
">.<.<.1.>.<.:.<.:.:.>.:.:.:.:.:.:.:.:.:.:.:.<.:.:.:.:.:.:.:.:.:.:.:.<.<.<.:.:.:.<.:.<.:.<.:.<.:.;.:.:.d.PXJXPX5X2Xc.c.zXFXPXLXPXf.s.;.<.:.:.:.;.;.;.;.<.:.<.:.:.:.:.:.:.<.<.<.<.<.<.<.<.<.;.;.<.<.:.<.<.:.<.:.:.:.:.:.:.:.:.:.:.:.:.:.:.<.:.:.<.:.<.:.:.<.:.:.;.",
"<.<.<.>.>.<.:.:.:.:.:.:.:.:.:.<.:.:.:.:.:.<.:.:.<.:.<.:.:.:.:.:.<.:.:.:.:.:.<.:.<.:.<.:.:.:.:.:.s.s.f.PXHXLX1X*X|. X0.0.0.v.FXLXLXPXf.;.:.:.;.s.d.d.s.;.:.:.<.:.:.;.;.;.<.<.<.<.<.;.a.;.;.<.a.<.:.:.<.;.:.;.:.;.:.:.:.:.:.:.:.:.:.:.:.:.:.:.:.:.:.:.:.<.<.:.<.<.",
">.<.<.<.<.<.:.:.:.:.:.:.:.:.1.<.<.:.:.<.:.:.:.:.<.:.<.:.<.<.:.1.:.:.<.:.<.:.<.<.<.<.<.:.:.:.:.g.&X2X*XK.|.*X$X[.|.|.0.9.8.8.0.L.1XLXPXC.s.d.a.IXKXLXPXf.;.:.;.;.:.d.d.d.;.<.<.<.<.<.<.;.<.<.;.<.:.:.<.<.:.:.:.:.:.:.:.:.:.:.:.:.:.:.:.:.;.:.:.<.:.<.:.:.<.<.<.;.",
"<.<.>.<.<.<.:.:.:.:.:.:.:.:.>.<.:.:.:.:.:.:.<.:.<.:.:.<.:.<.<.>.:.<.:.:.:.<.<.:.<.:.<.:.:.:.d.*Xv.0.m.}.|.-XlX|.|.|.x.0.0.8.*.K.|.|.JXPX(.'.zXDXLXHXKXPXf.;.s.s.f.SXNXSXf.;.;.;.;.<.<.<.<.<.<.<.<.:.<.<.:.:.:.;.:.:.:.:.:.:.:.:.:.:.:.:.<.:.:.:.:.:.<.;.<.<.<.<.",
";.s.<.:.:.;.:.:.:.:.:.:.:.:.:.<.:.:.:.:.:.:.<.<.<.:.:.<.<.:.<.:.:.:.:.:.:.:.<.:.<.:.<.<.;.g.|.q.}.}.|.-XMXwXjX|.[.|.v.9.b.b.9.P.|.|.+X-Xv.0.v.0.c.PXHXHXDXk.jXMXNXVX>X>XfXg.d.f.s.:.a.<.<.;.<.;.<.<.<.<.:.:.:.:.<.:.:.<.:.:.:.:.:.:.:.:.:.:.:.:.<.:.<.:.<.:.<.:.",
":.:.:.:.:.:.:.;.<.:.<.:.:.:.:.:.:.:.:.<.:.<.:.:.:.:.:.:.<.:.:.<.<.:.<.:.:.<.<.:.<.<.<.;.h.2X&X8.[.-X$XNXVXtXlX-XjX|.0.8.K.0.0.}.|.3XK.0.4.8.8.8.9.v.PXLXLXPXPXBXCXrX=X].B.l.zXFXDXg.;.<.<.<.<.<.<.;.<.<.<.<.:.:.:.:.:.:.<.:.<.:.:.:.:.<.<.:.<.:.:.<.<.<.<.:.:.;.",
":.:.:.:.:.:.:.s.<.:.<.:.<.:.:.:.<.:.<.:.:.:.<.:.<.<.<.:.<.:.<.<.<.:.<.<.:.<.:.<.<.<.<.d.*X&Xq.}.-XjX-XmXrXVXsXmXjX|.0.x.L.*.v.v.].V.n.0.8.8.8.v.0.8.0.0.0.0.v.5XkXMXXX].B.n.0.x.PXFXs.;.<.<.<.<.<.<.<.<.<.<.:.<.:.:.<.:.<.:.:.:.<.<.:.:.:.:.:.:.:.:.<.<.<.:.:.:.",
":.a.<.:.:.:.:.:.<.:.:.:.:.:.<.:.:.:.<.:.<.:.;.:.:.:.:.:.:.:.<.:.:.:.:.:.:.:.:.:.<.;.s.2X*Xc.}.1X1XMX,XNXrXtXlXNX,X|.0.Z.n.=.9.).[.B.9.5.0.4.x.c.8.8.8.9.0.c.n.b.K.vX%X`.M.n.8.4.x.PXf.>.2.<.<.<.<.<.:.:.<.:.:.:.:.<.:.<.:.:.:.:.<.<.:.:.:.<.<.:.:.<.:.:.:.<.:.:.",
":.<.<.:.:.:.:.:.<.:.:.:.:.:.<.:.:.:.:.:.:.:.<.:.:.:.:.:.<.:.<.:.<.:.<.:.<.:.:.:.<.<.k.&X0.0.[.jX-XMXNX>XrXrXjXnX1X|.0.c.*.=.).[.l.b.9.9.8.8.B.x.9.8.8.0.n.l.l.c.x.0.n.,XM.n.5.9.w.x.3Xg.:.:.:.:.<.<.<.<.<.:.:.<.:.:.:.:.:.:.:.:.<.<.:.:.:.<.<.<.:.<.:.:.<.<.:.:.",
":.:.:.:.:.:.:.:.:.<.<.:.:.:.:.:.<.:.:.>.:.:.<.;.:.:.:.:.:.<.<.<.:.:.<.:.<.<.<.<.;.s.1Xx.8.0.$XNX,XMXVX>XMXCXVXMX1X|.c.*.K c.,XM.n.0.4.0.8.c.n.4.8.9.v.M.n.n.b.x.4.4.8.J.lXn.8.4.8.4.x.2Xg.;.:.:.;.<.<.<.<.:.<.:.:.<.:.;.:.<.<.:.<.;.:.:.:.:.<.:.:.:.:.<.:.:.:.:.",
":.:.:.<.:.:.:.:.:.:.:.:.:.:.:.:.;.1.1.:.:.:.:.<.:.:.:.:.<.<.<.:.:.:.<.<.<.:.<.<.<.g.1X0.8.q.[.MXVXCXMX,XMXMXZXZXJXJXHX|.,.+XS.x.b.0.4.0.c.l.x.x.0.n.NXkXl.c.0.9.8.8.8.8.fXB.9.9.8.5.8.xX|.>.s.;.;.<.<.<.<.:.<.:.:.:.:.:.:.:.:.<.<.<.:.:.:.:.<.:.:.<.:.:.:.:.:.:.",
"s.:.:.:.:.:.:.:.<.:.<.:.:.:.:.:.:.r.>.;.:.;.1.;.<.:.:.:.:.:.:.:.<.:.<.:.<.:.<.;.g.&Xq.0.8.0.[.MXrXVXVX>XgX#X3XvXHXHXHXGXGXPXl.c.l.0.*.c.M.V.lXkXSXCXtXCXG.M.0.5.8.8.9.9.v.3Xx.9.8.8.8.P.|.;.:.;.<.<.<.<.<.<.<.:.:.:.:.:.:.:.:.:.<.;.;.:.:.:.:.<.<.:.:.:.:.:.:.:.",
":.:.:.:.:.:.:.:.:.:.:.:.:.<.:.:.>.( ( a.a.U U r.a.1.1.;.:.:.:.:.<.1.<.<.<.<.<.:.h.*Xv.b.8.0.[.MXrXrXMX;XXX;X,X5XFXGXHXGXHXHXDXb.c.x.0.lXjXkXV.n.K.-X,X#XkXZXkX0.8.8.8.8.4.v.bX8.8.8.w.8.|.2.:.;.<.<.a.<.<.<.<.<.<.:.:.:.:.:.:.:.:.:.:.:.:.<.<.<.:.:.<.:.:.:.:.:.",
":.:.:.:.<.:.:.:.:.:.<.:.:.:.:.;.>.| ` / } } | } X.>.r.1.1.<.:.:.<.<.<.>.<.<.<.s.V.0.c.J.8.q.[.wXtXVX>XXX@X;XZXBX5XFXHXGXGXHXKXDXS.>XlXb.n.n.x.v.x.0.q.q.c.NXVX0.8.0.w.8.8.8.5Xx.8.8.5.n.5Xh.s.s.s.;.;.<.;.<.<.<.<.:.:.<.<.:.:.<.:.;.<.:.:.<.<.;.:.:.:.:.:.<.:.;.",
":.:.:.:.:.:.:.:.:.:.:.:.:.:.:.:.>.| ] ~ ! [ ] ] [ } | Y a.a.1.1.<.<.<.:.<.<.<.<.K.q.).Z.0.0.[.ZXwX@XXX@X@X@X@XgXkX3XDXGXGXHXKXHXlXM.l.v.v.c.n.n.(.[.OX[.0.0.fXn.fXlX0.0.8.w.v.2X0.4.x.b.2XIXZXNXSXf.d.d.s.;.<.<.<.<.<.:.:.:.<.:.<.:.<.:.<.:.<.<.:.:.:.:.:.:.:.:.",
":.:.:.:.:.:.:.:.:.:.:.:.:.:.:.;.L | ] ] / Q ` [ ] ] ] } } | U a.1.<.:.:.<.<.:.>.B.q. XK.b.0.[.MXdXoX@XXX=XOXF.D.F.).vXGXGXKXKXFXB.x.c.v.c./.^./.,XBXJXAXl.9.x.zXB.#XZXkXc.8.q.2X0.5.l.c.B.5XAXAXAXBXPX3X2Xg.s.<.:.:.:.<.:.<.<.:.<.:.:.:.:.<.<.<.:.<.:.<.<.:.:.:.",
":.:.:.:.:.:.:.:.:.:.:.<.:.;.:.:.>.| ] ] ] / E ^ ' ] ] ] ] ] } | Y +.>.2.<.<.:.:.$.8.).K.F.q.Z.lX=X=XW.=X.XD.D.D.F.OXcXLXGXKXLXn.x.v.x.&.H &.*.g.IX5.4.zXzXPX2X2.K 9.kXMXMXkXV.2Xq.x.l.c.v.L.&X|.|.$X$X1XxX4X|.<.;.;.;.;.a.:.:.<.<.<.:.:.<.<.<.<.:.:.:.:.<.:.:.:.",
"<.:.:.:.:.:.:.:.:.:.:.:.:.:.:.;.>.| ] [ ] [ ^ ` W ` [ ] [ ! ! ! ! 8 A r.1.<.<.:.=.8. Xb.).F.K.>XW.=X=X=XG.D.D.F.XX@X3XFXGXKXPXx.8.H K k.C.V.IXk.=.&.&.*.*.9.zXzX;.=.0.c.NXCXNX5X0.x.l.x.=.*.5X X*X|.|.|. X$X4X5Xg.s.s.s.;.:.:.:.<.:.<.:.<.;.;.<.<.:.<.<.<.:.:.:.",
"<.<.<.:.:.:.:.:.:.:.:.:.:.:.<.:.3.U } ! ' ] ' ` / W W ' ' ! ^ ^ ^ 7 % * r.<.<.1.&.4.).n.).'.Z.OX=XoX=X^.D.D.D.=X;X:X=XbXPXzX4.H H H H 2.2.2.L D D m N H &.H *.$.|.,.4.8.c.SXCXBXM.l.l.0.*.*. X$X X|.|.|.|.|.B.A.2X2X4X2Xg.;.<.:.<.:.<.:.<.<.<.<.<.:.:.:.<.:.:.:.",
"<.<.:.:.:.:.:.:.:.:.:.:.:.:.;.<.;.U | ` ^ ] ] ' ` ~ E E ^ ^ ! ! ^ 7 $ # * A 1.;.H %.).L.-XhX=XdX;X=X=XF.=XS.F.;X@X:XXXb.n.k.H H B.L.L.zXDXLXT a a a a a a a m H J K K 5.8.l.ZXCX|.)./. X|.K P.&X|.$X|.1XBX$XP.n.m.v.&X5XbXf.;.;.<.:.<.:.<.<.<.:.<.:.:.:.:.:.:.:.",
"<.<.:.:.:.:.:.:.:.:.:.:.<.:.:.:.1.U | ` W [ ] ] ` ` ! E E W ^ ^ ! 7 6 # # * A s.%.H ).,XmXMXVXMX.X;XXX>X_.S.=X>X;X=X.Xl.6.H $.K.L.P.K. XKXY a a 1 f L L p.C.B d k H K H 4.4.[.CX+X XV.0.$X&.V.&X|.-X|.,XVX+X*X1XjXJ.K.q.bXPXh.s.:.<.<.<.:.:.<.:.<.:.:.:.:.:.:.:.",
":.:.:.:.:.:.:.:.:.:.:.:.:.:.:.:.;.+.| [ W ! [ ] [ / ` ^ E W E E Q 7 7 # # # * a.$.H +XmXMXMXNX[._.=X;X`.c.=X>X;X_.Z.c.x.H 4.L./.L.P.K.}.IXs a k L 0.m.A.P.4X5XC.k m K K H *.*.V.GXc.&.*.PX5.=. X+X+X-XMXMX$X|.dXkX|.$XK.K.2X2X&Xd.;.<.<.<.:.<.<.:.:.:.:.:.:.:.:.",
":.:.:.<.:.:.:.:.:.:.:.:.:.:.:.:.:.1.U ' ^ W ` ] ] [ / ` Q E W 6 6 6 7 # # # O U $.J.+XmXmXZX<XM._._._.6.M.;XF.,.F N G ,.L.}.>XNX XB.}.%Xl a B x.m.q.m.m.v.n.xXcX5X2X4.K H H K =.(.V.K w.FXFX5.P.1X[.,XVXVX|.1XMX-X|.<XNXL.8.8.v.*Xg.;.<.<.<.:.:.<.:.:.:.:.:.:.:.",
":.s.:.:.:.:.:.:.:.:.:.:.:.:.:.:.;.1.R | ~ E Q ' ` ` ' Q ~ W W 6 o # $ # # # # * -.P.jXNXZXdXA J._.'.7.,.S.6.m s a k x.L.>X>XMX+XK.P.IXl a k v.v.0.n.}.}.}.|.NXBXFXFXK.x.*.K K H L %X=.*.FXKX4.=.[.1X1XrXmX-XMXMX|.,XVXNX|.}.q.9.4X5Xg.;.<.:.:.:.:.:.:.:.:.:.:.:.",
":.:.:.:.:.:.<.:.<.<.:.<.:.:.:.:.:.:.r.' ` W W W W W ! E 7 ! W 7 # # # # # # # % N.}.mXMXCXp.j L._.M.H 4.G f 1 a V K.[.;XdXVX<XL.L.3XT a g x.x.q.m.P.*X}.}.*X0XeXkXBXbXb.B.4.H K H F &.*.PXKX,.=.$X[.-XMXNX,XMXfXNXVXMX+X|.-XK.8.Z.P.2Xf.<.<.:.:.<.:.:.<.<.<.:.:.",
":.:.:.:.:.:.:.:.:.:.:.:.:.:.:.:.:.<.a.| [ W W W ^ W ^ W 7 7 ^ 6 # # # # # # # + N.}.hXMXZXU j /.D.H H n a < a L q.F.aXaXZXgX].>XGXGXzXl 6.m.v.v.}.|.&X}.}.|.hXmXhXOXfXJXFX2X&X$.H j &.*.LXKX,.K }.1X,XMX,XNXMXdXrXtXmX,XjX1XZ.*.&.&.n.2Xs.;.:.:.:.:.:.:.:.:.:.:.",
":.:.:.:.:.:.:.:.:.:.<.:.:.:.:.:.<.:.:.R ' W W W E Q ^ Q ! 6 Q 8 o # # # # # # % N.}.hXmXBXU m L.$.H n 1 1 s 2.m.v.].dXMX0XdXjXNXGXAXGXJX|.q.A.P.&X}.}.}.}.|.hXmXhXOXjXnXLXLXcX5XJ j &.*.PXKX4.=.}.-X,XNX,XMXVXVXrXVXrXZXdX1Xc.=.0.0.v.2Xk.>.:.:.:.:.:.:.:.:.:.:.",
":.:.:.:.:.:.:.:.:.:.:.:.:.:.:.:.<.>.:.s.) ` E W W 7 E ! ! Q 6 7 $ # # # # # # $ H.F.mXMX,Xz j *.G j 1 1 1 3.m. Xm.>XrXhX7XhXhXjXjXjXgXNXzXq.m.}.}.}.}.}.[.>XaXeXjXOXMX>X XLXxXcX5XD &.&.5.LX,.K }.[.-XSX,XMXVXrXrXrXVXfX+XL.0.c.v.v.0.v.2Xs.;.:.:.:.:.:.:.:.:.:.",
":.:.:.:.:.:.:.:.<.:.:.:.:.:.:.<.<.:.:.2.U / W W W E 6 7 E E 7 % 7 o # # # # # + N.P.hXMX,Xl j H f < < 1 B 0.).[.).CXhXjXhXhX>X;X@XXX@X,Xk.0.}.}.&XP.&X&X|.!.6XeX-XOXhX=XF.LXcX4XxXM.G &.*.LX4.5.}.+X[.[.[.wXrXrXVXCX,X,XkXB.L.B.).[./.0.2Xk.;.;.:.:.:.<.:.<.:.:.",
":.:.:.:.:.<.:.:.:.:.:.:.:.:.:.:.<.:.:.<.<.` ! 7 7 7 6 # % % 6 % % 8 # # # # # $ N.P.hXeX#Xk j j > 1 1 d q.q.>XF.+XmX<XhXhXeXmXhXhXoXfXg.*.x.P.&X}.}.}.P.|.>X<X0X-XjX0X.XP.LXHXxXxXxXJ K 4.LX5.n./.,XbXbXbXBXrXrXtXsX>XNX).L.S.'.aXmX).9.0.2Xs.;.<.<.:.:.:.:.:.:.",
":.:.:.:.:.:.:.:.:.:.:.:.:.:.:.:.<.<.:.:.2.U / 6 # $ % 8 W.Q.Q.E.i.U.% # o # # $ H.L.jXeXV.l f j > 1 2 2.0.q.,XM.[.`.].>XhXjX>XdX>X>XR.D 4.0.}.&X}.}.}.}.OX!.>XeX=X0XaX].L.KXHXLXcX4X$.K 4.LX,. XfXfXfXFXKXDXVXrXlX;XNX).D./.OX@XmXlXv.4.0.2Xk.;.<.:.:.:.:.:.:.:.",
"<.:.:.:.<.:.:.:.<.:.:.<.<.:.:.<.<.<.>.:.;.2.p $ % p W.W.!.6X!.!.E.i.u.& # # o $ N.L.qX0XV.Y a d < < s 0.).l.].OX].].].].].'.'.'.OXIXB D 4.q.}.}.}.*X}.}.!.>X:X0XOXjX=X_.L.DXKXLXxXcX3XH *.PXV.vXvXFXbX<XbXjXMXgX[.XX/.F._.:XgX0XMX].B.8.*.0.3Xj.:.:.:.:.:.:.:.:.",
":.:.:.:.:.:.<.<.<.:.:.:.<.<.<.:.<.<.<.:.>.1.A p Q.W.~.~.W.W.W.W.!.E.i.u.I * o $ i.L.dXnXa.pXa 1 1 < A m..XOX`.`.OX].].'.].'.].OXzXl j D 8.0.m.|.}.}.}.|.:X>X:XhXaXmX.X].K. XJXHXcXxX4X%.4.BXhXDXFXFXFXvXvXgXkXK.x.j.F.^.>XNXmXtXsXOX'.4.*.*.q.&Xs.;.:.:.:.:.:.:.",
":.:.:.:.<.:.:.:.:.:.:.:.:.:.:.:.<.<.<.<.<.>.f.!.iX6X~.W.W.W.!.!.6XQ.i.i.u.e.% X * M.}.jXT pXl 1 1 < L A.`.].]._.S.F..X.X+X].V.-XY a m D $.8.m.|.}.}.}.*X:X:X:XeXMX;X].`.S.n.V.DXLXxXcX2X0.kX0X0XjXvXFXHXHXqXgXIX4.L.}.OXMXsXaXrXVXfX8.=.w.*.8.5Xs.;.:.<.<.:.:.:.",
":.:.<.:.:.:.:.:.:.:.:.:.:.:.<.:.<.<.<.<.s.f.nXwXwXrXeXW.~.E.E.`.W.!.Q.i.i.t.e.# % L.L.jXU Y T.< 1 < L Z._.b.b.Z.K.,XMXBXBXZXkX,XB a j D G 9.v.}.}.}.}.=X:X:XhXmXmX;X].`.K.b.b.K.DXcXxX2Xq.1X0XmXmXnXJXHXHXgXaX XvX X_.jX;X=XMXtXjX9.&.m.L.=.8.2Xs.<.:.:.<.:.:.:.",
":.:.:.:.:.:.:.:.:.:.:.:.:.:.<.<.>.<.<.d.sXMXrXtXtXtXeX~.~.~.H.i.i.E.Q.i.i.u.e.$ # t.B. XW.k R.1 < > L Z.F.n.Z.].hXhXkXFXKXHXHXGXKXT d D G 9.0.}.}.Z.|.hX:X:XhXwX=X].OX].M.b.B.b.DXLXxX4Xv.fXeXmXhXmXHXHXHXBXoX].JX).].oX`.gXrXCXS.*.F.[.v.*.=.n.g.;.:.:.:.:.:.:.",
":.:.:.:.:.:.:.:.:.:.:.:.:.:.:.:.1.:.s.Q.sX8XsX7X0X0XMXsXQ.:X!.Y.i.i.i.i.i.i.i.e.q i  X}.3XY 1Xl h s >.b.b.l.sXjXhXBXKXHXHXGXHXDXPXl a m D 4.0.b.}.v.[.mX:X:XmXMXXX'.].].S.b.K.K.DXGXxX5Xq.0XeX0X0XhXAXHXKXBX:X;X%X|.]..X;XMXtXgXG.NX,Xv.q.*.=.m.C.>.:.:.:.:.:.:.",
"s.:.:.:.:.:.>.:.:.:.:.:.:.:.:.:.<.>.f.mXrXwXeX0X6X6X6X6XQ.E.E.{.i.i.i.i.i.K.K.K.P.4XxXxX2XcXxXbXxXbXNXAX%Xn.sX0XjXZXZXHXGXkXdXh s a s C.N.H 8.x. Xm.}.NX:X:XmXmXXX'.`.K.b.b.l.K.DXGX4X4X|.hX0X0XmXhXNXHXHXJXaX'.J.fX'..XwXtXrXVXCXlX_._.v.*.&.n.DXs.;.:.:.:.:.:.",
":.:.:.:.:.:.:.:.:.:.:.:.:.:.:.:.:.d.jXtXVXrXtXrXrXMXgX!.`.E.E.E.H.i.i.i.K.P.[.}.F.2XvXGXvX5XLXKXAXZXNXk.6.n.dXhXsXdXdX/.f.h a l (.(.OXLXFXB.m.x.b.v.|.mX!.;XhX=X].].'.b.b.Z.l.Z.DXFX4XxXkXhXhXeXhX0XSXHXHXHX;XS.L.IX'.dXtXVXrXMXMXdXVX,X0.=.&.V.KXs.:.:.:.:.:.:.",
":.:.:.:.:.:.:.:.:.:.:.:.:.:.:.:.;.d.eXtXrXrXrXrXrXrXwX6X!.Q.E.i.i.i.h.Z.Z.Z.[.qX8X<X5XPXHXDXJXGXJXCXC.D f h aXsX(.n.m.,.k d Y bXLXDXFXcXcXvXcXc.0.v.).hX:X:X=XJ.'.].M.b.b.b.Z.l.DXcXxX4XlXeXhX0XhXhXNXHXHXkX:X/.PX+X.XMXrXrXMX:XZXtXMXn.q.=.w.FXLXd.>.:.:.:.:.:.",
":.>.:.:.:.:.:.>.:.:.:.>.:.:.<.>.:.d.eXtXrXrXtXwX7X6X!.6X!.8X~.E.i.i.K.K.J.K.K.[.MXVXNXBXHXHXGXHXJX(.N G d s 9XdXF.L.q.H F cXFXcXcXcXcXcXcXcXcXxXc.c.}.].=X:XG.S.OX'.l.b.b.b.b.n.DXLXxX*XgX0XhX0X0XeXAXHXlX;X'.D.FX+XjXCXCXmX:X:XrXrXNXc.0.&.%XKXPXd.;.:.<.:.:.:.",
">.:.:.:.:.:.:.:.:.:.:.:.:.:.<.:.:.d.eXtXrXVXrXrXMXeXqX6X8X!.!.;XE.N.K.K.;X:X<XjXVXMXSXT.R./.R.V.L H G G f s dXdXF.F.$.D IXvXcXcXcXvXcXvXvXcXcXxXn.0.c.].:X^.c.D.].M.x.b.b.M.B.3XLXHXxX|.jXhXhXhX0XBXHXbX.XXXM.K.FX+XVXMXsX@X:XMXrXrXMXc.=.*.LXDXf.:.:.<.<.<.:.:.",
":.:.:.:.:.:.:.:.:.:.:.:.:.:.:.:.;.d.mXtXrXrXrXrXrXtXwX!.!.!.E.i.i.S.Z.b._.<XMXmXBXU h a D H G G D G P c s a h.<X_.x.=.g pXAXAXAXAXAXAXAXAXBXvXcX4Xc.v.OX=Xc.c.'.b.x.x.b.L.LXPXKXKXLX4X}.jX0XhX0XgXAXKX/.J.J.S. X,X'.>X].W.:XaXVXrXrXjXv.=.*.FXC.;.;.:.:.:.:.:.:.",
":.:.:.:.:.:.:.:.:.:.:.:.:.:.:.:.>.s.MXrXrXrXrXCXrXrXeX8X!.Q.E.E.i.b.K.K.Z.[.jX1.D m f < j H G H D j x c z < h @X).9.$.s h #XAXHXHXHXHXHXGXZXZXvXcX6.6.b.l.c.l.F.c.$.x.8.g.KXKXHXHXBX|.dX0X0X0XhX0XGX$Xn.l.l.fXPX)._.^.'.@X:XMXrXtXNXc.0.=.4.PXs.;.<.:.:.:.:.:.:.",
":.:.:.:.:.<.<.:.<.:.:.:.<.:.:.:.>.s.gXrXrXrXrXrXrXVXVXMX6X!.W.Q.{.Z.K.;X>X<X>X6.J m j 1 s G G N G k k c v 2 < 2 M.4.=.d h ).[.zXHXHXKXHXGXAXNXAXBX3.H x.x.c.x.n.5.H 5.H (.KXHXKXHXkX*XjXhX0XhXhXhXDXS.J.|.$XzX'.(.(.(.`.:XaXrXVXCX,X8.8.=.5X|.;.<.;.:.:.:.:.:.:.",
":.:.:.:.:.:.:.;.:.:.:.:.<.<.s.+.t.e.y.9XrXCXrX8X8X9XhXVXhX!.!.Q.`.S.L.=X].6.,.,.1.G n 2 < s H m f F mXgXpXW.Y 3 4 <.4.a h [.[._.fXHXHXKXGXGXAXZXZXpXD 5.x.K 6.x.G G G J ZXHXKXHXKX).<XhXhX0X0XhXHX5X-X-X$X$X$XcXcX[.`.:XaXwXVXCXCX+X8.8.x.xX|.;.:.:.:.:.;.:.:.:.",
":.:.:.:.<.:.:.<.:.:.<.:.s.d.i.i.t.e.t.y.CXCXrXrXMX9X6X6X!.!.E.Y.{.1XP.v.c.6.%.%.g f m s < < j D B gXCXqXqXgXhXaX!.BXBXY h [.-X+X).%XKXJXHXHXGXZXZXSXB D v.H R G G H D N.ZXJXHXHXLX).sXhX0X0XhXkX3XP.L.S.b.b.b.B. XbX>XsXVXrXrXMXjXx.8.w.2X5Xg.>.:.:.:.:.:.:.:.:.",
":.:.:.:.:.:.:.>.:.:.<.>.i.i.e.e.#.#.C e.Y.CXtXrXtXrXrXeXsXW.:XE.E.P.Z.[.l.l.7.*.F 1 s a < < 1 N.NXVXMX7X7X7X7XsXgXgXZXAXT D.[.NXhXdX,XlXGXGXHXGXZXAXT.d J F c v G D B SXNXAXKXHX1X,X0XsXhX0XkX|.b.l.S.b.S.).J.J.J.'.AXVXVXrXNXj.0.8.4.=.2Xg.;.<.:.:.:.:.:.:.:.:.",
":.:.:.:.:.:.:.:.:.<.<.d.U.U.U.u.C Z Z Z Z Y.9XtXVXrXCXVX9XW.!.Y.N.1X-X.Xl.6.,.,.w.M < < 1 2 l >XMXVXMXsX7X7X7X7X7XmXMXZXpXC.*X-XZXrXMXNXNXkXAXHXJXAXT.d R z c v j d `.mXMXZXKXKX3XsXhXhX9XBXL.l.S.K.D.F.[.F./.]./.+XJXVXVXtX'.w.9.8.4.B.$Xs.;.:.:.;.:.:.:.:.:.:.",
":.>.:.:.:.:.:.:.2.t.Q.W.Y.Y.Y.U.u.u.e.#.C Z E.NXrXtXMX8X6XW.~.Q.i.[.<X`.Z.,.N k n N k < s pX).>XrXVXmX:X7XqX7X7XmXVXMXaXkXzXL _.<XMXwXVXmX,XfX3XcXvXPXT #Xv c d a l @XpXjXmXAXzX].0XjXhXkXn.c.b.l.S._._.[.`.=X_.'.^.cXwXtXCXF.9.0.4.0.2Xg.>.:.:.:.:.:.:.:.:.:.;.",
":.:.:.:.:.:.:.:.d.W.!.W.~.W.~.Q.u.U.U.e.e.C #.e.8XNXCXMX6XQ.Y.Y.i.t.=X.XM.l.,.n 1 1 s 1 l SX).gXrXMX].oX7X7XqXsXMXVX>X'.@XgXx z k.:XjXsXhXrXSX,XvXcXFXT #XIXz a d E.sXaXaXdXhX3X).hXqXGXV.K *.0.L.F.'.].=X;X'._.^.J.cXVXVX'.8.8.9.q.2Xg.>.:.:.:.:.:.:.:.:.:.:.:.",
":.:.:.:.:.:.:.:.Q.6X~.~.~.~.E.u.Y.u.y.#.Z Z Z C w 5 9XVX7X6XQ.i.t.@.z.-X-X_.Z.%.n a < a N.zX'.jXMXXX(.aX7XsX7XMXtXsX^.=XsXMXSXd . 5 p.>X7XgXZXCXNXvXFXT U DXa a P ,XsXaXsXdX,XK.).0XlXj.&.9.S.D._.=X;X;X=X_._.F.M.S.cXNXl.5.8.8.0.2X2Xs.;.:.:.:.:.:.:.:.:.:.:.:.",
";.:.:.;.>.>.>.f.W.6XwXwX6X~.8X~.i.u.#.Z C C #.Z Z : : y.8XQ.7XE.t.`.N.-.-.OX_.x.j.n d s M.OXPXlX'.F.:XaXaX7X7XwXmX].XXhXVXtXSXl = < , 5 W.dXsXgXmXmXGXT U fXa x C.P.fXdXdXXXK.b.].-X0.&.S.F._.[.=X=X;XOX_./.^.S.B.S.cXv.4.9.4.0.2X2Xs.:.;.<.<.;.<.<.;.<.<.<.;.<.",
":.:.:.:.:.;.d.hXrXrXrXwX6X6Xi.u.e.#.C w 0 0 4 ; - = = ; : I y.t.y.BXH.N.N.S g 2.j.,.$.n K..XfX+XD.'.=X:X7X7XhXZX>XoXMXVXVXMXZX9Xh , + @ 4 '.OX>XsX7XsXAXzXz 1 c C.A./.+XJ.B.b.V./.j.6.D.G.G._.=X=X=XXX^.^._._.^.B./.IX=.&.=.4.&X2X2.;.:.<.<.<.<.<.:.<.<.<.<.<.;.",
":.;.:.:.:.;.d.wXrX0X9X~.~.W.U.i.u.e.C Z 4 - ; : = = : = - ; ; ; +.BX^.2.,.J f 2 s n D G _..XdXAX_.'.'.!.;XgXVXMX`.hXrXmXfX`.;X7X#X@ - 1 : K.J.L.).OXaXsXSXz v c C.P.K.V.K.K.B.c.x.B.F.J.S.G..X=X=XXX_.F._.^.(.D.V.PX,.K &.}.&X*Xs.;.:.:.;.<.<.;.;.;.a.<.:.:.:.:.",
":.;.>.:.:.;.f.eXrX9X9X9X6X~.8X8XW.i.#.e.C C #.0 4 ; ; ; = = - ; {.NX{.D.M.$.J s < 1 s h ]..XlXNX[.H.=X:X{.hXrX7X>XVXhX'.H.`.:X7XiXT.l - 2 M.J.S./.D.].aXAXUXc c C.Z.K.L.B.n.x.c.F.F.J.G.G.=X;X=X'.H.^.^.^.^.D.l.L.PX=.K H $.2.s.:.<.<.:.<.<.<.<.<.<.;.<.:.:.:.:.",
":.:.:.>.;.s.gXtXtXrXtXtXrXwX6X~.Q.Q.Q.Q.y.y.e.#.Z w e 0 ; ; - ; (.NXSX{.D.j.7.J g < > s '.-X+X0.3X[.=X^.'.0XMX:XjXVXjX^.'.:XqXaX6XAXT., 2 B.J.S.=X.XK..X9XUXc c c v c R m L S.L.D.D.D.].=X=X=XF.F.F.F.F.^.^.F.S.V.PX,.K ;.2.;.;.<.<.<.<.;.<.:.<.<.:.:.:.<.:.:.:.",
":.:.:.:.>.d.wXtXrXwXrXrXrXtXwXeXwXeXqXW.u.y.e.#.e.e.#.C I Z 5 ; G.[.mX'.z.2.h.3.G s > 2 D.-Xv.n.zX[.^.^.oXmXmXaXVXMX_._.:X7X7X6X7XwXMXiXl $.B.B.F.:X_.S.sXUXc c c c v z j 6.D.S.S._.XX=X=X'.F.F.^.^.^.F.S.S.S.S.b.5X#XL <.a.<.<.<.;.<.<.:.<.:.:.:.:.<.:.<.<.:.:.",
"<.>.:.:.;.d.eXtXrXrXtXrX0X9X9X~.~.~.~.~.Q.y.y.y.e.e.I e 4 : = ; G.).NXkXD.-.N N N g > h F.Z.v.-X-XfX/._.hXMXhXsXtX>XG.'.aXaX6X!.7XrXVXVXgX3.*.B.S..X.XS.sXUXv x z a f D H c.D./.[.-X.XOXG.G.F.F.G.G.D.S.G.S.l.S.l.%X%X-.<.<.<.<.<.<.<.;.:.<.:.<.:.:.:.<.:.:.:.;.",
"<.>.1.>.>.r.eXtXrXrXrXrXwXeX~.~.~.~.~.~.~.W.~.i.e.Z 0 w 0 0 0 ; N. X(.fXj.3.N f 1 1 < 2 S.q.'.OXXX].n.].hXmXhXhXhX^./.:X6XaX=X=X7XrXMX7XCXnX3.5.S.'.S.S.lXT.1 a 1 < N D $.b.).BXBXbX XH.F.F.F.F.F.S.B.^.mXfX[.b. XKXR.-.s.<.<.:.;.<.<.<.<.:.:.:.:.:.:.:.<.:.:.:.",
">.<.<.>.:.d.0XtXtXrXrXrXrXrXrXwXwXeX~.~.W.~.~.U.U.u.u.e.#.#.Z ; N.|.K.fX#Xz.j.N s < < 2 j.v.`.=XXX+Xb.].:XjX].^.^.F.F.:X7X`.F.:X7XVXmX7XMXtXfX%.9.J.S.D.`.x c c c B 2.l.l.D.;X:X;XvXvX-XOX.X.XOX=X`.H.jXVXtXlXV.LXPXg.g.:.:.:.:.<.<.<.<.<.<.:.:.:.:.:.:.:.<.:.:.",
"<.<.<.>.<.:.f.gXtXtXrXrXrXrXtXeX9X~.~.~.~.~.~.W.W.~.U.y.y.e 4 ; N.*Xb.+XNXjXl.j.;.j 1 > h F.=X.XOX[.K.OX:X>X>XF.F.F._.aX=XG._.!.wXCXsXsXVXMXaX.X4.$.S.C.x x x v 2.0.g.n.S.XX>X@XXXPXKXcX:XaXsXaX`.=XmXVXCX<X5XKXKX2X&X|.h.1.:.:.<.:.<.:.:.:.:.<.:.:.:.:.:.:.:.;.",
">.<.>.:.:.:.>.t.7XMXrXrXrXrXrXrXwXrXrXwXrXeX8X8XqX8XQ.~.U.e.; ; 4 G.B.[.OXZX@Xh.6.N s > 1 V.=X-XF.[.S.].:X>XdXIX/.G.F.'.F.G.`.8XMXrX7XMXVXsX@XaXgXl < d x x z d J J x.l.D.].@XF.+XAXJXcXBXVXrXtXsX@XMXtXSX}.4XKXzX0.4.x.&X*Xd.7.<.;.<.<.<.:.<.:.<.:.:.:.:.:.:.:.",
"<.<.<.<.:.:.:.3.s.f.nXrXrXrXrXrXtXtXrXrXtXtXtXwX9X~.~.E.C ; ; 4 ; 4 n.K.).dXZXE.V N N 1 < h '.'.K.].J.].:X;X:XkXD.M.H.D.G.G.=X8XMXrXrXtXgX@XsXW.ZXW., - > > a k F 2.l./.G.G.S.+XAXAXAXcXcXVXVXCXgXdXVXVX).L.4XxXM.j.6.0.j.l.*X*Xg.s.<.<.:.:.;.<.:.:.:.:.:.:.:.:.",
":.:.>.:.:.;.:.:.;.;.f.hXtXrXrXrXrXrXtXwXwXeX0X~.~.~.Q.O.4 4 4 ; ; 4 k.K.[.).D.ZXR.m f > < < L Z.Z.[.b.[.;X:X:XdX%Xl.D.M.G.'.:X:XVXVXVXMX@XaX9X:XVXCXiX3 1 1 j H c.j.0.k.D.D.B.$XAXAXGXcXcXVXrXtXsXgXCXfXc.L.4X*Xk.l.l.l.j.j.l.Z.&X&Xg.>.;.<.<.<.:.:.:.:.:.:.:.:.",
":.:.:.:.:.:.:.:.<.<.>.f.hXtXrXrXrXtXwX8X8X8X6X8X0XwXQ.U.Y.e.I 5 ; 3 4 B.L.0.D.fX@Xp.p.U 2 > 2 g.K.b.v.L.].:XaX.X%XD.c.G.NXZXmXlXMXVX0X@X:XmX@XqXCXCXSX3 f j d j J J $.l.D.D.D.,XAXJXcXcX2XfXtXrX:XhXVXn.x. X2Xz.z.z.l.j.j.M.H.H./.$X*XV.s.;.;.<.:.;.:.:.:.:.:.:.",
":.:.:.:.:.:.>.:.:.;.:.;.f.gXtXtXrXrXrXrXwXrXtXrXwX8X~.~.~.u.y.e.e.0 3 z.P.8.Z.].:X>XdXfX#X4 > h n.b.q.L.[.dX@XJ.kXBXB.SXCXVXZXlXlXZX:X:XhXXX].mXnX,XgX3 < j -.J $.,.l.D.S.l.|.HXvXcX2XxX2X,XtXmXW.mX[.8.b.2Xk.z.l.z.l.l.l.H.8X!.W.XX|.4Xk.a.:.:.:.:.:.:.:.:.:.:.",
":.:.:.:.>.;.:.:.:.;.:.>.>.f.0XeXrXrXtXtXrXrX0X7X8X~.~.8X~.~.W.Y.w 3 4 4 M.q.n.K.XX@X@X@XAXSXl 2 s g.q.L./.>X/.).NXS.kXCXVXCXZX>XVXCX<X}.XX].XX@X(.XXSX2 f m 2.x.6.6.b.D.D./.kXvXxXcX2X}.5XdXtX6X:X>Xc.m.2Xk.j.z.D.G.^.!.~.!.~.!.6X@X|.|. X|.d.;.:.:.:.:.<.:.:.:.",
":.:.:.>.:.:.:.:.>.>.>.:.:.;.s.d.gXnXnXwXtXeX9X9XrXrXwX0X~.6Xu.b 4 b 4 4 V q.m.Z.).;X;XXX:XVXnXgXl 2 2.0.L.OXn.3XZ.).NXjXCXCXlXhXZX|.P.fXZXNXVXlX[.ZXpX1 d N ,.2.,.l.M.^.BXAXAXkXP.cXcXA.2XNXMXaX=XZ.Z.*Xl.j.z.G.D.{.nXwXrXrXrXrXVXhX@X:X:X,X&Xg.;.;.:.:.:.:.:.:.",
":.:.:.:.:.>.:.:.:.;.:.<.:.:.>.>.d.d.s.f.SXwXtXtXtXeX8X8X6XY.e.y.t.y.b b 4 A A.n.Z.].XX;XmXtXCXCXeXSXl h b.K.L.J.v.fX-XmXCXmX>XjXP.L.NXCXfXMXZX XkXp.1 a g N N n N 2.:XsXaXaXgXCXL.&XcXZ.DX>X~.=Xl.Z.1Xh.H.H.G.G.D.D.^.(.hXwXMXVXVXVXMXVXVXmX2X|.s.:.:.:.:.:.<.<.",
":.:.:.:.:.:.:.:.:.:.:.;.:.:.:.:.;.>.;.;.d.f.gXnXeXW.W.0X9X7XgXsX6XY.U.q + O h.Z.b.b.K.-XpX9XMXVXVXCXpXl h k.n.v.J.F.[.OXgX=X).v. XdX,X).Z.,X/.Z.}.r.1 h n D m n f.dXaXaXdX>X).ZX1Xm.5XK.bX:XXXF.*X*Xh.+.^.{.{.F.^.D.l.l.M.{.sXVXtXtXtXtXCXtXMX,XoXs.;.:.<.;.;.<.",
":.:.:.:.:.:.:.:.:.>.<.:.:.;.;.:.:.:.:.:.>.:.s.d.d.d.d.d.N.f.h.A B 5 o   X X @ h.A.A.B.K.^.@X@XaXrXmX=XdXpX4 h 5.A.P.}.P.}.P.q.n.}.D.L.0.c.B.K.L.|.SXSXSXpXB N N.gXqX>X_.dXdX/.3X|.q.Z.vX/..XB. Xh.1.7.+.7.h.h.z.M.G.F.F.D.^.mXMXMXMXmXMXNXMXMXMXaXt.:.:.:.;.<.;.",
":.:.s.>.:.:.:.:.:.:.:.:.:.:.:.:.<.:.:.<.<.:.<.;.;.;.<.<.<.;.M n @ . + O X X X + f.l.Z.Z.D.;X;X:XhX@XsXrXCXiX4 h B A M.M.c.5.0.g.2.6.0.0.[.-XOXfX=X>X>X;X[.XX'.Z.dXaX>X/.aX>X XP.Z.q.L.IXV V V b +.h.H.H.D.G.G.D.D.F.F.G.^.F.^.^.'.'.'.'.'.'.).'.].kXd.>.<.<.;.:.",
":.:.:.:.:.>.:.:.:.:.:.:.:.;.:.:.:.:.:.:.:.:.<.<.:.:.:.<.;.G M : & q * X X X     . @ l.Z.K.L.;X:X:XMXCXZXAXSX/.B.2 > 2 2 2 1 < h h U ,X.X;X=XXXXX=X=X@X.XS.>X=Xc.:XsX_.F.=X'._.c.8.Z.3XS b b M V V @.S.F.^.H.F.H.H.F.^.^.^.^.^.{.jXVXMXMXMXMXNXOX+XBXd.>.<.;.;.:.",
":.:.:.:.:.:.:.>.>.:.:.:.:.>.>.:.:.<.:.:.<.:.<.<.:.<.<.;.G D b r w * X X X         . h.l.c.c.M.H.N.r.r.U U 3 h s > , > > > 2 p.#XD.oX=X=XXXXXXX.XS.=X;X=Xn.F.].v.>X<X(.L.n.)./.0.Z.1X@.b b M V h.h.1.1.z.H.G.G.^.^.(.:X!.:X:X:X:X7XnXrXtXtXrXCXnX>XBXf.>.:.:.:.:.",
":.:.:.:.:.:.:.:.:.:.1.;.:.:.:.:.:.:.:.:.:.<.:.:.:.s.2.$.D b y r * . X X           . z.5Xt.@.-.N d a d a f f g s , > > > > 2.P.n.L.OXJ.].@X.XXXOXJ.`.;XOXn.Z.n.8./.(.F.v.n./.v.n.3X@.b M @.@.V @.H.H.H.S.M.D.{.6XaX8X7X8X6X!.6X6XW.aX6XwXrXrXwX9X@XpXPXs.;.:.;.<.",
">.:.;.>.:.:.:.:.:.>.:.;.:.:.:.:.:.:.:.:.:.:.<.:.<.1.7.%.M u y & X X X o X X X     + 7.Z.zXf.N j N V N V J N g 1 > > g 2 , h 6.A.n.m.n.[.F.S.=XS.m.S.[.Z.c.m.9.0.)./.Z.x.K.q.n.4XA b b M @.h.h.h.h.H.G.H.G.D.'.0XMXMXrXVXwX6X6X6XaX!.:X6XwXrXrXrXwXgXIXd.;.:.:.:.",
"<.:.1.:.:.>.:.1.:.:.:.>.:.:.:.>.:.;.:.:.:.:.<.:.<.,.3.M e u & o O * o X o o X     . 7.q.).A j 3.3.-.%.%.J n s , 1 g n 2 > > h j.m.m.n.n.v.Z.F.c.m.m.n.c.n.v.w.c.).K.0.m.A.K.1Xd.M M M +.h.t.Q.Q.E.H.{.!.~.'._.[.[.OXMXtXrXMXMXwXMX7X6X6X6X0XwXwXrXtXPXd.;.:.:.:.",
"<.:.:.:.;.:.;.>.:.:.:.:.;.:.:.;.:.:.:.:.:.:.<.:.2.7.,.S y t O & 9 9 o o X o O     . d.q. XN.5.j.j.j.3.%.N f 1 f n M j > 2 g s 2 j.c.m.A.c.v.m.c.m.c.v.m.m.v.9.L.J.0.m.|.2Xd.M M M M 1.t.t.7.E.Q.~.!.{.oXwXmXOX_. X).OXNXVXrXtXrXrXwXrXwX6X6X6XsXwXtXBXd.;.:.:.:.",
":.:.;.:.:.>.:.:.:.:.:.:.1.:.:.:.:.:.:.:.<.:.:.<.f.lX7.u t & 9 t q $ X o X o X       @ 6.n.AXN.M.S.h.3.V g g n N -.-.j 2 n m j 2 j n x.m.A.m.m.m.m.v.v.v.v.w.A.P.m.x.[.l 2 M V V M M @.h.h.i.z.Q.!.~.!.oX6XwXrXmX=X(.).).].mXrXtXtXtXrXrXVXVXrXwXrXrXJXd.;.:.:.:.",
":.:.:.:.:.>.:.:.:.:.:.:.:.:.:.:.:.:.:.:.<.<.:.;.d.zX>.i t t u t & X o o X X X X     . 6.m.kXMXSXH.h.-.n n M -.3.3.-.g N %.-.g s f j g h 7.j.x.A.m.A.A.A.,.$.2.3.L h 3 > > j V -.@.V b @.N.Q.!.!.W.6X7XaX:X6XVXrXVXhX>X(.).[.].fXaXNXMXMXCXtXrXtXVXVXSXs.;.:.:.;.",
":.:.:.:.:.:.;.:.:.:.:.:.>.:.:.:.:.:.:.<.<.<.<.:.<.g.Q.u o.y o.9 O o X X X $ o X     + j.m.n.NXCXH.h.-.M V ,.1.z.z.-.M -.z.-.g g j j f 2 B d s ,.,.S S S 3 , g n 1 > > , > 2 M -.h.h.-.@.h.W.8XwXMX8XVXrXqX6X6XrXtXtXeXdX[.).)./._.).).+XNXMXMXMXVXMXf.;.:.:.:.:.",
">.:.:.:.:.:.:.:.:.:.:.:.:.:.:.:.:.:.<.<.<.:.:.s.;.g.gXu o.u u O o o O & 9 * o .     . 2.q.q./.SXH.7.h.7.7.h.h.l.z.3.;.j.j.1.n g j n n g -.g s V J ; = - - - g M n 2 1 g 1 > f %.-.z.H.l.i.i.!.wXtXrXrXrXtXMX9X9XVXrXrXrXMX:X[.).'.). X).'.[.[.[.].lXd.>.:.>.:.:.",
"<.:.:.:.:.>.:.:.:.:.:.:.:.:.:.:.:.:.:.:.<.:.:.:.:.:.l.pXu u 9 & 9 + 9 9 9 O X X       @ x.v.v.n..XH.M.l.z.l.z.{.H.1.h.z.h.j.B j m h.B n 1.-.f V ,.S - - - - g n m M 1 g M a < N %.1.H.Q.oX{.'.!.MXrXrXrXrXrXVXrXrXVXrXrXrXwXmX].+XjX].[. X(. X).(.d.:.:.:.:.:.:.",
">.<.>.:.:.:.>.:.:.:.:.:.:.:.1.:.:.:.:.:.<.<.<.;.a.w z.kXo.i t t 9 9 9 9 9 O O X       . h.q.0.q./.+XkXNXOXN.^.{.H.h.oX{.h.j.@.j V z.7.N s.2.M J 5.A = - - - n N N V j f N M f a J %.z.oXwX~.`.oX8XVXrXrXwXrXrXrXrXrXrXrXrXVXtXjXXX;XnXNXOX X).[.kXd.;.:.:.:.:.:.",
"<.>.;.:.:.;.;.:.:.:.:.:.:.;.;.>.:.:.:.:.<.;.<.<.U 8 d.b.lXo.y y 9 t y 9 9 O O O X       + 1.v.v.F.}.).[.NXmXZXmXN.@X0XW.H.S.1.M j.h.h.V z.k.-.V P.S = - - - b N V %.%.M m %.J j n 3.b./.aXwXqX!.6X0XtXwX8XMXtXrXrXrXrXrXrXrXrXtXVX:X@X0XMX+X).[.jXa.>.:.:.:.:.:.",
"<.:.:.:.:.1.:.:.;.:.:.:.:.:.:.:.:.:.>.<.<.<.<.;.A % 6 0.K.iXi y y y t 9 9 + * O X X .     @ x.q.c./.).F. X].rXwXoXVXmXW.W.H.7.+.h.z.h.@.z.l.;.%.}.3 - - - = g V $.,.%.%.N %.%.J M V L.*XfXNXMX7X6XaXBXZXnX8XeXrXrXrXrXrXrXrXrXrXrXtXMX@XaXjX+X/.d.:.:.:.:.:.:.>.",
"<.:.:.:.:.;.:.>.>.:.:.:.:.:.:.:.:.:.:.<.<.<.<.:.8 6 6 x.q.M.U.u o.o.t 9 9 9 * O & 9 O X .   A q.v.F./.).L.m.>XrXMXtXMX6XqXE.{.H.h.h.h.z.z.H.fXB. X; = - - = ; N $.%.3.%.%.J 7.%.H J K.&XxXxXDXjX6X8XfXcXBXhXW.aXwXtXrXrXrXrXrXrXrXVXtXVXMX9X#Xs.>.:.:.>.:.;.:.:.",
":.:.1.>.>.:.:.:.:.:.:.:.:.:.;.>.:.:.:.:.<.:.s.a.8 E 7 d.q.v.sXo.o.u t t t 9 & 9 9 * X o .   + 1.v.F.)._.b.m.).).[.NXNXMXZXNXmXpX;XN.h.H.MXBX$XP.S = = = - - - M *.,.%.%.3.3.7.j.2.$.7.}.4XxX4XcX<XaX7XbXxXkXNXaXaX0XwXVXrXrXrXrXrXVXtXrXtXnXN.>.:.:.:.:.:.:.:.:.",
":.<.>.:.:.:.:.:.:.>.:.:.:.:.:.:.>.:.:.:.:.:.s.U Q E E 8 2.q.c.sXo.o.i u y 9 t 9 & X o X X X . @ v.P.F.F.0.n.)././.). X).).).'.,XZXNXjXnXNXF.A.f.; - - - - - - ; %.%.%.,.l.l.l.M.l.6.6.c.4XcXxXxX4XbX!.!.bXxXVXtX0X6X6X7XwXwXrXrXrXtXtXtX9Xf.;.>.;.:.:.:.:.:.:.:.",
">.<.:.:.<.>.:.>.:.:.1.:.:.:.:.:.>.<.<.:.:.:.1.p E E E 6 & 6.8.n.fX{.u.y y y u 9 X O & o o X . . 5 -.I.q.8.0.L.).(./.B.B.b.l././.).).[.[./.x.0.w ; e 0 - e 0 : ; %.%.%.*.l.M.S.S.l.l.6.6.2X4XxX4XxX4XxXbXbXxXBXNXZXrXhX6X6X6X6XrXtXeXeXgXf.>.:.:.:.:.:.:.:.:.:.:.",
"<.<.:.<.<.:.:.:.:.:.:.;.:.:.:.:.<.<.<.:.:.:.2.8 E 7 E E 7 >.8.9.6.|.wXu y O.t % 9 t 9 o & X & O   t.w 2.8.q.L./.L.b.b.n.0.b.).).).F.F.L.v.x.i.y.w w I 0 0 e w 0 4 %.*.%.6.l.`.oXF.c.l.6.c.b.4XcXcXxXxX4X4XxXxX4X4XZXCXtXrXVXrXwXjXf.s.a.>.:.:.:.:.:.:.:.:.:.:.:.",
"<.<.>.<.:.>.<.<.<.:.:.:.:.:.:.:.:.:.<.:.;.;.g.8 E E E E 7 * +.9.8.}.ZXo.o.i t t t y * & & & 9 + 0 f.# @ -.,.6.0.0.l.Z.0.4.0.v.L.L.0.q.x.7.E.Q.u.e.e u.O.0 e I e 0 b %.%.%.n.S.!._.D.S.l.6.c.l.P.&X4XxXxX4XxXxX4XxX4X3XNXeXmXjXf.<.:.;.;.<.:.<.;.:.:.:.:.:.:.:.:.",
">.<.<.<.:.:.<.>.:.:.:.:.:.:.:.;.:.;.:.:.<.2.a./ ~ ~ ~ E 7 6 7 I ,.v.BXBXSXo.i u o.t 9 y q t q M j.@ o o + @ ;.9.5.9.5.4.0.4.4.0.0.4.j.`.t.W.8XQ.y.O.u.Q.e w C y.e 0 0 @.%.7.l.F.=XW.'.F.S.b.c.l.n.l.M.2X4X4X4X5X4X|.1.d.d.d.s.>.;.:.>.:.<.>.:.:.:.:.;.:.:.:.:.:.",
"<.<.>.<.:.:.:.:.:.:.:.:.:.:.:.:.:.:.<.:.<.;.r.( ~ ~ ~ 7 6 7 7 7 6 :.j.Z.zXy.o.u O.t y i y Z G 3.* o o   . A <.<.<.<.1.1.<.<.2.<.:.*.6.W.W.eX8X8X8Xy.y.W.E.e e y.o.C w 0 V %.c.G.!.;XQ.@.@.N.z.h.h.S Z Z s.s.s.s.s.s.;.;.;.;.>.:.:.:.:.:.:.>.:.>.:.:.:.:.:.:.:.:.",
">.<.<.>.:.:.:.:.;.:.>.:.:.:.:.:.:.:.<.;.<.;.a.( ~ ~ ~ 7 7 7 Q W 6 % & 1.z.zX(.y.O.i.l.,.$.G 2.t.O o o   @ >.<.:.<.<.<.<.:.>.s.:.:.2.*.6.wXrX8X8XrXiXu.8X!.u.e #.u.y.e 0 0 0 #.l.oXE.0 5 0 0 0 w w e.DXPXs.;.:.;.;.;.:.<.:.:.:.:.:.:.:.:.:.:.:.:.:.:.:.:.:.:.:.:.",
"<.<.>.<.<.>.:.:.:.:.:.:.:.:.:.:.:.:.:.:.:.:.+.( ~ ~ ! 7 ~ ~ ! E 7 6 6 % & k.P.}./.}.b.4.*.1.r.@ o O   @ A <.<.:.<.<.<.:.<.:.:.:.:.:.,.6.0XCXwX6XrXtX8XeXqX~.Q.e C u.O.C e 0 0 0 0 0 0 0 0 0 w pXfXxX5XN.:.:.:.:.<.:.;.<.<.>.:.;.:.:.:.:.:.:.:.:.:.:.;.:.:.:.:.:.",
">.<.<.<.>.<.:.:.:.:.1.>.:.:.:.:.:.:.:.:.:.:.1.) ~ / E Q ~ ~ ! E 7 7 % U a.;.g.}.}.P.s.1.:.s.@.O o   O A s.<.<.:.<.<.<.<.<.<.<.<.:.>.;.2.f.mXrX6XeXrXrXrXeX~.~.U.C e.u.O.C e e 0 0 0 0 5 5 0 pX&X}. Xs.;.:.:.:.:.:.:.<.:.<.:.:.:.:.;.;.>.:.;.:.:.:.:.:.:.:.:.:.:.",
"<.<.>.<.<.>.<.:.>.:.:.:.:.:.:.:.:.:.<.:.<.:.,.) _ ! E ~ ~ ~ ~ ! Q ) U <.;.<.<.<.<.s.<.<.<.+.@ o o . @ >.<.:.<.<.<.:.<.:.<.<.<.:.:.:.:.:.<.M.VXMX9XrXrXrXrX8X~.~.Y.e C y.e.O.C e e e e w w e |.&X/.d.;.:.:.:.:.:.:.;.<.>.:.<.>.;.:.;.:.:.;.<.<.;.:.:.:.<.<.:.<.:.",
"<.<.<.>.1.>.<.:.:.;.:.:.:.:.:.:.:.<.:.:.<.<.,.) ~ Q Q ~ ! / / ( U >.2.<.<.<.:.:.<.<.<.<.>.* o o X . A <.<.<.:.:.:.<.:.:.:.:.<.:.:.:.:.<.:.s.gXVXrXtXrXrXrXwXqX~.E.E.e.C U.u.O.C I I O.O.e.|.&X(.8 -.2.:.<.:.:.:.:.>.:.:.:.;.:.:.:.:.:.:.>.:.:.>.:.:.:.:.:.:.:.:.",
":.:.:.:.:.:.:.:.:.:.<.>.:.:.:.<.:.:.:.:.:.:.<.) ~ 7 ^ ~ ~ U r.U <.<.:.:.<.:.<.:.<.<.<.<.U O X o . @ >.<.:.:.;.s.<.:.:.:.:.:.:.:.<.:.<.:.:.<.s.@XVXnXtXtXyXtXwX6X~.6X~.e.C y.U.O.O.O.O.C e.&X|.( 6 +.<.<.:.:.:.:.;.>.:.:.:.:.>.:.:.>.:.:.>.:.:.:.;.:.:.:.:.:.:.:.",
":.:.:.:.:.:.:.:.:.<.<.>.:.:.:.:.<.:.:.:.:.:.2.) W ! ~ ( ) A 2.>.:.:.<.:.:.<.:.<.<.:.s.>.@ o o . . A s.:.<.:.<.:.:.<.:.<.<.:.<.:.:.:.:.<.:.<.;.s.d.f.jXMXCXVXrXnXW.6X6X~.u.e e.U.E.o.O.O.].2X .W 6 +.1.<.:.:.:.:.:.:.:.;.:.:.;.:.:.:.:.;.;.:.:.:.:.:.:.:.1.:.:.:.",
":.<.:.:.:.:.:.:.:.:.:.>.:.:.:.:.<.:.<.:.:.:.3.) W ! ( U <.>.>.<.:.:.:.:.<.<.<.<.:.:.<.A O o o . 5 >.<.:.:.:.:.:.<.:.<.:.:.:.:.:.:.:.:.:.:.:.<.:.;.:.s.N.MXuXuXrXeXwX7X8X8XE.u.e.y.gXfXF.<X#X/ _ / r.1.<.:.:.:.:.:.:.:.:.:.:.:.:.:.:.:.:.:.:.:.:.:.:.:.:.:.:.:.>.",
":.:.:.:.:.:.:.:.>.>.:.:.:.:.<.:.:.<.:.:.;.<.<.) ^ ) >.>.<.>.<.<.:.:.:.:.<.<.<.:.:.:.>.* o o X @ s.<.:.<.<.:.:.:.<.<.:.:.<.:.:.<.<.:.:.:.:.:.:.:.s.>.;.;.t.( | uXyXtXrXqX8XqX<XOX1XM.z.h.8 ! ~ _ { U 1.>.:.:.:.:.:.:.:.;.<.>.:.:.>.:.:.:.:.;.>.:.:.:.:.:.:.:.:.:.",
":.>.<.<.:.1.>.<.<.:.<.:.:.<.<.:.<.:.<.;.:.:.:.( 7 U 1.;.<.<.<.<.s.:.:.:.<.<.<.<.:.<.U $ o X . A :.:.<.:.<.:.:.:.<.<.<.:.<.<.<.:.:.:.:.:.:.:.<.:.:.:.:.;.;.a.Y | } yXyXyXuXiXR.C.p.7 E ( W ^ } } { U 2.s.:.:.:.:.:.:.:.:.:.:.<.:.1.:.:.:.:.:.;.:.:.:.:.<.:.:.:.:.",
":.:.:.:.:.:.<.<.<.<.:.:.:.:.:.:.<.:.:.:.:.;.>.7 8 >.<.:.<.<.:.:.:.:.:.:.:.:.:.:.s.A + # o . @ >.<.:.<.<.:.:.:.:.<.:.:.:.:.:.:.:.:.:.:.:.:.:.:.:.:.<.:.<.<.2.2.U ..{ { } / ^ { { _ [ ^ _ _ ^ } } } r.<.:.:.:.:.:.:.;.:.:.:.:.:.:.:.:.:.:.:.:.:.:.<.:.:.:.<.:.:.:.",
":.:.:.:.:.:.:.:.:.:.:.:.:.:.:.:.:.:.:.:.:.2.U 8 U 1.:.:.:.<.:.:.:.:.<.<.<.:.:.<.>.@ # # o . A <.<.<.<.<.<.:.:.:.:.:.<.:.:.:.:.:.:.:.:.<.:.:.:.:.<.:.<.<.<.<.a.;.a.Y } { ] ` { { ' } { ` _ _ } } X.1.:.:.1.:.:.:.:.:.:.:.:.:.:.<.:.:.:.:.:.:.:.:.<.:.<.:.<.:.:.:.",
":.:.:.:.:.:.>.:.:.:.:.:.:.:.:.:.:.:.:.:.:.a.1.>.1.>.<.;.:.>.:.<.:.:.:.:.<.:.:.<.A $ % $ X + >.<.:.:.<.:.:.<.:.:.:.<.:.:.<.:.:.:.:.<.:.:.:.:.:.:.:.<.<.<.;.<.<.<.2.s.7.Y ....{ { { { { [ _ _ [ } X.,.a.:.:.>.;.:.:.:.:.:.:.:.:.:.:.:.:.:.:.:.:.:.:.:.:.:.<.:.:.:.",
":.>.:.:.:.:.:.:.:.:.:.>.:.:.:.:.:.:.<.<.:.:.:.<.:.:.:.:.:.1.<.>.<.:.<.<.<.:.1.>.* # 6 o O A <.:.<.:.s.:.:.:.<.:.:.:.:.:.:.:.:.:.:.:.:.:.:.:.:.;.:.:.<.:.:.<.:.;.:.:.:.1.r.r.Y ..{ { { { [ _ ' { | 3.>.:.:.:.:.;.:.:.:.:.:.:.<.<.:.:.:.:.:.:.:.:.<.<.:.<.<.<.:.:.",
"<.<.:.:.:.:.:.;.:.:.:.:.:.:.:.:.:.:.<.>.:.:.:.:.>.;.:.:.:.:.<.<.:.:.:.:.:.:.<.A $ % # X @ a.2.:.<.:.:.:.:.:.:.:.:.:.:.:.:.:.:.:.:.:.:.:.:.:.:.:.<.:.<.:.:.:.:.:.:.:.:.;.1.1.<.a.Y ..{ { } ` [ ..r.1.:.;.:.:.1.>.:.:.>.;.:.>.>.1.:.;.:.:.:.:.<.:.:.:.:.:.:.:.:.:.",
">.<.<.:.:.:.:.:.:.:.<.<.:.:.:.:.:.<.<.<.:.:.:.:.1.:.:.<.:.:.<.<.<.:.<.:.:.<.>.* # 6 o + A <.:.:.<.:.<.:.<.:.<.:.:.:.:.:.:.:.:.:.:.:.:.:.:.:.<.<.<.:.<.:.:.:.:.:.<.:.:.:.:.>.:.;.3.a.a.Y { } [ ..+.1.>.>.:.:.:.:.:.:.:.:.:.:.:.:.:.:.:.:.:.:.:.<.:.:.:.:.<.:.<.:.",
"<.<.:.:.:.:.:.:.:.:.:.<.:.:.:.:.:.:.<.>.:.:.<.:.:.:.>.>.:.:.<.<.<.:.<.:.:.:.U O 7 % O U 2.<.:.:.:.:.<.<.:.:.<.<.:.:.:.:.:.:.:.:.;.:.:.:.:.:.:.:.:.:.:.:.<.:.<.:.:.:.:.:.:.:.:.:.:.;.1.:.r.p.] X.1.1.;.1.:.:.:.:.:.:.:.:.:.:.:.:.:.:.:.:.:.:.:.:.:.:.:.:.<.<.:.:.",
"<.:.:.:.:.;.>.:.:.:.:.<.:.:.:.:.<.:.:.:.>.<.<.:.:.:.:.:.:.:.:.<.<.:.<.:.<.>.* $ 7 # * +.s.;.<.:.<.<.<.<.<.:.<.:.:.:.<.:.:.<.:.<.:.:.:.:.;.<.:.:.:.:.:.:.:.<.:.:.1.:.:.:.:.:.<.<.:.:.:.:.1.1...Y 1.>.:.:.:.:.:.:.:.:.<.:.<.>.<.<.:.:.:.<.<.:.:.<.:.:.:.:.:.:.<.:.",
":.:.:.:.:.:.:.:.<.<.>.>.:.:.<.:.:.<.:.:.<.<.<.<.:.:.:.:.:.:.<.:.<.:.:.:.s.A $ 7 6 O A >.:.<.<.<.<.<.<.:.<.:.:.<.:.:.:.:.:.:.:.:.:.:.:.:.<.<.:.<.:.<.:.<.:.:.<.:.:.:.<.:.<.<.<.<.:.:.:.:.:.:.+.>.1.:.<.:.:.:.:.:.:.:.:.:.:.:.:.<.<.:.:.:.<.:.:.:.<.:.;.:.<.:.:.:.",
":.:.:.:.<.>.1.:.<.<.<.s.:.>.:.<.<.<.<.:.:.>.:.:.:.:.<.<.<.:.<.<.<.<.:.<.+.@ $ E 6 * >.<.:.<.<.;.<.<.s.<.<.<.<.<.<.<.:.s.s.:.:.:.;.s.s.:.<.<.<.<.<.<.<.<.<.<.<.:.<.<.<.<.<.<.<.<.<.<.:.:.:.<.1.<.<.<.<.<.<.<.:.>.:.>.:.:.<.<.<.<.<.<.:.:.<.<.<.:.:.:.:.<.<.<.:.:.",
">.>.:.:.<.:.:.:.>.:.<.>.<.<.<.<.<.s.>.:.<.<.<.:.<.<.<.:.<.:.<.<.<.:.:.<.+.$ 7 7 $ A s.:.:.<.<.<.<.<.:.<.<.<.<.<.<.<.<.:.:.:.<.<.:.:.:.:.a.:.<.<.<.<.<.<.<.<.<.:.<.<.<.<.<.<.<.<.<.:.:.:.:.<.:.:.:.:.<.<.<.>.<.<.:.:.:.<.:.:.<.<.<.<.>.>.:.<.<.<.:.:.:.:.:.:.:.<."
};
