/* XPM */
static char *_642105_resized[] = {
/* columns rows colors chars-per-pixel */
"128 128 256 2 ",
"   c #040003",
".  c #0D0007",
"X  c #050109",
"o  c #0D0009",
"O  c #0B0B0A",
"+  c #0B0A07",
"@  c #12030C",
"#  c #130B09",
"$  c #09160D",
"%  c #15150A",
"&  c #190913",
"*  c #1D1318",
"=  c #081A11",
"-  c #240C19",
";  c #24161C",
":  c #02290B",
">  c #17250E",
",  c #00360C",
"<  c #022D12",
"1  c #062817",
"2  c #013414",
"3  c #023B15",
"4  c #033C1C",
"5  c #05351A",
"6  c #153214",
"7  c #28320F",
"8  c #2C1A24",
"9  c #053C22",
"0  c #34292E",
"q  c #462B38",
"w  c #41182D",
"e  c #04460D",
"r  c #02431D",
"t  c #054917",
"y  c #0B5517",
"u  c #135917",
"i  c #0F520E",
"p  c #2B5116",
"a  c #19660C",
"s  c #19691A",
"d  c #1B711B",
"f  c #28671A",
"g  c #2B7C1D",
"h  c #27761A",
"j  c #317A19",
"k  c #2D720F",
"l  c #024421",
"z  c #014923",
"x  c #0A4927",
"c  c #16492B",
"v  c #2A7921",
"b  c #2D7223",
"n  c #255535",
"m  c #5A7A12",
"M  c #4E6D13",
"N  c #506711",
"B  c #55014C",
"V  c #5A014E",
"C  c #530047",
"Z  c #5D0151",
"A  c #5A0752",
"S  c #51034B",
"D  c #630154",
"F  c #6A0558",
"G  c #750359",
"H  c #650850",
"J  c #513649",
"K  c #790A65",
"L  c #7A1267",
"P  c #6C365D",
"I  c #335D45",
"U  c #684C5B",
"Y  c #665660",
"T  c #F11A1B",
"R  c #F1621E",
"E  c #87045C",
"W  c #850C6C",
"Q  c #990268",
"!  c #85126D",
"~  c #861271",
"^  c #8A1473",
"/  c #8E1977",
"(  c #931C7B",
")  c #971A79",
"_  c #940F6E",
"`  c #A5026A",
"'  c #B10C71",
"]  c #98237C",
"[  c #8E3178",
"{  c #AC2A7A",
"}  c #941C5D",
"|  c #EB0E4E",
" . c #C8046D",
".. c #D7016D",
"X. c #D90574",
"o. c #D00E77",
"O. c #ED006B",
"+. c #E70268",
"@. c #F10069",
"#. c #E90576",
"$. c #F20173",
"%. c #F5087B",
"&. c #F3137D",
"*. c #EC1679",
"=. c #E6265E",
"-. c #8D4E71",
";. c #935F79",
":. c #EE5959",
">. c #35861A",
",. c #348314",
"<. c #348621",
"1. c #2D8422",
"2. c #438A13",
"3. c #489516",
"4. c #559311",
"5. c #6B9613",
"6. c #5BA414",
"7. c #76B70E",
"8. c #68A813",
"9. c #6CB213",
"0. c #76B812",
"q. c #75AA13",
"w. c #428239",
"e. c #7CC30F",
"r. c #86BB0E",
"t. c #85B813",
"y. c #86AE13",
"u. c #849A22",
"i. c #F49A25",
"p. c #88C60D",
"a. c #96CB0C",
"s. c #9BD30B",
"d. c #88C612",
"f. c #94CF12",
"g. c #A2D60E",
"h. c #A7DF12",
"j. c #F9D01D",
"k. c #EF9A65",
"l. c #F8D861",
"z. c #9D2482",
"x. c #9D3A82",
"c. c #A42A86",
"v. c #A72A87",
"b. c #AC328B",
"n. c #B4378D",
"m. c #B83B93",
"M. c #AF338D",
"N. c #A31F81",
"B. c #F61983",
"V. c #EF1484",
"C. c #D3368F",
"Z. c #E92787",
"A. c #F8278A",
"S. c #F7338E",
"D. c #FA3C94",
"F. c #F73893",
"G. c #ED3591",
"H. c #C91D83",
"J. c #BD4296",
"K. c #B94798",
"L. c #B3518F",
"P. c #BC57A4",
"I. c #B979AC",
"U. c #A26891",
"Y. c #C24599",
"T. c #C74899",
"R. c #D54B9C",
"E. c #D5529C",
"W. c #C75098",
"Q. c #EA4798",
"!. c #FB4C9B",
"~. c #F84598",
"^. c #FB529D",
"/. c #F5539D",
"(. c #E8529B",
"). c #CA59A7",
"_. c #DA56A3",
"`. c #CF4DA1",
"'. c #E859A5",
"]. c #FB55A2",
"[. c #FC5CA4",
"{. c #F75BA5",
"}. c #F34EA4",
"|. c #C765AC",
" X c #CC78BA",
".X c #D46DAE",
"XX c #EB65A9",
"oX c #FC64A9",
"OX c #FB6BAD",
"+X c #F765A9",
"@X c #F972AE",
"#X c #FB6CB1",
"$X c #EA76B4",
"%X c #FC74B2",
"&X c #FC7BB6",
"*X c #FE7DB9",
"=X c #F579B4",
"-X c #E76EAE",
";X c #E16997",
":X c #E37DC2",
">X c #B58AAE",
",X c #A69B9E",
"<X c #CD8BB8",
"1X c #FD83BB",
"2X c #FC8ABE",
"3X c #F584B9",
"4X c #EF8DB9",
"5X c #E5ABB0",
"6X c #B2C5BA",
"7X c #F7DAA1",
"8X c #D58AC5",
"9X c #D895CB",
"0X c #D592CB",
"qX c #FD8DC1",
"wX c #FA89C3",
"eX c #FB93C3",
"rX c #FB9BC6",
"tX c #F89BC7",
"yX c #E695CB",
"uX c #DAACCD",
"iX c #FCA4CB",
"pX c #FCABCD",
"aX c #F6A4CA",
"sX c #FCADD1",
"dX c #F7AAD2",
"fX c #FDB4D3",
"gX c #FDBBD6",
"hX c #FCBDD9",
"jX c #F6B8D6",
"kX c #EFAFCD",
"lX c #EBB8E0",
"zX c #D3D2D0",
"xX c #FCC3DB",
"cX c #FBCADD",
"vX c #F7C4DA",
"bX c #EFD1D5",
"nX c #F4EED8",
"mX c #FCCCE2",
"MX c #FAC8E2",
"NX c #FBD3E4",
"BX c #FCDBE5",
"VX c #FBDCEA",
"CX c #F6D7E7",
"ZX c #F4DBEC",
"AX c #E9E9E6",
"SX c #FBE4EC",
"DX c #FDEAEC",
"FX c #F5E6EB",
"GX c #FBECF3",
"HX c #F8E8F2",
"JX c #FBF3F5",
"KX c #FDFEFC",
"LX c #FBF7F7",
"PX c #F2F3EB",
"IX c #DDE6DF",
"UX c #BDCDC4",
/* pixels */
"o o . . o o . . . o . . . . . . . . . . o o . . . . . . . . . . . . . . . . . @ . o o o o o . . o o o o . . o o o o . . . . o o o o o o o o o o o o o o . . . . o o . . o o o o . . . . . . . . . . . . . . . . . . . . . . o o . . o o o o . . . . o o . . o o ",
"o o . . o o . . . @ . . . . . . . . . . o o . . . . . . . . . . . . . . . . . . o o o o o @ . . o o . @ . . o o o o . . . o o o o o o o o o o o o o o o . . . . o o . . o o o o . . . . . . . . . . . . . . . . . . @ . . . o . . . o o o o . . . . . @ . . o o ",
"o o . . o . . . . . . . . . . . . . . . . . . . . . . . . . . . . . . . . . . . . . . . . . . . . . . . . . . . . . . . . . . . . . . . . . . . . o . . . . . . . . . . . . . . . . . . . . . . . . . . . . . . . . . . . . . . . . . . . . . . . . . . o o o o ",
"o o . . . . . . . . . . . . . . . . . . . . . . . . . . . . . @ . . . . . . . . . . . . . . . . . . . . . . . . . . . . . . . . . . . . . . . . . . . . . . . . . . . . . . . . . . . . . . . . . . . . . . . . . . . . . . . . . . . . . . . . . . . . o o o o ",
"o o . . . . . . . . . . . . . . . . . . . . o o . . . . . o o o o o . . . . . . . . . . . . . . . . . . . . o o . . . . o o . . . . . . @ . o o . . . . . . . . @ . . . . . . . . . o o . . . . . . . . . . . . o o . . . . . . . . . . . . . . . . . . . . o o ",
"o o . . . . . . . . . . . . . . . . . . . . o . . . . . o o o o o o . . . . . @ . . . . . . . . . . . . . . o o . . . . o o . . . . . . o o o o @ . . . . . . o . @ . . . . . . . . o @ . . . . . . . . . . . @ o o . . . . . . . . . . . @ . . . . . . . . o o ",
"o o . . . . . . . . . . . . . . . . . . . . . . . . . . . . o o o o . . . . . . . . . . . . . . . . . . o o . . o . . . . . . . . . . . o o o o . o . . . . . . . . . . . . . . . . . . . . . . . . . . . . . @ o o . . . . . . . . . . . o . . . . . . o o o o ",
"o o . . . . . . . . . . . . . . . @ . . . . . . . . . . . . o o o . . . . . . . . . . . . . . . . . . . o o . . . . . . . . . . . o . . o o o o o o . . . . . . . . . . . . . . . . . . . . . . . . . . . . o . o o . . . . . . . . . . o o . . . . . o o o o o ",
"o o o . . . . o . . . . . . @ . . . . . . . . . . . . . . . . . . . . . . . . . . . . . . . . . . . @ . o o . . . . . . o o . . . . . . . . . . . . o o o o o . . . . . . . . . . . . . . . . . . . . . . . @ o . . . . . . . . . . . . . . . . . . . . . o o o ",
"o o . . . . . . . . . . . . . . . . . . . . . . . . . . @ . . . . . . . . . . . . . . . . . . . o . o o o o . . . o . . o o . . . . . . @ . @ . . . .   .   . . . . . . . . . . . . . . . . o @ . . . . . . . o . . . . @ . . . . . . . . . . . . . . . . . o o ",
". . . . . . . . . . . . . . . . . . . . . . . . . . . . o o . o o o . . . . . . @ . . . . . . . o o o o o o o o . . . . o o . . . . . . . . .   o o . % ; * * . . . . . . . . . . . . . . . . . . . . . . . . . . . . . . @ . . . . . . . . . . . . . . . . o o ",
". . . . . . . . . . . . . . . . . . . . . . . . . . . . o o o o o o . . . . . . o o o . . . . . o o o o o o o o . . . . o o . . . . @ . .   # - o . & uXBXbXuX- # @ .   . . . . . . . . . . . . . . . . . . . . . . . . . . . . . @ . . . . . . . . . . . . o o ",
". . . . @ o . . @ . . . . . . . . . . . . . . . . . . . o o . . . . o o . . . . o o o o o o . . . . o o o o o o . . o o o o o o . .     # 8 zX4XJ 8 5XBXBXSXcX4XUX    - * .   o . . . . . . . . . . . . . . . . . . . . . . . . . . . . . . . . . . . . . . @ o ",
". . . . o o . . o o . . . . . . . . . . . . . . . . . . o o . . . . o o . . . . o o o o o o . . . . o o o o o o . o o o o o o o . . U & >XxXrX2X*X3XhXBXBXnXxX1XAX,X0 zXAX0 & . . @ . . . . . . . . . . . . . . . . . . . . . . . . . . . . . . . . . . . . o o ",
". . . . o o o o o o . . . . . . . . . . . . . . . . . . . . . . o o o . . . . . o o . . o o o o . . o o o o o o o o o o o o o . % 0 FXkXhXcX2X1X1XeXfXBXBXSXcX@XeXVXkXJXKXPXzX0 . . @ . . . . . . . . . . . . . . . . . . . . . . . . . . . . . . . . . o o o o ",
". . . . . o o o o o . . . . . . . . . . . . . . . @ . . . . . . o o . . . . . . o o . . o o o o o . o o o o o o o o o o o o @ @ ,XDXFXcXhXvXgX1X*XsXfXNXBXBXxX@X@X=XgXxXJXKXJXPXq   o . . . . . . . . @ . . . . . . . . . . . . . . . . . . . . . . . . o o o o ",
". . . . . . . . o o o o . . . . . . @ . o o . . . . o o o o . . . . . . . . . . o o . . . o . .   . o . . . o o o o o o .   - zXJXDXDXgXxXcXgX2XiXsXxXBXBXBX2X=X2X&XgXxXJXFX3XDXLXJ   @ . . . . o o .     @ o o . . . . . . . . . . . . . . . . . . . . o o o o ",
". @ . . . . . . o o o o . . . . . . . @ o o . . . . o o o o . . . o . . . o . . o o . . . . . o & @ . @ . . o o o o o o @ & 5XDXDXDXDXgXBXcXfX2XcXfXNXBXNXNX1X2XsX@X2XgXcXcX@XaXKXPX0   @ @ . . o   . - -     o . @ o . . . . . . . . . . . . . . . . . o o o o ",
". o . . . . . . o o o o . . . . . . . . o o . . . . o o . . o o o o o o o o o o . . o o . . o . 6X;   . o o o o o o o o   5XDXDXDXDXDXxXBXcXfXpXxXxXcXNXBXpX@XhX2X@X1XfXxXsX%X&XCXKXAX8   . - . o - J =X;X0 8 X .   . . . . . . . . . . o o . . . . . . o o o o ",
"o o . . . . . o o o o . . . . . . . . . o @ . . . . o o . . o o o o o o o o o o . . o o . o   J AX-   o o o o o o o o & Y AXDXDXDXDXBXcXDXgXgXxXcXCXDXCXDXcXvXsX@X%X1XgXxXrX%X&X1XSXKX8 @ q $Xw q 3X=X*X3XGXzX  $ U # . . . . . . . . . . @ . . . . . . o o o o ",
"o o . . . . o o o o . . . . . . . . . . . . . . . . o o o o o o o o o o . . . . o o o o o @ 8 bXGX8 . . . o o o o o o 0 DXDXDXDXDXDXgXcXSXfXgXvXSXrXeX%X2XHXKXMXwX3X1XhXgX%X%X1X*XqXZX0 L.wX*X*X%X1X*X*XOXOXLX,XJ KX;   . . . . . . . . @ . o o . . . . o o o o ",
"o o . . . . o o o o . . . . @ . . . . . . . . . . o o o o o o o o o o o . . . . o o o o   - 4XLXgXaX;   @ . o o o o & <XBXDXDXDXDXSXxXSXvXfXxXBX1X%X~.S.~./.CXGXKXKXLXKXNX=X&X&X*XoX*X=X1X*X*X*X*X*X*X*XOXoXSXKXPXPX;   @ o . . . . . . o o o o . . . . o o o o ",
"o o . . . . o o o o o o . . o o . . . . . . . . o o o o o o o o o o o o . . . . o o o & -.w aXNX=XpXq   @ . . . . . L.BXDXDXDXDXDXcXfXJXxXjXpX2X[.!.D.A.D.D.D.~.=X3X=XaXKXJXSX1X&X].oX1X*X&X*X*X*X*X*X*XOXoXZXKXKXPX; . o o . . . . . . . . . . o o . . . o o o ",
"o o . . . . o o o o o o . . o o . . . . . . . . o o o o o o o o o o o o . . . o o o . @ -X$XPX4X@XfXtX8   @ . . . & 4XBXDXSXcXSXDXDXSXgXaXJXLXtXS.A.A.A.S.A.A.S.A.A.A.G.tXNXdXCX3X].!.1X&X*X*X*X*X*X*X&XOXoX3XJXKXPX;   @ . . . . . . . . . . . o o . . . . o o ",
"o o . . . . . o o o o o p # . o o o . . . . . . . . o o o o o o o o . . . . o o @ . . & ;XqXBX@X@XfXhX9X; . . @   U.BXBXDXcXfXDXDXvXpX2XmXKXtX/.F.A.A.B.B.&.%.&.S.S.S.A.D.^.^.3XaX].F.+X*X*X#X*X*X*X%XF.#XoX#XGXKXPX8   . & .   . . . . . . . . . . . . . . . o ",
"o o . . . . . . o o o o X p f o o o . . . . . . . . o o o o o o o o . . . . o o . . . @ ;XrXaX[.@XfXjX$XL.- . @ . I.DXDXSX2XDXDX2X@X2XDXKXKXCXG.A.A.%.$.$.$.$.&.S.A.D.].D.S.].[.+X[.A.D.*X*X~.}.wX*X#XS.oX#X&XLXKXJX X- 0 zX0 @ @ . . . . . . . . . . . . . o o ",
"o o o o . . . . . . o o o o h f o . @ o . . . . o o o o . . . o o o . . . . o o @ . . & .XLXkX[.%XfX4X).|.L.-   } 4XSXvX&XxXDX&X%XpXCXKXHX-XD.A.A.%.$.$.#.@.#.G.Z.{.MXNXrXB.D.oXoX{.A.F.#X*XD.].*X*XD.A.D.oX%XGXGXeXwXbXAXKXPXzX*   . . . . o o . . . . o o o o ",
"o o o o . . . . . . o o o o O j f >   o . . . o o o o o . . . . o o o o . . o o o o . @ .XKXtX!.oX=X).).)._.& 8 '.wXjX2X3XBX=X@XiXjXJXQ.(.MX+XB.%.$.$.$.$.G.jXKXJXLX3XS.kXkXA.].OX].A.B.D.#XF.}.*X#XS.A.S.oX+X%XwX*X*XiXKXKXKXPX;   . . . @ o o . . . @ o o o o ",
"o o o o . . o o o o . o o o X b h e 7 O . . . . . . . . o o . . o o o o . . o o o @ . @ ;XKXeXB.!.Y.)._.)._.L.-.OXeXpX#XhX2X].+XOXiXaX@.V.KXSX*.$.$.$.%.O.kXCXtXjXKXZXS.V.tXpXS.oX~.A.B.D.[.A.].*X}.A.A.A.[.oX[.&X*X*X&XtXLXKXAX@ . . . . . . . . . . . o o o o ",
"o o o o . . o o o o . . o . o > h s 1.>   o . . o . . o o o . . o o o o . . o o o o @ @ .XKXtX&.V.C.`.n..X).{.^.XXfX1X{.+X(.=XrXpXmXCXtXkXKXKX{.$.$.%.O.Z.vX*.+.#.XX}.~.wXQ.pX&.[.].A.A.D.].B.}.%XD.A.A.S.{.oXoX*X*X*X&XqXLXKXKXY   @ . . . . . . . . . o o o o ",
"o o . . . . o o . . . . o o o o b v i f p X . o o o o o o o o o o o o o o o o o . . . @ ;XKXtXV.X.H.C.) Y.|.}./.OXeX{.Q./.eXpXsXgXxXKXKXKXKXHX(.$.#.+.XXKX3X+.%.$.&.B.{.nX7XbXS.!.[.A.B.A.A.A.~.~.B.A.A.].oX[.oX*X&X*X*X1XdXPXKX,X  @ . . . . . . . . o o o o o ",
"o o . o . . o o . . . . o o o   > v y s g > X . o o o o o o o o . . . o . o . . @ @ @ @ .XKXtXV. .H.n.' _ C.].^.%X].F.OXiXjXeXqXrXgXDXGXKXKXXX@.+. .Z.bXKX'.O.$.%.S.A.oXbXR l.;XS.!.B.F.A.B.A.B.A.A.A.A.].oX[.[.!.!.%X*X*X3XPXKX,X  @ . . . . . . . . . o o o o ",
"o o o o o o . . . . . . . . @ . $ g g t d j > 7 $ X o o o o @ o @ @ & @ @ @ & X o o X @ ).PXtXA.o.` H.' Q C.].].D.G.#XiXcXqX[.%XrXhXMXfXSXDX=X{.Z.o.LXFXZ.#.$.$.B.F.B.{.nXR i.gXV.=XsXnX4XA.B.A.V.B.A.A.D.!.!.S.G.D./.1X%XqXKXHX8   o o . . . . . . . . @ o o o ",
"o o o o o o . . o . . . . . o . % h g i e v h g % o o o o @ o @ U.<XI. X X>XI.8 @ @ o   - 4X3XA.X.` Q N.' }.].A.G.%XdXhX&XoXeXfXvXDXLXgXiXrXvXKX-XE.KXG.+.#.cXkX~.A.B.}.nXi.R bX}.CXF.i.nX}.&.B.V.B.%.B.B.&.&.F.jX+X^.1X&X2XLXPX*   o o . . . . . . . . . o o o ",
"o o o o . . . . o o . . . . o o . $ h v y y h g f o o o .   & U.9X9X9X9X0X0X0X XI.<XJ X & I..XX.X.' Q Q ' ].S.B.+X2XrXOX@XrXfXcXJXKXKXcXiXxXJXKXl.7X3X$.=.k.:.(.bXrXB.~.7Xi.i.bXXXV.@.R 7X!.%.B.V.V.B.&.B.B.A.~.4XFX=X#X%X*XtXPX;   @ . . . . . . . . . o o o o ",
"o o o o . . . . o o . . . . o o o $ v g f , s g f $ o & ; 8 <X9X X|.8X9X0X0X8X8X0X0X8X8XU.8  X ...' ` Q C.D.V.S.{.{.].#XiXfXgXJXKXLXKXxXcXLXKXPXj.5X=.k.R j.i.| +.l.+XV.V.T j.=.$.$.%.=.nX'.V.&.hXD.V.B.$.%.S.!.S.tXGX/.].&XeXHX;   o o . @ . . . . @ . o o o o ",
"o o o o o . . . . . o o . . o o o $ h 1.h t u h v b   * kXjXdX8X9X).Y..X8X9X Xm.K.K.|.8X<XI.0XH.X.' Q Q F.V.A.S.!.!.oXeXsXgXBXKXLXLXKXLXKXKXFX=.i.nXi.T T l.7X5XV.=.o.:.i.o.:.O.#.$.$.%.HX7X5XV.$XZX%.#.&XD.%.F.~.D.xXvX].].eXAX;   @ . . .     o . . . o o o o ",
"o o o o o . . . . . o o . o o o o % v h v s , f h d Y ;.BXBXgX<X<X0X).m.m.|.0X|.m.m.M.n.K. XuX.X . .Q W Z.V.A.D.!.{.%XiXxXcXLXKXKXLXLXJXKXPXaX4XR 7XT T *.=.R 7X;X| i.j.R =.:.| :.*.&.%.wXi.i.7XG.vXQ.#.CXNX-X&.A.~.!.NX!.].eXFX;   . # - - - *   . . o o o o o ",
"o o o o o o o o o o o o . . o o o o u h g h 3 e d w.CXGXcXCXBX9X8X8X:X|.m.v.m.P.C.|.uXK.M.M.8X X .' Q F X.V.A.~./.OX&XfXgXhXxXDXKXLXLXvXKX3XD.@XR T R j.=.k.i.R j.:.:.R =.i.i.| i.aXKX(.V.HXR l.-XNX$XvXaXKXKXZ.$.S.~.NXeX!.qXAX& - - J 1X$X3X-X8 . @ o o o o o ",
"o o o o o o o o o o o o . . o o o o > v v v y , b AXvXFXKXjX2X$X.X.X).|.).m.v.v.M..XLXv.M.M.K.uX_.` G G #.%.S.!.OXOX%XgXgXfXNXDXLXKXLXKXvX+.@.| R T j.;X*XfXhXjXbXKX;Xi.j.R R j.| Z.KXLXNX:.T j.3XKX(.4XKXJXKXZX#.&.F.(.ZX{.rX,X- $X3X=X1X1X1X2X@X-   o o o o o ",
"o o o o o o . @ o o . . . . o o o o > v v v d : 6XKXcXgXcXHXxX*X).`.T.C.m.m.v.v.M.$XHX) v.n.b.I.`.` D F #.V.D.^.OXOX*XfXgXgXmXhXJXLXKXKXQ.O.&.O.| R 5XqXiX1XiXCXKXKXLX:...=.j.i.| (.LXKXKX;XT j.~.MXZXZ.HXKXKXCXXXMX&.~.FXSXjXkX@XwXwX*X1X*X1XOXoXW.- . . . . . ",
"o o o o o . . . o o . . . . o o o o > 1.d v h : ,XKXJXcXhXfXNXtXXXY.K.T.Y.M.v.v.T.3XFX) ` M.c.] -X` D G #.B.D.[.#X@XsXhXgXhXsXrXpXSXKX/.+./.3X}.:.4X1X1XOXrXmXKXKXKXKXk.R R T T ;XKXKXVXLXKX:.:.F.].-XlXkXLXKXLXJXLXG.A.GXLXjXjX*X*X%X*X*X1X*XOX^.@XU   @ . @ . ",
"o o . . o o . . . o o o . . . . o o 6 v v v d 3 c IXKXKXJXNXsXsX@XR.n.m.m.Y.M.v.C.wXHX' ` ' c.W <Xv.D F #.B.~.oXOX#XfXhXsX1X&XsXDXKXKXZ.!.*XrXfXfXCXLX&XqXxXKXLXKXKXKXl.R T T 4XKXGXKXvXJXKXHX#.A.^.!.[.!.FXKXKXKXKX3X*.DXLXFXjX&X[.oXwX1X*X[.[.!.oX;.  @ . . o ",
"o o . . o o . . . . o o o . . . o o o % d v u 4 e zXKXKXMXaX=XeXwX_.T.M.v.M.M.c.`.$XuXv.` ` Q K P P.D G #.B.oXOXOXOX%X*XOX%XfXKXJXtXtX$X1X2XiXiXgXKXKXHXfXSXNXKXKXKXLX:.T T 4XfXSXjXKXfXBXKXSX*.$.&.^.~.!.DXKXLXKXKXLXG.ZXKXeXNX=XD.%X1X*X[.[.oXD./.NXq   . o o ",
"o o . . . . . . . . o o . . . . o o . O v v u 4 , I KXKXJXiXXX(._.R._.R.n.v.v.c.C.'.yXzXQ ` Q G A I.L D #.A.[.#XoXOX[.!.oXwXeXeXeX2XfXxXgXZXcXiXMXCXNXJXaXfXVXgXDXKXLX| T OXrXSXhXjXKXaXNXBXkX*.@.&.F.B.!.SXKXLXKXKXKXQ.BXKX3XSXjX~.[.oX[.[.[.].S.+XGXAX*   . @ ",
"o o . . . . . . . . o o . . . . o o   O s v u r 2 6 <XLXKXSXpX=XR.`.`.`.T.M.v.c.z.R.-XvXn.` ` ` Z x.z.D #.A.[.oXoXoXD.{.qX2X1X1X1XfXgXsXvXKXKXxXsXpXJXLXsXfXeXjXFXBXKX=.~.oXsXSXOXcXJX=XrXxXaX' ..$.$.$.~.HXKXLXLXKXLXQ.NXVX1XHXxX~.[.].[.].[.D.F.eXKXPX;   @ . ",
"o o . . . . . . . . o o o o . . o o o o O f u 4 r : ;.KXKXKXhXrX3X_.T.R.T.`.J.v.v.).'.lXLX) Q ` G B L.L X.B.].[.[.F.].qX1X2XwX1XrXgXgXfXBXKXKXKXxXfXJXLXtX@XwXdXwXcXKXFXF.OXiX1XoXBXDX@X3XgXpX` Q O.$.O.A.HXKXKXLXLXKX(.dX1XOXSXBX@X[.[.[.[.^.A.{.LXKXPX; . . . ",
"o o o . . . . . . o o o o o . . o o o o o % i r 3 , Y GXKXKXNXXXwXqX_.T.T.`.Y.J.M.`.'.-XZXc.` Q F A A F #.B.F.[.F.D.&XqX2X1X2X1XfXgXfXxXJXLXKXKXKXfXsXDX*X].G.A.!.tXcXxXyX#X2X[.@XpX2XOX1XfXfX9XW  .&.$.%.HXKXKXLXLXKXpX2XOXOXVXKXaX!.[.].[.S.S.+XGXKXPX*   . . ",
"o o o o . . o o o o o o o . . . . . o o o o + 2 r r : -.yXZXKX3XR._..XY.Y.C.m.z.v.R.'.'.tXJXv.` Q Z B F #.B.~.~.A.].*XqX&X*X1XrXfXfXfXcXKXLXKXLXKXLXSXhX~.B.].1X1X2XpXpXiX1XaX~.@X%X&XD.B.1XxXKXuXHXkX$.&.SXLXcXKXKXLXiXOXOX%XVXKXiX].[.[.^.A.^.].3XKXHX*   @ o ",
"o o o o . . o o o o o o . . . . . . o o o @ . < 4 r 2 1 U.8XuX9X_.T.C.Y.Y.M.z.v.c.b._.'.yXKXbX_ Q Z Z B ` &.D.A.D.].wX%XoXqX2XsX2XpXfXGXNXJXKXLXKXLXKXMXB./.*X3X1X1XiXiX1X1XfX4X@X%X1X*.Q.hXcXJXKXKXKX'.$.DXLXfXJXLXpX}.oXOXvXKXKXdXD.].[.A.S.[.{.!.kXPX*   @ o ",
"o o . . . . o o o o o o o o o o . o o o o o o o + 5 4 2 6 ).yX9X|.m.m.m.m.Y.m.z.~ ^ _.'.@XsXFX) Q D V B G *.A.%.~.].*X!.%X1XqX*X%XfXxXeXgXKXLXKXLXKXLXKX@X~.+X1X1X1X1X1X1X1X&XDXvXoX].=XSXKXLXKXNXVXKXSXG.bXxXfXVXvXeX~.oXOXSXKXHX].A.].A.B.^.^.!.*XGX0 . . . o ",
"o o . . . o o o o o o o o o o o . . o o o o o o . . $ 1 1 P XX8XuXK.N.M.v.^ z.z.~ K `.'.'.eXLXAX{ E D Z V o.B.%.~.].].~.1X&XoXOXOXsX2X3XLXKXKXKXKXLXLXKX@X&.!.OX1X1X1X1X1X1X%X@XtX$.G.KXKXLXKXKXNXDXKXKXGXHXfXfXfXsX~.S.[.tXJXKXSXD.S.A.&.D.^.^.@XzXzX&   o o o ",
"o o o o . . o o . . o o o o o o . o o o o o o o o o o o + % [ _.8XuXP.c.c./ F F F D K '.'.2XxXLXFXQ G A V G %.%.!.~.S.].wX{.OX%XoXOX@XxXLXNXxXDXJXcXKXKXKX(.G./.+X2X1X1X1X2XOX!.Z.*.fXJXKXKXKXKXcXcXKXKXKXKXNXgXfXfXD.S.=XiXiXJXHX!.B.%.S.D.~.{.FX0 . @ . . . o ",
"o o o o . . o o . . o o o o o o . o o o o o o o o o o o o . . L.'. X9X XK.N.^ F D Z F _.'.=XiXfXJXuX{ G B D ..%.D.S.A.#X*X!.qXoXoXoXeXxXgXfXfXcXjXFXKXDXKXHXdX/.^.oX1X1X1X/.!.D.*.2XgXJXKXLXKXJXpXhXGXBXKXKXLXgXfXfXF.#XiXiXxXKXSXF.%.A.D.S.{.VXAX;   . . . o o ",
"o o . o o o o o o o o . . . o o o o o o o o o o o o o o o o o & Y.'.).8X8XP.^ ^ K K D K E.'.1XsXKXKXPX! Z S ` %.A.A.A.#XoX~.%XoX[.%XvXgXfXgXgXfXNXJXvXBXKXKXKXCX!.!.@X1XoX~.&.%.qXfXsXcXDXNXKXGXpXxXSXvXKXKXLXhXtXG.{.iXiXjXLXKXjXV.B.S.S.D.VXIX;   @ . o o o o ",
"o o . . o o o o o o . . . . o o o o o o o o o o o o o o o o o X & - C.'._..X|.^ K G D F E.XXOX1XcXKXLX|.! B H ..B.B.S.oX~.D.[.oX[.rXKXxXgXfXfXgXNXfXhXNXhXVXKXKXaXS.^.*XD.&.#.+XhXfXpXgXVXxXKXhXrXrXgXcXKXKXcXgXtXA.iXrXfXKXKXxXeXA.S.B.jXGXLX0   @   . o o o o ",
"o o o o . . . o . . o o . . . . . . o . o o o o @ o o o X X     8 8 P.-X_._.-X`.L F D Z L (.@X@X%XcXKXKXx.B S ' %.%.S.D.A.~.oX[.OXGXLXKXvX1XgXgXsXgXSXfXfXcXxXSXkXZ.].!.&.A.rXsXsXgX3XaXVXcXJXfX1X2XfXmXKXLXfXfXeXZ.rXgXGXGXcXiXA.A.S.@XJXKXJ       8 O . . . o ",
"o o o o @ . o o . . o o . . . . . . . . o o o o X o X o @ J P U <X0X0X|.m.C._._.:Xc.F Z C L @X&XfXaXGXKXyXG V H ..%.V.S.S.~.oX].rXNXBXKX&XiXfX2X@X2X2X2XrXfXpXcXKX3XB.&.wXpXfXsXsXiXOXeXfXfXgXiX{.eXxXJXKXDX3XpXS.S.sXNXmXsXfXiXA.A.}.KXKXKXY U Y ;.zX*   @ o o ",
"o o . . . . . . . . . . o o . . . . o o @ X X X & & @ 0 I.9XyX0X0XP.c.z.K K z.`.(.'.R.L F H XX@XdXLXKXKXkXo.E V B  .%.B.S.~.[.[.2XaXGXrX&X3X+X{.oX1X2X2X2XgXsX2XfX/.@.{.hXpXfXpXfX@X!.eXiXxXiXoX^.pXvXKXKXtXoXeXA.iXfXpXiXsXsXeXS.F.SXKXKXxXmXcXmXVX;.  @ . . . ",
"o o . . . . . . . . . . o . . . . . o o @ @ X ;.8X>XI. X9X|.P.P.K.M.x.z.z.~ K K K T._._.E.! [ 1X*XxXKXKXJXo...' H F #.%.B.D.[.[.oXsXNX}.E.'.[.+XOX2X2X2XeXgXgXfXiXQ.G.fXfXfXaXrXOXoX!.oXpXsX*X!.OXrXDXLXcX].eXG.A.pXiXiXfXhXiXG.B.wXKXKXGXfX2X3XgX<X# & . . . . ",
"o o . . . . . . . . . . . @ . . o o o o @   Y 9X0X0X0X0X|.K.n.m.m.b.z.z.L z.z.K B F F D J.W.J.b.1X2XFXKXKXkX..X...D H $.%.S.!.].[.iX3XC.E.+XoXoXwX2XeX2XrXfXfXgXfXiXgXsXfXLX3X=XoX^.~.].fX1X~.!.{.tXGXqX3XS.{.B.tXsXmXVXJXLXKXHX-XNXKXJXpX2X@X3XfXjXkX5X& . . . ",
"o o o . . . . . . . . . . . . . o o o o o   x.9X8X0X8X8X8X X Xm.b.b.z./ / / L F Z Z Z V V V A C [ qXtXDXKXKXXX..+. .G E #.B.D.^.^.oXQ.R.(.'.[.oX2XqX2XqX2XgXfXfXfXgXgXwXNXKXJXZX/.D.D.1XeX~.~.~.%XfX%XqX~.%.A.S.MXLXKXLXNXKXKXeX3XKXKXiX&XoX1XfXgXhXLXzX*   . . ",
"o o o o . . . . . . . . . . . . . . . o o o & U. X|.P.m.K.P.K.n.c.z./ z.z.K K D D D Z Z V B B B A [ rXpXFXKXCXo...#. .V G  .A.~.!.G.(.C.'.'.oXoXqXqX2X2XeXfXgXfXfXgXsX1XGXKXKXKXaX~.^.#X].D.D.].&X!.!.!.%.$.Z.HXKXKXGXfXFXKXtX@XGXKXaX[./.oXiXgXgXKXPX8   o . . ",
"o o o o . . . . . . . . . . . . . . . . o o   -.P.P.).P.K.m.M.v.z.z.z./ L F A Z D Z Z Z Z Z Z Z D C { 4XiXVXHX9Xo..... .E D #.A.Z.G.'.C.E./.[.oX%XqX2X2XeXfXsXfXfXhXtXaXKXKXvXJXLXJXGX{.S.~.~.^.!.A.B.$.%.yXLXKXmXhXfXcXKX4X+XGXKXiX!.!.&XeX2XhXKXFX0 . . . . @ ",
"o o o o o o . . o o o o . . . o o o o o o o o & I.9XI.P.M.z.z.z.z.z.z.K K K K Z Z F F ~ ( / ~ W K Z S F L.3XyXlXyX). .....E D o.V.Q.(.C.Q.'.oX^.oX2XeX2X2XrX2XfXfXfXeXmXKXsXiXKXKXKXKXGXOXD.S.A.$.$.&.3XJXKXKXvXfXfXgXGX2X+XcXKXjX].!.^.oX3XVXJXKX,X  . . . . o ",
"o o o o o o . . o o o o . . . o o o o o o o o X J 8XP.M.M.v.c.c.z.z.z.z.z.~ F Z L I.M.c.] ^ ~ W W Z A A S K ( L.uXlX4XC.X.*.W Z ' Q.'.C.R./.^.oXoX2XqXqX1X/.2XfXfXfXiXGXfX2XxXGXKXKXKXKXJXQ.$.$.G.@XFXjXSXGXrXfXiXeXNX3X^.kXKX4X!./.].=XfXjXKXJX<X@ . . . @ o o ",
"o o o o o o o o . . o o o o o o o o o o o o @ o X U.8X0X|.m.Y.m.v.v.z.z.z.K K z. XM.( ] ~ ~ W W ~ K K D Z Z A B / [ 0XuX8X XyXU.G G.'.Q.C.(.[.[.^.%X2XeX*X!.rXfXpXsXfXtX2XjXfXcXKXLXNXcXDXKX(.G.jXgX=X2XdXOXrXiXOXoX+XoXMXCX=X+X+X3XGXKXKXKXAXq & # . . o o o o ",
"o o o o o o o o . . o o o o o o o o o o o o o o O X J 9X0X XY.m.K.m.m.v.v.z.P. XP.z.c.( ] ( W W ~ K K K F D Z D V B A F H F A A W A.G.(.Z.Q.{.[.^.oX2X2X{.!.rXgXVXgXNX2XpXrXsXNXKXcXsXpXNXSXgXJXSX!.%X&X^.eXiXoX!.!.eXsXdX+XOXCXJXJXKXKXKXPX0   . . . . o o o o ",
"o o o o o o o o o . . . o o o o @ . . . . O O O 9 9 n >X8X0X X).m.Y.m.Y.m.P.8Xm.z.z.z.z.( ( / ^ ~ ^ ^ ^ K F Z D D D V B B B B S E Z.A.Q.Z.C.}.{.].[.qXOX~.!.rXhXKXFXHXiX3X2XgXcXxXpXfXgXfXsXgXLXJXaX^.~.oX%XF.B.{.tXXXG.eXhXgXvXcXcXNXcX>X0 . . @ . . . o o o o ",
"o o o o o o o o . . . . o o o o . o o + + 4 z z z z l l 9 >X9X X|. X).m.P.0XP.M.b.b.v.z.( ( / / / / / ^ L K L F Z D D G K Z B Z V ' &.S.Q.Z.G.~.~.~.oX].~.!.eXcXBXdXmX@X^.2XgXgXiX1XfXgXgXfXgXvXBXHX~.D.~.B.A.}.H.Z.G.aXxXgXxXcXxXxXxX-.  . . . . . . . o o o o ",
"o o o o . . . o . . . . o o o o + 9 z l l l z 4 4 4 1 < : n ,X>X>X>X9X X X0XP.Y.m.m.v.z.( ( / / ^ ~ ^ ^ ^ / ~ K K K L K D Z A A B F o.&.F.V.V.G.D.~.[.].~.~.%XMX1XrX3X!.OXpXfX2X@XsXfXaX2X2XfXpXgXsXB.&.' Q ^ } (.tXmXgXxXxX5X>X<X<X0   . . . . . . . . . . o o ",
"o o . . . . . . . . . . o o + + 9 z l z r 4 2 < < < 5 z 4 l 9 l z c Y 0X0X0X XP.K.v.z.z.c.c.( / z.z.^ / ^ ^ ^ ~ ~ ~ K D Z Z Z A V B A ' V.V.*.*.A.F.].!.~.D.*X@XoXeX^.!.rXfX@X+XrXtXOX^.oX1X@XsXkX/ E F V L I.kXmXMXgXxX,X;.J J ; .   . . . . . . . . . . . o o ",
"o o . . . . o o o o . . . = l l l l 2 2 2 < 4 r r z z z z 9 9 4 x 1 X I.0X).K.Y.K.M.c.v.v.v.c.c.z.z.^ ^ ^ ^ ^ ~ ~ ~ K L K Z A A D D B Z  .#.V.$.%.S.S.S.~.~.oX~.[.{.!.OXrX%X^.oXOXoX^.[.oXoXOX4X[ C [ x.L.eXqX2X&X%X&X*XyX<X4XNX,X  . . . . . . . . . . . . o o ",
"o o . . o . o o o o o . O l z 4 < < 2 2 r l l z z r 9 4 9 O o o X & 8 >X8XJ.Y.K.n.v.M.n.m.m.J.m.v.^ ^ ~ ^ ^ ~ ~ ~ ~ ~ K F D D K ~ K Z Z V F ..#.%.#.%.%.&.S.D.!.!.!.^.&X[.^.[.{.^.^.^.^.^.oX(.L V B / *.D.D.D.D.~.~.!.^.[.[.^.vXvX;.. + . . . . . . . . . . o o ",
"o o . . o o o o o .   9 l r 4 2 < 9 z z z z l 5 5 = . . o o o @   P 0X0X XJ.Y.Y.J.J.Y.Y.Y.J.n.z.z.z.^ z.z.~ ^ ~ ^ ~ K K K K K z.~ K K D V V B ! { $.$.$.$.%.%.&.&.B.D.S.S.F.F.!.@X=X=X3X1X{ H G ` ` ` ..#.B.A.A.A.A.~.!.F.~.jXNXiXfXI.. . . . . . . . . . . . . ",
"o o . . o o o o @ X 5 z r < < r z l l l 4 4 1 . . . . . . . o o   U 9X8X).Y.Y.J.Y.J.J.J.J.b.] z.z.z.z.v.^ ~ z.~ ~ ^ ~ ~ L z.~ L ~ L K D D D S x.n H  .+.#.#.#.O.#.O.O./.{.{.!.wXSXmXNXcXBX<X{ G Q #.%.&.&.B.B.B.B.%.$.B.~.=XNXNXVX;.- . @ . . . . . . . . . . . ",
"o o o o o o . . $ 1 l 5 < 4 z z 9 + 1 1 o . . . o . . . . . o @   P 0X8XY.J.Y.J.J.J.Y.m.M.v.M.m.b.v.v.v.v.z.L z.^ ~ ~ ~ ~ ~ ~ ~ ~ ~ K K F Z K I.n , U b.C B V F L <X4XFXKXKXJXfXpXpXpXiXiXgXgXkX<X#.O.O.$.$.O.O.&.V.(.aXtX1X@XrXMX;.; & . . . . . . . . . . o o ",
"o o o o o o . + 9 z 2 2 z l 9 4 + . . . o . . . . . . . . o o @   U 9X8X X XY.Y.Y.Y.Y.J.m.Y.m.Y.M.b.M.v.N.z.z.z.~ ~ ^ ~ ~ ~ ~ ~ L ~ ~ ~ D D P.>Xc 3 4 U R.|.P. X8X-X$XXX=X-X@X2XpXpXpXpXfXaXiXcXKXCXXXXX*.$.G.-XCXgXtX1X@X2XsXfXhXMXxXq @ . . . . . . . . . o o ",
"o o o o . . . O 4 5 9 z r = . o o o o o . . o o . . . . . . o @   J 9X8X0XT.Y.Y.Y.Y.Y.Y.Y.Y.m.Y.K.m.m.v.v.b.z.z.z.z.~ ~ ^ ~ ~ ~ W W ^ K F z. Xc 2 4 2 6 U '.XX'.E.'.'.'.'.@XrXpXpXpXpX2X%X@XiXmXKXKXKXKXVXCXLXKXiX%X%X%XOXtXhXxXFXKXKXAX6X@ . . @ o . . . . o o ",
"o o o o . . = 4 2 r z =   o . . . . o o . . o o o . . . . . o o o *  X0X.X|.).m.Y.m.Y.Y.J.J.Y.Y.m.m.m.m.K.m.v.z.z.z.z.z.z.~ ~ ~ ^ ^ z.K ) P.>X4 3 r < 3 r n T._.'._._.XXXX3XrXiXiX-XOX+X+XiXcXJXmXvXLXKXNXxXiX2X&X%X*XrXrX1XqXfXvXbXuXq * . . . o o . . . . o o ",
"o o o o o + 9 9 4 5 + o . o o o . . . . . . . . . . . . . . o o o @ I.8X8X:XT.`..X-X-XT.T.`.K.J.m.m.Y.`.W.b.M.c.c.c.c.c.z.L z.z.z.z.z.z. X>Xc 9 3 4 2 4 r : @ L.E.E.(.'.'.'.oXXX+X+XXX+X2XsXgXfXpXVXNXpXiX$X'.;XXX=XHXGXHXxXgXfXhXaX8     . . . . . . . . . . . ",
"o o o o + 5 l $ o X . . . . o o . . . . . . . . . . . . . . o o o o - >X9X<X4XiXiXiXiXwXXX`.Y.m.Y.W.`.W.n.m.m.v.v.v.c.z.z.v.v.b.v.M.v.|. X;.5 9 4 2 2 r 5 o o @ - L.R.W.W.W.E.'.XX{.+XXX-XXX3XrXrXeXqX&X'.'.'.@XdXfXhXMXKXKXKXBXmXMXjXq . . . . . . . . . . . . ",
"o o o o = O . . o . . . o o . . @ . . . . . . . . . . . . . . @ o X @ <XCXcXxXxXhXhXfXeXwX_.`._.`.`.W.m.m.J.m.m.m.m.M.M.n.M.M.M.M.M.P.9X>X2 1 5 r 2 4 z 5 o o o . @ & & & @ - L.R.W.R.'.'.XX'.R.E.E.R.;X;X4XpXkXkXbXFXnXIXAXIXIXPXNXvX5X0   @ . . . . . . . . . ",
"o o o o . o . . o . . . o o . . . . . . . . . . . . . . . . . @ o o & U.CXJXgXgXhXgXeXqXrXhXhX$XR.R.Y.Y.W.`.Y.m.m.m.m.m.Y.m.m.v.m. X9X8XU.4 2 5 4 < l 5 = o o o . . . . . . @ @ & & - L.E.E.L.- & & & p u.u.u.g.g.g.g.f.2.h s s q.g.h.p # + . . . . . . . . . . ",
"o o . . . o . . o o . . . . . . . . . . . . . . . . . . . . . . o o o o I.cXjXVXhXsXfXSXJXNXgX3X'._.)._._.`.R.R.`.`.C.Y.`.m.m.K. X8XKXY   5 2 3 2 2 z =   . o o . . @ . . . . . . .   @ & & & .   . .       + q.r.r.s.g.s.s.a.r.k a 4.s.y.. . . o o o o . . @ . ",
"o o . . . . . . o o . . . . . . . . . . . . . . . . . . . . . . o o o o ; <XKXLXMXGXKXNXfXfXgXfXiXeXeXeX-XT.`.T..X).`.`.m.m.).8XFXKXzX@ X 2 2 2 5 r l = . o o o . . . . . . . . @ @ .   .   . @ . . . . @ . . @ @ # 5.y.y.r.r.r.f.f.4.2.r.5.% . o o o o . . . @ ",
"o o o . . . . . . . . . . . . . . . . . . . . . . . . . . . . . o o @ o   c 6XJXKXLXgX*XfXhXgXhXpX2XeX*XR.R._.=X*X_.`.Y.`.:XZXLXKXAXc o O 2 3 3 3 r O . . . o o . o . . . . . @ . . . . . . . . . . . . . . . . . . . . . . @ % 5.5.g.a.a.h.r.%   . o o o o . o ",
"o o . . . . . . . . . . . . . . . . . . . . . . . . . . . . . . o o o o # 3 r IXKXsX-XsXxXgXhXiX2XwX2XeXaXwX2XrXqX%X'.uXMXHXKXKXI n 9 o @ 2 3 2 4 l O . . . o o o o . . . . o . . . . . . . . . . . . . . . . . . . . . . . . . o   N 7 * 5.h.m N O . o o o o o ",
". . . . . . . . . . . . . . . . . . . . . . o . . . . . . . o o o o . O 5 l r I ,X-.yXxXgXgXrX1X2XrXcXSXxX2X2X2XtXtXjXKXKXUX6X6Xx z z O O 1 2 t 5.% o o . . o o o o o o . . . @ . . . . o o . . . @ . . . . . . . . . . . . . . . . X   . . m q.5.% @ @ . o o o ",
"o @ . . . . . . . . . . . . . . . . . . . . o @ . . . . . . o o o o o . 9 z r : : n kXkXxXpX2XrXSXSXmXgX2X2XpXgXmXKXKXPXzX3 $ 3 x z 9 o O 2 2 i r.% . o . . o o o o o o . . . . . . . . o . . . @ . . . . . . . . . . . . . . . . . @ . . o o   @ 5.% . . o o o ",
"o o . . . . . . . . . . . . . . . . . . . . . . . . . . o o o o o o X 1 l l 2 2 l x c I xXgXsXCXcXgXjXaX2XNXKXKXKXIXzXI z 3 4 l r z l = o 2 < i r.# . . o o o o o o o o . . o o . . . . @ . . . . o . . . . . . . . o . . . . . . . . . . . o @ @ # # N # o o o ",
"o o . . . . . . . . . . . . . o . . . . . . . . . . . o o o o o o o o l l 9 : 4 l r 4 9 q U KXNXfXdXFXPXLXLXAXJ 0 9 x r r : 4 l l 4 < 5 = < 2 i t.% . . o o o o o o o o . . o o . . . . . . . . . o . . . . . . . . o @ . . . . . . . . . . o o @ o . 7 . o o o ",
". . . . . . @ . . . . . . . . . . . . . . . . . . . . . . . o o o o X 9 z 2 5 l l z l O   ; zXzXSXDXKXLXzX0 *     $ l l 3 2 r l l $ = r 3 2 4 i t.% . . . o o o o o o o . . . . . . . . . . . . . . . . . . @ . . . . . . . . . . . . . . . . . . . . . . . . . ",
". . . . . . . . . . . . . . . . . . . . . . @ . . . . . . o o o o o . l z < 4 l l 9 $ . . o .   Y ,X,XU.  .   @ @ @ r l 2 2 l r 4 + 1 2 2 3 3 u t.# . . . o o o o o o o . . . . . . . . . . . . . . . . . . o o . . . . . . . . . . . . . . . . . . . . . . o o ",
"o o . . . . . . . . . . . . . . . . . . . o . . . . o o o o o o o o 5 l 4 < l l l = . . . . . .         @ @ o o . O l 4 2 r r t o $ 4 + $ 3 4 i t.% . . o o o o o o o o o . . . . . o . . . . . . . o o . . . . . . . . . . . . . . . . . . . . . . . . o o o o ",
"o o . . . . . . . . . . . . . . . . . . o o . . . . o o o o o o o @ 5 l 2 5 l z 5 o . . . . . . o @ o @ o . o o . X r 3 3 y k 9.% < < . : 3 e d p.# . . o o o o o o o o . . . . . . o o . . . . . . o o . . . . . . . . . . . . . . . . . . . . . . . . o o o o ",
"o o . . . . . . . . . . . . . . . . @ . . . . . . . . . . . o o o o X 9 5 4 z l + . . . . . . . . . o o o o o o $ 1 r 2 s d 3.m 1 2 o . : t k ,.5.# o o o o o o o o . . o o . . . . . . . . . . . . . . . . . o . . . . . . . . . . . . . . . . @ . . . o o o o ",
"o o o . . . . . . . . . . . . . . . o o . . . . . . . . . . o o o o + l 5 r 9 $ o . . . . o . . . . o o o o . $ 5 t 2 3 ,.8.r.+ 2 t % . : e 7.a.p   o o o o o o o o . . o o . . . . . . . . . . . . . . . . o o . . . . o . . . . . . . . . . . o . . . o o o o ",
"o o . . . . . . . . . . . . . . . . . . . . . . o o . . . . . o o o o 9 3 l 9 o o . o o o o o o o o o o o o + y t 5 , 2.a.g.M : i u u . = i 7.s.N   o o o o o o . . o o o o o o o o @ . . . . . . . . . . . . . . . . . . . . . . . . . . . . . . . . . o o o o ",
"o o . . . . . . . . . . . . . . . . . . . . . @ . o . . . . . . o o o O r 4 o o . . o o o o o o o o o o o   f u t 2 e e.s.4.+ 2.k y 1.> : >.p.5.% . o o o o o o . . o o o o o o o o . @ . . . . . . @ . . . . . . . . . . . . . . . . . . . . . . . . . o o o o ",
"o o o o . . . . o o . . . . . . . . . . . . . . . . o o . . . . o o o o 4 9 . . o o o o o o o o o o . . # q.2.y 3 , k e.t.% # f.,.a 3.i t >.f.m X @ o o o o o o @ o o X + o + o o O o O . # . . o o . . . . . . o o . . . . . . . . . . . . . . . . . . . o o o ",
"o o o . . . . . o . . . . . . . . . . . . . . . . . o o . . . . o o @ . = 5 . @ o o o o o o o o o . @ . % r.3.y 2 i 7.d.> @ q.f.2.a 8.j h ,.p.4.o o o o o o o X .   o M 5.q.8.5.q.q.q.t.p   .   . . . . . . . . o o . . . . . . . . . . . . . . . . . . . . o o ",
"o o . . . . . . @ . . . . . . . . . . . . . . . . . o o . . . . o o o o X O o o o o o . . . o o o o . . 5.p.3.t e d r.p o % a.f.j a 0.>.h >.a.4.X o o o o o   N 5.4.4.d.p.e.e.9.,.,.,.,.k M 4.M X o . . . . . . o o . . @ . o o . . . . . . . . . . . . . . . . ",
"o o . . . . @ . . . . . . . . . . . . . . . . . . . o . @ . . . o o o o o @ o o o o . . . . o o o o # p 7.p.,.e k d M . o . 7 r.9.a 7.6.d j f.m X o o o   $ N 9.0.e.0.0.k i a a 2.2.2.3.3.e.e.9.m p @ . . . . . o o . . o o o o @ . . . . . . . . . . . . . . . ",
"o o o o . . o o . . . . . . . . . . . . o o . . . . . . o o o o o o o o o o O o o o o o o o o o o o # t.p.d.k ,.6.d i   . . + t.p.a 9.6.d ,.f.m X o o . # 5.e.7.0.8.a e ,.4.4.6.d.d.d.m M M 7 p p p p @ o o . . o o o o o o . . o . . . . . . . . . . . . o o o ",
"o o o o . . o o . . . . . . . . . . . . o . @ . . . . . o o o o o o o o o o O 4 2 o X o o o o o o o % q.p.2.i 9.9.,.t o . # 5.d.7.a 8.9.j ,.f.m X @   p 8.0.7.9.,.i ,.6.8.e.e.6.4.4.4.@   . X       . @ o o . . o o o o o o . . o @ . . . . . . . . . . o o o o ",
"o o o o . . o o . . . . . . o o o o o o o o . . o o . . o o o o o o o o o o o 1 z l 5 o o o o o o o + 7.e.a 6.e.7.f . @ o # q.d.0.a 9.p.2.,.f.4.X o % 8.7.e.6.a a 6.9.7.q.8.5.+ . . . . o o o . . . . . . . . . . . . . o o . . . . . . . . o o @ . . . . . o o ",
"o o o o . . o o o . . . . . o o o o o o o o . . o o . . o o o o o o o o o o @ + 4 4 l l O . o o o o 7 t.3.a 7.t.m . . . o o % t.d.a 6.7.>.j f.m   O s >.0.,.i k 9.0.9.0.8.> + . . . . . o o . . @ . . . . . . . . . . . o o o . . . . . . . o o . . . . . . o o ",
"o o o o o . . o o o . . . . o o o o o o . . . . o o . . . . . o o o o o o o o o 4 l 2 l 9 + o . o   q.p.a 8.t.> O . o o o o # t.p.0.a 7.3.1.f.m X t s d a i 3.0.q.9.e.M % . . . o o . . . . . . . . o o o o . . . . . . . . . . . . . . . . o o @ . . . . . o o ",
"o o o o . . . . o o . . . . . @ o o o o o . . . o o . . . . . . o o o o o o o o O l r 2 l l o . o N r.2.3.p.4.o . @ o o o o # m p.7.i 9.2.>.s.4.  y y t e 6.p.0.7.0.2.O . @ . . o o . . . . . . . . o . o o . . . . . . . . . . . . . . . . . o . . . . . . o o ",
"o o o o o o . . o o o o . . . . o o . . . . o o o o o o o o o o o o o o o o o o O 4 l 2 4 z 5 1 + d.d.,.7.0.7   . o o o o o . O 0.p.2.2.3.j f.m = z e e d >.e.8.8.5.+ . o o . . o o . . . . . . . . @ @ . . o o @ o . . . . . . . . . . . . . . . . . . . . o o ",
"o o o o o o . . o o o o . . . . o o . . . . o o o o o o o o o o o o o o o o o o o + l l < 9 z 9 + q.4.6.e.+ . . . o o o o o .   4.f.q.,.3.j a.5.5 r e y d h 8.7   . . . o . o . o . . . . . . . . . . . . . o o o . . . . . . . . . . . . . . . . . . . . . o o ",
"o o o o o o . . . . . . . . . . o o o o o o o o . . o o . . o o . . . . @ . o o o . l z 5 2 l l > 8.3.q.5.# . . o o o o o o @ X 5.a.8.k 2.,.f.4.< 3 t r t u t 5 5 o % # % # % # # % & . . . . . o . . . . . . . . . . . . . . . . . . . . . . . . . . . . . @ o ",
"o o o o o o . . . . . . . . . . o o o o o o o o . . o o . . o o . . . . o o o o o O r z l < 4 t q.7.4.7 X . . . o o o o o o . X m a.7.i d >.f.6.2 $ = 2 , 3 r t z t 8.a.t.t.t.r.d.r.t.7 # # # . o . . . . . . . . . . . . o . . . . . . . . . . . . . . . . o o ",
". o o o . . . . . . . . o o . . o o . o o o . . o o o o o o o o o o . . o o o o . O l z l < 2 t r.7.= . X o o o o o o o o o o o # q.s.4.d >.6.p X 5 4 t y t t 3 3 e s 8.f.s.s.s.s.s.s.r.r.a.5.. . . . . . . . . . . . . o o . . . . . . . . . . . . . . . . o o ",
". . o o . . . . . . . . o o . . o . . . o . . . o o o . . o o o o o . . o o o o . o 1 l l r < 3 r.k 5 = o o o o o o o o o o o o . > 7.e.<.1.3.u $ t y e r u d u t y , e k k k 2.a.a.g.g.g.s.a.q.y.q.# . . @ . . . . . . o o . . . . . . . . . . . . . . . . o o ",
". . @ . . . o o . . . . @ . . o o o p f f p f f f f f f f O o o o o @ . o o o o o . O x l l 2 3 6.r z 5 . o o o o o o o o o o o . . y.a.2.1.3.d t t s s t 3 y d d d s y j ,.k a a a 6.6.7.g.g.s.s.s.y.5.. . . . @ o o o . . . . . . . . . . o o . . . . . . o o ",
". . o o . . o o . . . . . . o o o o % 6 j <.>.1.2.<.<.<.<.f f f f p X . o o o . o o $ l l l 3 < u l z 1 . o o o o o o o o o o o . . > y.3.g 3.d 3 2 d d d u , u d s s d ,.9.7.8.2.3.i e a k k a.s.s.g.a.q.5.% . o o o o . . . . . . . . . . o . . . . . . . o o ",
"o o . . . . o o . . @ . . . . . o o . . o > u s u u h j 1.<.>.<.<.<.f f p o @ @ o . $ l r l z 2 < l z 9 $ . o o o o o o o o + o @ .   > h ,.3.h 6 : 3.4.,.h y 3 s d d s s k q.9.7.7.8.8.8.a u a a k r.a.h.s.7 + @ o o o o o . . . . . . . . . . . . . . . . . . ",
"o o . . . . o . . . . . . . . . o o . . @ 6 f <.b f y i e e y f j >.>.<.>.f f u X . . $ l z z 4 < l l z 9 o o o o . 6 y 4 r r 5 , 4 l $ f j 3.h 6 o r.g.a.p.9.i y d y s s X p 9.8.7.7.9.7.7.9.,.,.a i 4.r.a.s.y.+   . @ o o . . @ . . . . . . . . . . . . . . . ",
"o o . . . . . . . . . . . . . . o o . . o % O f 1.<.v j b e t e t i s j <.>.>.v 5 + + + l l l z 2 r z z 4 . o o @ > j y z z 3 , r 1 + : d >.3.h 6 X 5.a.s.s.g.q.e 6.6.,.k + # # > 8.8.9.0.9.9.0.r.8.8.k a 3.6.r.r.7 # o . o o o o . . . . . . . . . . . . . . o ",
"o o . . . . . . . . o . . . . . o o . . o . . @ # f >.>.>.g <.>.i e e r u v 1.s r r 4 O = l z l 2 2 r 4 < o o   p 2.<.u 4 3 3 z 5 O . . f <.6.h 6 . o M h.a.s.a.,.,.s.a.a.r.# . o # O M 5.4.8.7.9.7.q.9.6.k i k 0.s.N o   . . o o @ . . . . . . . . . . . . o o ",
"o o . . . o . . . . . . . . . . . . o o o o o . o . f j j j g >.v <.v i i 3 e y t t t r $ l z z l < 2 2 < . O 6 f 2.<.y : r t l O . . . s >.6.h t .   N a.a.a.s.7.e 7.a.a.p.# . o o .   +   p 9.8.8.9.7.9.e.9.,.a 4.r.r.N % . o . . . . . . . . . . . . o o o o ",
"o o . . . . . . . . . . . . . . . . o o o o . . . . . O O h >.1.>.<.>.<.j u u , , 3 r r r r l z r < 2 3 < @ # >.>.>.s 3 r r l O . @ . . f >.6.s % . @ . 7 s.s.s.p.a ,.a.a.p.# . o o . . o . o # . # 4.8.6.9.7.e.0.k ,.9.h.m . . . . . . . . . . . . . @ o o o o ",
"o . . . . . . . . . . . . . . . . . . . o o . . . . . . o f j b j b j g 1.<.<.d 3 3 2 2 3 3 r l r 2 2 2 < . $ j >.j i u z t 4 + . . . . f >.6.p   @ . . % r.a.a.g.q.e 7.g.p.% @ o o o o o o o . .   + # + M 8.6.5.0.9.j 4.p.y.& . o o . . . . . . . . . . . o o ",
"o @ . . . . . . . . . . . . . . . . . . o o . . . . . . o o # @ . $ j <.<.v j v t r 3 2 2 < 2 3 z 4 2 3   p <.>.<.i t h y 5 . o . o . . f >.9.u . @ . . . % a.g.a.s.k 4.s.s.y.# o o o o o o . . . . . . o o # @ % 4.9.q.,.3.f.a.%   . . . . . . . . o . . . o o ",
". . . . . . . . . . . . . . . . . . . . . . o o . . o o o o o o o + p p p 1.1.<.y t t r r 2 : : r r 2 1 7 b <.<.a e g v z 4 . . o o . . f >.e.M X o . . . # 5.r.s.g.8.k a.s.a.% o o o o o o o o @ . . . o o o o . # # . p m k 5.y.> . . o . o . . . o o o o o o ",
". . . . . . . . . . . . . . . . . o . . . . o o . . o o o o o o . o X   o f 1.1.s t t t t r r 2 2 3 3 $ f <.>.>.u u 1.v t 1 . . o o . . f >.e.m   @ @ . @ .   y.s.s.a.a r.g.r.% o o o o o o o o o . . . o o o o . . . .     o o a.t.% . . . o @ . . o o o o o o "
};
